%
(Dial)
(T1  D=0.0625 CR=0 - ZMIN=-0.04 - flat end mill)
G90
G17
G20
G28 G91 Z0
G90

(2D Contour1)
T1 M6
S10000 M3
G54
G0 X1.0012 Y0.75
Z0.6
Z0.2
G1 Z0.0484 F6
Z-0.009
X1.001 Y0.7508 F18
X1.0002 Y0.7512
X0.9994 Y0.7511
X0.9988 Y0.7504
Y0.7496
X0.9994 Y0.7489
X1.0002 Y0.7488
X1.001 Y0.7492
X1.0012 Y0.75
Z-0.018 F6
X1.001 Y0.7508 F18
X1.0002 Y0.7512
X0.9994 Y0.7511
X0.9988 Y0.7504
Y0.7496
X0.9994 Y0.7489
X1.0002 Y0.7488
X1.001 Y0.7492
X1.0012 Y0.75
Z-0.027 F6
X1.001 Y0.7508 F18
X1.0002 Y0.7512
X0.9994 Y0.7511
X0.9988 Y0.7504
Y0.7496
X0.9994 Y0.7489
X1.0002 Y0.7488
X1.001 Y0.7492
X1.0012 Y0.75
Z-0.036 F6
X1.001 Y0.7508 F18
X1.0002 Y0.7512
X0.9994 Y0.7511
X0.9988 Y0.7504
Y0.7496
X0.9994 Y0.7489
X1.0002 Y0.7488
X1.001 Y0.7492
X1.0012 Y0.75
Z-0.04 F6
X1.001 Y0.7508 F18
X1.0002 Y0.7512
X0.9994 Y0.7511
X0.9988 Y0.7504
Y0.7496
X0.9994 Y0.7489
X1.0002 Y0.7488
X1.001 Y0.7492
X1.0012 Y0.75
G0 Z0.6

(2D Contour1 2)
X1 Y0.1388
Z0.6
Z0.2
G1 Z0.0444 F6
Z-0.005
G2 Y1.3612 I0 J0.6112 F18
Y0.1388 I0 J-0.6112
G1 Z-0.01 F6
G2 Y1.3612 I0 J0.6112 F18
Y0.1388 I0 J-0.6112
G1 Z-0.015 F6
G2 Y1.3612 I0 J0.6112 F18
Y0.1388 I0 J-0.6112
G1 Z-0.02 F6
G2 Y1.3612 I0 J0.6112 F18
Y0.1388 I0 J-0.6112
G1 Z-0.025 F6
G2 Y1.3612 I0 J0.6112 F18
Y0.1388 I0 J-0.6112
G1 Z-0.03 F6
G2 Y1.3612 I0 J0.6112 F18
Y0.1388 I0 J-0.6112
G1 Z-0.035 F6
G2 X0.4134 Y0.5785 I0 J0.6112 F18
G1 X0.4133 Z-0.03
G2 X0.3907 Y0.7014 I0.5867 J0.1715
G1 Z-0.035 F6
G2 X0.9491 Y1.3591 I0.6093 J0.0486 F18
G1 Z-0.03
G2 X1.0741 Y1.3567 I0.0509 J-0.6091
G1 Z-0.035 F6
G2 X1.5386 Y0.461 I-0.0741 J-0.6067 F18
G1 Z-0.03
G2 X1.4685 Y0.3575 I-0.5386 J0.289
G1 X1.4686 Z-0.035 F6
G2 X1 Y0.1387 I-0.4686 J0.3925 F18
G1 Y0.1388 Z-0.04 F6
G2 X0.4134 Y0.5785 I0 J0.6112 F18
G1 X0.4133 Z-0.03
G2 X0.3907 Y0.7014 I0.5867 J0.1715
G1 Z-0.04 F6
G2 X0.9491 Y1.3591 I0.6093 J0.0486 F18
G1 Z-0.03
G2 X1.0741 Y1.3567 I0.0509 J-0.6091
G1 Z-0.04 F6
G2 X1.5386 Y0.461 I-0.0741 J-0.6067 F18
G1 Z-0.03
G2 X1.4685 Y0.3575 I-0.5386 J0.289
G1 X1.4686 Z-0.04 F6
G2 X1 Y0.1387 I-0.4686 J0.3925 F18
G0 Y0.1388 Z0.6
G28 G91 Z0
G90
G28 G91 X0 Y0
G90
M30
%
