%
(Case_Back_Bottom)
(T2  D=0.125 CR=0 - ZMIN=-0.0556 - flat end mill)
G90
G17
G20
G28 G91 Z0
G90

(Center Contour 2)
T2 M6
S10000 M3
G54
G0 X1.3298 Y3.3964
Z0.6
Z0.2
G1 Z0.1 F6
G2 X1 Y1.9295 Z-0.009 I-0.3298 J-0.6964 F8
Y3.4705 I0 J0.7705 F18
Y1.9295 I0 J-0.7705
X0.8297 Y1.9486 Z-0.018 I0 J0.7705 F8
X1.1703 Y3.4514 I0.1703 J0.7514 F18
X0.8297 Y1.9486 I-0.1703 J-0.7514
X0.6678 Y2.0048 Z-0.027 I0.1703 J0.7514 F8
X1.3322 Y3.3952 I0.3322 J0.6952 F18
X0.6678 Y2.0048 I-0.3322 J-0.6952
X0.5899 Y2.0477 Z-0.0317 I0.3322 J0.6952 F8
X1.4101 Y3.3523 I0.4101 J0.6523 F18
X0.5899 Y2.0477 I-0.4101 J-0.6523
G0 Z0.6

(Parallel Finishing 4)
M7
X1.059 Y1.939
Z0.6
Z0.06
G1 Z-0.0192 F18
G18 G3 X1.046 Z-0.0317 I-0.0125 K0
G1 X1.0325 Z-0.0311
X1.0037 Z-0.0307
X0.9757 Z-0.031
X0.9592 Z-0.0314
X0.954 Z-0.0317
X0.9523 Z-0.0315
X0.9508 Z-0.0309
X0.9494 Z-0.0299
X0.9484 Z-0.0286
X0.9477 Z-0.0271
X0.9475 Z-0.0254
X0.9472 Y1.9391 Z-0.0235
X0.9463 Y1.9392 Z-0.0217
X0.9449 Y1.9393 Z-0.0204
X0.9432 Y1.9395 Z-0.0195
X0.9413 Y1.9397 Z-0.0192
X0.8741 Y1.9473
X0.8722 Y1.9476 Z-0.0195
X0.8705 Y1.9477 Z-0.0204
X0.8691 Y1.9479 Z-0.0217
X0.8682 Y1.948 Z-0.0235
X0.8679 Z-0.0254
Z-0.0255
X0.8681 Z-0.0272
X0.8689 Z-0.0288
X0.87 Z-0.0301
X0.8714 Z-0.0311
X0.8731 Z-0.0316
X0.8749 Z-0.0317
X0.8881 Z-0.0302
X0.9188 Z-0.0275
X0.9483 Z-0.0258
X0.9761 Z-0.0248
X1.0171 Z-0.0247
X1.0474 Z-0.0256
X1.0747 Z-0.0271
X1.1054 Z-0.0295
X1.1251 Z-0.0317
X1.1268 Z-0.0316
X1.1285 Z-0.0311
X1.1298 Z-0.0306
X1.1313 Z-0.0304
X1.1773
X1.1788 Y1.9483
X1.1802 Y1.9491
X1.1812 Y1.9503
X1.1817 Y1.9518
Y1.9533
X1.1812 Y1.9548
X1.1802 Y1.956
X1.1788 Y1.9568
X1.1773 Y1.957
X1.1759 Z-0.0306
X1.1745 Z-0.0311
X1.1727 Z-0.0316
X1.1708 Z-0.0317
X1.1442 Z-0.0279
X1.1149 Z-0.0244
X1.0904 Z-0.0223
X1.0702 Z-0.0212
X1.0491 Z-0.0202
X1.0144 Z-0.0194
X0.9777 Z-0.0195
X0.9444 Z-0.0204
X0.9113 Z-0.0222
X0.8878 Z-0.0242
X0.8669 Z-0.0265
X0.8477 Z-0.029
X0.8291 Z-0.0317
X0.8273
X0.8255 Z-0.0311
X0.8241 Z-0.0306
X0.8227 Z-0.0305
X0.7872
X0.7857 Y1.9573
X0.7843 Y1.9581
X0.7833 Y1.9593
X0.7828 Y1.9608
Y1.9623
X0.7833 Y1.9638
X0.7843 Y1.965
X0.7857 Y1.9658
X0.7872 Y1.966
X0.7886 Z-0.0306
X0.79 Z-0.0311
X0.7919 Z-0.0317
X0.7939
X0.8143 Z-0.028
X0.846 Z-0.0232
X0.8788 Z-0.0198
X0.9133 Z-0.0171
X0.9467 Z-0.0154
X0.9761 Z-0.0147
X1.0123 Z-0.0146
X1.0483 Z-0.0152
X1.0811 Z-0.0168
X1.1146 Z-0.0192
X1.1507 Z-0.0228
X1.1794 Z-0.027
X1.2061 Z-0.0317
X1.2081
X1.2099 Z-0.0311
X1.2113 Z-0.0306
X1.2127 Z-0.0305
X1.2425
X1.244 Y1.9663
X1.2454 Y1.9671
X1.2464 Y1.9683
X1.2469 Y1.9698
Y1.9713
X1.2464 Y1.9728
X1.2454 Y1.974
X1.244 Y1.9748
X1.2425 Y1.975
X1.2411 Z-0.0306
X1.2398 Z-0.0311
X1.2397 Z-0.0312
X1.2384 Z-0.0316
X1.237 Z-0.0318
X1.2357 Z-0.0317
X1.2127 Z-0.027
X1.1873 Z-0.0225
X1.1474 Z-0.0175
X1.1205 Z-0.0149
X1.0808 Z-0.0125
X1.0464 Z-0.0112
X1.0147 Z-0.0106
X0.976 Z-0.0108
X0.9472 Z-0.0114
X0.9123 Z-0.0129
X0.8788 Z-0.015
X0.847 Z-0.0182
X0.8111 Z-0.0227
X0.7805 Z-0.0283
X0.7644 Z-0.0317
G0 Z0.2
X0.7382 Y1.984
Z0.0604
G1 Z-0.0317 F18
X0.7467 Z-0.0296
X0.7783 Z-0.0229
X0.8088 Z-0.0183
X0.8268 Z-0.0158
X0.8462 Z-0.0138
X0.88 Z-0.011
X0.9112 Z-0.009
X0.9425 Z-0.008
X0.969 Z-0.0074
X1.0146 Z-0.0072
X1.0452 Z-0.0076
X1.0817 Z-0.0087
X1.1117 Z-0.0104
X1.1417 Z-0.0127
X1.1644 Z-0.0148
X1.1795 Z-0.0166
X1.2195 Z-0.0225
X1.2456 Z-0.0279
X1.2618 Z-0.0317
G0 Z0.2
X1.2856 Y1.993
Z0.0604
G1 Z-0.0317 F18
X1.2488 Z-0.0229
X1.2119 Z-0.0166
X1.2002 Z-0.0149
X1.1757 Z-0.0121
X1.1429 Z-0.009
X1.107 Z-0.0069
X1.075 Z-0.0055
X1.0427 Z-0.0046
X1.012 Z-0.0042
X0.9742 Z-0.0043
X0.9398 Z-0.005
X0.9097 Z-0.0061
X0.8792 Z-0.0076
X0.8523 Z-0.0093
X0.8141 Z-0.0132
X0.7931 Z-0.0158
X0.775 Z-0.0187
X0.7491 Z-0.0233
X0.7145 Z-0.0316
G0 Z0.2
X0.6881 Y2.002
Z0.0594
G1 Z-0.0275 F18
X0.6884 Z-0.0291
X0.6892 Z-0.0304
X0.6904 Z-0.0313
X0.6919 Z-0.0318
X0.6935 Z-0.0316
X0.7112 Z-0.0269
X0.7254 Z-0.0233
X0.7457 Z-0.0192
X0.7651 Z-0.0157
X0.7817 Z-0.0134
X0.8163 Z-0.0091
X0.8485 Z-0.0066
X0.8859 Z-0.0042
X0.9252 Z-0.0029
X0.9725 Z-0.0021
X1.0344 Z-0.0022
X1.0698 Z-0.0028
X1.1084 Z-0.004
X1.1398 Z-0.0058
X1.1798 Z-0.0088
X1.2066 Z-0.0119
X1.2297 Z-0.0149
X1.244 Z-0.0173
X1.27 Z-0.0223
X1.2795 Z-0.0245
X1.3066 Z-0.0317
X1.3085 Z-0.0314
X1.3103 Z-0.0305
X1.3116 Z-0.0291
X1.3125 Z-0.0273
X1.3128 Z-0.0254
X1.3131 Y2.0022 Z-0.0235
X1.3139 Y2.0025 Z-0.0217
X1.3152 Y2.0031 Z-0.0204
X1.3168 Y2.0038 Z-0.0195
X1.3185 Y2.0046 Z-0.0192
X1.3269 Y2.0084
X1.3286 Y2.0092 Z-0.0195
X1.3302 Y2.01 Z-0.0204
X1.3315 Y2.0105 Z-0.0217
X1.3323 Y2.0109 Z-0.0235
X1.3326 Y2.011 Z-0.0254
X1.3323 Z-0.0273
X1.3314 Z-0.0291
X1.33 Z-0.0305
X1.3283 Z-0.0314
X1.3263 Z-0.0317
X1.311 Z-0.0273
X1.2931 Z-0.0225
X1.2745 Z-0.0186
X1.2559 Z-0.015
X1.2352 Z-0.0119
X1.2115 Z-0.0087
X1.1708 Z-0.0051
X1.1531 Z-0.0038
X1.1097 Z-0.0019
X1.0724 Z-0.0007
X1.0617 Z-0.0005
X1.061 Z0.0011
X1.0607 Z0.0029
X1.061 Y2.0111 Z0.0049
X1.0619 Y2.0112 Z0.0066
X1.0633 Y2.0114 Z0.008
X1.065 Y2.0116 Z0.0089
X1.0669 Y2.0119 Z0.0092
X1.12 Y2.0192
X1.1219 Y2.0194 Z0.0089
X1.1236 Y2.0197 Z0.008
X1.125 Y2.0199 Z0.0066
X1.1259 Y2.02 Z0.0049
X1.1262 Z0.0029
Z0.0027
X1.1264 Z0.0011
X1.1271 Z-0.0005
X1.1443 Z-0.0013
X1.1875 Z-0.0037
X1.2002 Z-0.0048
X1.2399 Z-0.0089
X1.2796 Z-0.0151
X1.3139 Z-0.0226
X1.3448 Z-0.0317
X1.3468 Z-0.0314
X1.3485 Z-0.0305
X1.3499 Z-0.0291
X1.3508 Z-0.0273
X1.3511 Z-0.0254
X1.3514 Y2.0202 Z-0.0235
X1.3522 Y2.0206 Z-0.0217
X1.3534 Y2.0212 Z-0.0203
X1.3549 Y2.0221 Z-0.0195
X1.3566 Y2.023 Z-0.0192
X1.3625 Y2.0261
X1.3642 Y2.027 Z-0.0195
X1.3658 Y2.0278 Z-0.0203
X1.367 Y2.0285 Z-0.0217
X1.3678 Y2.0289 Z-0.0235
X1.368 Y2.029 Z-0.0254
X1.3677 Z-0.0273
X1.3669 Z-0.0291
X1.3655 Z-0.0305
X1.3637 Z-0.0313
X1.3618 Z-0.0317
X1.3428 Z-0.0256
X1.3322 Z-0.0225
X1.3049 Z-0.016
X1.297 Z-0.0145
X1.2679 Z-0.0095
X1.2541 Z-0.0077
X1.2284 Z-0.0048
X1.2174 Z-0.0037
X1.1738 Z-0.0008
X1.1683 Z-0.0005
X1.1676 Z0.0011
X1.1674 Z0.0027
X1.1676 Y2.0291 Z0.0058
X1.1685 Y2.0293 Z0.0088
X1.1698 Y2.0297 Z0.0116
X1.1716 Y2.0302 Z0.0141
X1.1738 Y2.0308 Z0.0162
X1.1764 Y2.0315 Z0.0178
X1.1792 Y2.0323 Z0.019
X1.1821 Y2.0331 Z0.0195
X1.1851 Y2.034
X1.1881 Y2.0348 Z0.019
X1.1909 Y2.0355 Z0.0178
X1.1934 Y2.0362 Z0.0162
X1.1956 Y2.0369 Z0.0141
X1.1974 Y2.0374 Z0.0116
X1.1988 Y2.0377 Z0.0088
X1.1996 Y2.038 Z0.0058
X1.1999 Z0.0027
X1.2001 Z0.0011
X1.2008 Z-0.0005
X1.2046 Z-0.0007
X1.2443 Z-0.0038
X1.2579 Z-0.0053
X1.2846 Z-0.0088
X1.2973 Z-0.0109
X1.319 Z-0.0149
X1.3313 Z-0.0178
X1.3501 Z-0.0226
X1.3783 Z-0.0317
X1.3792 Z-0.0318
X1.3801 Z-0.0315
X1.3811 Z-0.0313
X1.3962
X1.3978 Y2.0383
X1.3991 Y2.0391
X1.4001 Y2.0403
X1.4007 Y2.0418
Y2.0433
X1.4001 Y2.0448
X1.3991 Y2.046
X1.3978 Y2.0468
X1.3962 Y2.047
X1.3952 Z-0.0315
X1.3943 Z-0.0318
X1.3934 Z-0.0317
X1.3933 Z-0.0316
X1.3725 Z-0.0244
X1.3657 Z-0.0223
X1.338 Z-0.0151
X1.3049 Z-0.0087
X1.2683 Z-0.0038
X1.2283 Z-0.0005
X1.2276 Z0.0011
X1.2274 Z0.0027
X1.2277 Y2.0471 Z0.0055
X1.2285 Y2.0474 Z0.0081
X1.2297 Y2.0479 Z0.0104
X1.2315 Y2.0485 Z0.0124
X1.2335 Y2.0493 Z0.014
X1.2359 Y2.0501 Z0.0152
X1.2384 Y2.0511 Z0.0157
X1.2409 Y2.052
X1.2434 Y2.0529 Z0.0152
X1.2458 Y2.0538 Z0.014
X1.2479 Y2.0545 Z0.0124
X1.2496 Y2.0552 Z0.0104
X1.2508 Y2.0556 Z0.0081
X1.2516 Y2.0559 Z0.0055
X1.2519 Y2.056 Z0.0027
X1.2521 Z0.0011
X1.2528 Z-0.0005
X1.2856 Z-0.0035
X1.2949 Z-0.0046
X1.3271 Z-0.0094
X1.3538 Z-0.0149
X1.3632 Z-0.0173
X1.3821 Z-0.0226
X1.4081 Z-0.0316
X1.409 Z-0.0318
X1.4098 Z-0.0316
X1.4107 Z-0.0313
X1.4246
X1.4261 Y2.0563
X1.4275 Y2.0571
X1.4285 Y2.0583
X1.429 Y2.0598
Y2.0613
X1.4285 Y2.0628
X1.4275 Y2.064
X1.4261 Y2.0648
X1.4246 Y2.065
X1.4236 Z-0.0316
X1.4227 Z-0.0318
X1.4219 Z-0.0317
X1.4016 Z-0.0241
X1.3959 Z-0.0223
X1.3706 Z-0.0151
X1.3413 Z-0.0089
X1.3137 Z-0.0046
X1.3064 Z-0.0037
X1.2747 Z-0.0005
X1.2797 Y2.0671
X1.2846 Y2.0694
X1.2944 Y2.074
X1.3264 Z-0.0039
X1.3583 Z-0.0089
X1.3843 Z-0.0148
X1.391 Z-0.0166
X1.4107 Z-0.0225
X1.4352 Z-0.0317
X1.436 Z-0.0318
X1.4368 Z-0.0316
X1.4377 Z-0.0314
X1.4504
X1.452 Y2.0743
X1.4533 Y2.0751
X1.4543 Y2.0763
X1.4548 Y2.0778
Y2.0793
X1.4543 Y2.0808
X1.4533 Y2.082
X1.452 Y2.0828
X1.4504 Y2.083
X1.4495 Z-0.0316
X1.4487 Z-0.0318
X1.4479 Z-0.0317
X1.4285 Z-0.0241
X1.4233 Z-0.0223
X1.3996 Z-0.015
X1.3724 Z-0.0088
X1.3443 Z-0.004
X1.3131 Z-0.0005
X1.33 Y2.092
X1.359 Z-0.0039
X1.3873 Z-0.0088
X1.4107 Z-0.0145
X1.4166 Z-0.016
X1.4372 Z-0.0226
X1.4599 Z-0.0317
X1.4607 Z-0.0318
X1.4615 Z-0.0316
X1.4623 Z-0.0314
X1.4743
X1.4759 Y2.0923
X1.4772 Y2.0931
X1.4782 Y2.0943
X1.4787 Y2.0958
Y2.0973
X1.4782 Y2.0988
X1.4772 Y2.1
X1.4759 Y2.1008
X1.4743 Y2.101
X1.4735 Z-0.0316
X1.4727 Z-0.0318
X1.4718 Z-0.0317
X1.4496 Z-0.0226
X1.4261 Z-0.015
X1.4011 Z-0.0088
X1.3745 Z-0.004
X1.3462 Z-0.0005
X1.3612 Y2.11
X1.3877 Z-0.0039
X1.4146 Z-0.0089
X1.4385 Z-0.0151
X1.4614 Z-0.0226
X1.4828 Z-0.0317
X1.4847 Z-0.0314
X1.4864 Z-0.0305
X1.4878 Z-0.0291
X1.4887 Z-0.0273
X1.489 Z-0.0254
X1.4892 Y2.1102 Z-0.0235
X1.4899 Y2.1108 Z-0.0217
X1.491 Y2.1117 Z-0.0204
X1.4923 Y2.1128 Z-0.0195
X1.4938 Y2.114 Z-0.0192
X1.4951 Y2.1151
X1.4966 Y2.1163 Z-0.0195
X1.4979 Y2.1174 Z-0.0204
X1.499 Y2.1183 Z-0.0217
X1.4997 Y2.1188 Z-0.0235
X1.4999 Y2.119 Z-0.0254
X1.4996 Z-0.0273
X1.4987 Z-0.0291
X1.4973 Z-0.0305
X1.4956 Z-0.0314
X1.4936 Z-0.0317
X1.4728 Z-0.0227
X1.4505 Z-0.015
X1.4267 Z-0.0088
X1.4019 Z-0.004
X1.3757 Z-0.0005
X1.3891 Y2.128
X1.4135 Z-0.0038
X1.4394 Z-0.0089
X1.4615 Z-0.015
X1.4838 Z-0.0227
X1.5041 Z-0.0317
X1.506 Z-0.0314
X1.5077 Z-0.0305
X1.5091 Z-0.0291
X1.51 Z-0.0273
X1.5103 Z-0.0254
X1.5106 Y2.1282 Z-0.0235
X1.5112 Y2.1288 Z-0.0217
X1.5122 Y2.1298 Z-0.0204
X1.5135 Y2.1309 Z-0.0195
X1.5149 Y2.1322 Z-0.0192
X1.5156 Y2.1328
X1.517 Y2.1341 Z-0.0195
X1.5183 Y2.1353 Z-0.0204
X1.5193 Y2.1362 Z-0.0217
X1.52 Y2.1368 Z-0.0235
X1.5202 Y2.137 Z-0.0254
X1.5199 Z-0.0273
X1.519 Z-0.0291
X1.5176 Z-0.0305
X1.5159 Z-0.0314
X1.514 Z-0.0317
X1.4939 Z-0.0226
X1.4736 Z-0.0153
X1.4497 Z-0.0087
X1.4266 Z-0.004
X1.4022 Z-0.0005
X1.4143 Y2.146
X1.4378 Z-0.0039
X1.4617 Z-0.0089
X1.4831 Z-0.015
X1.504 Z-0.0226
X1.5239 Z-0.0317
X1.5258 Z-0.0314
X1.5275 Z-0.0305
X1.5289 Z-0.0291
X1.5298 Z-0.0273
X1.5301 Z-0.0254
X1.5303 Y2.1462 Z-0.0235
X1.531 Y2.1469 Z-0.0217
X1.532 Y2.1478 Z-0.0204
X1.5332 Y2.149 Z-0.0195
X1.5346 Y2.1504 Z-0.0192
X1.5349 Y2.1507
X1.5362 Y2.152 Z-0.0195
X1.5375 Y2.1532 Z-0.0204
X1.5385 Y2.1542 Z-0.0217
X1.5391 Y2.1548 Z-0.0235
X1.5393 Y2.155 Z-0.0254
X1.539 Z-0.0273
X1.5381 Z-0.0291
X1.5368 Z-0.0305
X1.535 Z-0.0314
X1.5331 Z-0.0317
X1.5137 Z-0.0226
X1.4934 Z-0.0151
X1.4719 Z-0.0088
X1.4485 Z-0.0038
X1.4263 Z-0.0005
X1.4319 Y2.1595
X1.4373 Y2.164
X1.4592 Z-0.0038
X1.4818 Z-0.0088
X1.5032 Z-0.015
X1.5235 Z-0.0228
X1.5421 Z-0.0317
X1.544 Z-0.0313
X1.5457 Z-0.0305
X1.5471 Z-0.0291
X1.548 Z-0.0273
X1.5483 Z-0.0254
X1.5485 Y2.1642 Z-0.0234
X1.5492 Y2.1649 Z-0.0217
X1.5502 Y2.1659 Z-0.0202
X1.5514 Y2.1671 Z-0.0193
X1.5528 Y2.1685 Z-0.019
X1.5542 Y2.1699 Z-0.0193
X1.5555 Y2.1712 Z-0.0202
X1.5565 Y2.1722 Z-0.0217
X1.5571 Y2.1728 Z-0.0234
X1.5573 Y2.173 Z-0.0254
X1.557 Z-0.0273
X1.5561 Z-0.0291
X1.5548 Z-0.0305
X1.553 Z-0.0314
X1.5511 Z-0.0317
X1.5324 Z-0.0227
X1.5123 Z-0.015
X1.4917 Z-0.0088
X1.4696 Z-0.0039
X1.4482 Z-0.0005
X1.4479 Z0.0004
Z0.0007
X1.4481 Y2.1732 Z0.0026
X1.4488 Y2.1737 Z0.0044
X1.4497 Y2.1746 Z0.0058
X1.451 Y2.1757 Z0.0069
X1.4524 Y2.1769 Z0.0075
X1.4539 Y2.1782
X1.4553 Y2.1794 Z0.0069
X1.4565 Y2.1805 Z0.0058
X1.4575 Y2.1813 Z0.0044
X1.4581 Y2.1818 Z0.0026
X1.4583 Y2.182 Z0.0007
X1.4584 Z0.0001
X1.4586 Z-0.0005
X1.4799 Z-0.0039
X1.5012 Z-0.0088
X1.522 Z-0.0152
X1.5406 Z-0.0225
X1.5593 Z-0.0317
X1.5613 Z-0.0314
X1.563 Z-0.0305
X1.5644 Z-0.0291
X1.5653 Z-0.0273
X1.5656 Z-0.0254
X1.5658 Y2.1822 Z-0.0235
X1.5664 Y2.1829 Z-0.0218
X1.5673 Y2.1839 Z-0.0205
X1.5684 Y2.1851 Z-0.0196
X1.5697 Y2.1865 Z-0.0193
X1.5709 Y2.1879 Z-0.0196
X1.5721 Y2.1892 Z-0.0205
X1.573 Y2.1902 Z-0.0218
X1.5736 Y2.1908 Z-0.0235
X1.5738 Y2.191 Z-0.0254
X1.5735 Z-0.0273
X1.5726 Z-0.0291
X1.5712 Z-0.0305
X1.5694 Z-0.0314
X1.5675 Z-0.0317
X1.5499 Z-0.0229
X1.5303 Z-0.015
X1.5107 Z-0.0089
X1.489 Z-0.0038
X1.4685 Z-0.0005
X1.4783 Y2.2
X1.4986 Z-0.0039
X1.5189 Z-0.0087
X1.5387 Z-0.015
X1.5576 Z-0.0226
X1.5757 Z-0.0317
X1.5776 Z-0.0314
X1.5794 Z-0.0305
X1.5807 Z-0.0291
X1.5816 Z-0.0273
X1.5819 Z-0.0254
X1.5821 Y2.2002 Z-0.0236
X1.5827 Y2.2009 Z-0.022
X1.5835 Y2.2019 Z-0.0207
X1.5845 Y2.2031 Z-0.0198
X1.5857 Y2.2045 Z-0.0196
X1.5868 Y2.2059 Z-0.0198
X1.5879 Y2.2072 Z-0.0207
X1.5887 Y2.2082 Z-0.022
X1.5892 Y2.2088 Z-0.0236
X1.5894 Y2.209 Z-0.0254
X1.5891 Z-0.0273
X1.5882 Z-0.0291
X1.5868 Z-0.0305
X1.5851 Z-0.0314
X1.5832 Z-0.0317
X1.5654 Z-0.0226
X1.5472 Z-0.0151
X1.5275 Z-0.0088
X1.5072 Z-0.0038
X1.4873 Z-0.0005
X1.4962 Y2.218
X1.5158 Z-0.0039
X1.5361 Z-0.0088
X1.5548 Z-0.015
X1.5737 Z-0.0229
X1.5906 Z-0.0316
X1.5925 Z-0.0313
X1.5942 Z-0.0304
X1.5956 Z-0.0291
X1.5965 Z-0.0273
X1.5968 Z-0.0254
X1.597 Y2.2182 Z-0.0236
X1.5975 Y2.2189 Z-0.022
X1.5983 Y2.2199 Z-0.0207
X1.5994 Y2.2211 Z-0.0198
X1.6005 Y2.2225 Z-0.0195
X1.6017 Y2.2239 Z-0.0198
X1.6027 Y2.2252 Z-0.0207
X1.6035 Y2.2262 Z-0.022
X1.6041 Y2.2268 Z-0.0236
X1.6043 Y2.227 Z-0.0254
X1.6039 Z-0.0273
X1.6031 Z-0.0291
X1.6017 Z-0.0304
X1.5999 Z-0.0313
X1.598 Z-0.0316
X1.5798 Z-0.0222
X1.5626 Z-0.015
X1.544 Z-0.0088
X1.5242 Z-0.0039
X1.505 Z-0.0005
X1.5091 Y2.2315
X1.5131 Y2.236
X1.5322 Z-0.0039
X1.5513 Z-0.0088
X1.5702 Z-0.015
X1.5878 Z-0.0226
X1.6049 Z-0.0317
X1.6068 Z-0.0314
X1.6086 Z-0.0305
X1.61 Z-0.0291
X1.6108 Z-0.0273
X1.6112 Z-0.0254
X1.6113 Y2.2362 Z-0.0237
X1.6118 Y2.2369 Z-0.0221
X1.6125 Y2.2379 Z-0.0208
X1.6135 Y2.2391 Z-0.0201
X1.6145 Y2.2405 Z-0.0198
X1.6155 Y2.2419 Z-0.0201
X1.6165 Y2.2432 Z-0.0208
X1.6172 Y2.2442 Z-0.0221
X1.6177 Y2.2448 Z-0.0237
X1.6178 Y2.245 Z-0.0254
X1.6175 Z-0.0273
X1.6166 Z-0.0291
X1.6153 Z-0.0304
X1.6135 Z-0.0313
X1.6116 Z-0.0316
X1.5952 Z-0.0228
X1.5772 Z-0.015
X1.559 Z-0.0088
X1.5397 Z-0.0039
X1.5211 Z-0.0005
X1.5209 Z0.0003
Z0.0004
X1.5211 Y2.2452 Z0.0022
X1.5216 Y2.2459 Z0.0039
X1.5225 Y2.2469 Z0.0052
X1.5236 Y2.2481 Z0.006
X1.5248 Y2.2495 Z0.0063
X1.526 Y2.2509 Z0.006
X1.5271 Y2.2522 Z0.0052
X1.528 Y2.2532 Z0.0039
X1.5286 Y2.2538 Z0.0022
X1.5288 Y2.254 Z0.0004
X1.529 Z-0.0005
X1.5473 Z-0.0038
X1.566 Z-0.0088
X1.584 Z-0.015
X1.6014 Z-0.0224
X1.6183 Z-0.0316
X1.6203 Z-0.0313
X1.622 Z-0.0304
X1.6234 Z-0.0291
X1.6243 Z-0.0273
X1.6246 Z-0.0254
X1.6247 Y2.2542 Z-0.0237
X1.6252 Y2.2549 Z-0.0221
X1.6259 Y2.2559 Z-0.0209
X1.6268 Y2.2571 Z-0.0201
X1.6278 Y2.2585 Z-0.0199
X1.6288 Y2.2599 Z-0.0201
X1.6297 Y2.2612 Z-0.0209
X1.6304 Y2.2622 Z-0.0221
X1.6308 Y2.2628 Z-0.0237
X1.631 Y2.263 Z-0.0254
X1.6307 Z-0.0273
X1.6298 Z-0.0291
X1.6284 Z-0.0305
X1.6267 Z-0.0314
X1.6247 Z-0.0317
X1.6079 Z-0.0225
X1.591 Z-0.015
X1.5733 Z-0.0088
X1.5544 Z-0.0039
X1.5362 Z-0.0005
X1.5435 Y2.272
X1.5614 Z-0.0039
X1.58 Z-0.0088
X1.5977 Z-0.0151
X1.6152 Z-0.0229
X1.6308 Z-0.0317
X1.6327 Z-0.0314
X1.6345 Z-0.0305
X1.6359 Z-0.0291
X1.6368 Z-0.0273
X1.6371 Z-0.0254
X1.6372 Y2.2722 Z-0.0237
X1.6376 Y2.2729 Z-0.0222
X1.6383 Y2.2739 Z-0.021
X1.6392 Y2.2751 Z-0.0202
X1.6401 Y2.2765 Z-0.02
X1.6411 Y2.2779 Z-0.0202
X1.6419 Y2.2792 Z-0.021
X1.6426 Y2.2802 Z-0.0222
X1.643 Y2.2808 Z-0.0237
X1.6432 Y2.281 Z-0.0254
X1.6429 Z-0.0273
X1.642 Z-0.0291
X1.6406 Z-0.0305
X1.6388 Z-0.0314
X1.6369 Z-0.0317
X1.6207 Z-0.0225
X1.6039 Z-0.015
X1.5864 Z-0.0088
X1.5682 Z-0.0038
X1.5506 Z-0.0005
X1.5572 Y2.29
X1.5746 Z-0.0039
X1.5929 Z-0.0088
X1.61 Z-0.0149
X1.6263 Z-0.0224
X1.6429 Z-0.0317
X1.6448 Z-0.0314
X1.6465 Z-0.0305
X1.6479 Z-0.0291
X1.6488 Z-0.0273
X1.6491 Z-0.0254
X1.6492 Y2.2902 Z-0.0238
X1.6496 Y2.2909 Z-0.0223
X1.6502 Y2.2919 Z-0.0211
X1.651 Y2.2931 Z-0.0204
X1.6518 Y2.2945 Z-0.0201
X1.6527 Y2.2959 Z-0.0204
X1.6535 Y2.2972 Z-0.0211
X1.6541 Y2.2982 Z-0.0223
X1.6544 Y2.2988 Z-0.0238
X1.6546 Y2.299 Z-0.0254
X1.6543 Z-0.0273
X1.6534 Z-0.0291
X1.652 Z-0.0305
X1.6503 Z-0.0314
X1.6483 Z-0.0317
X1.633 Z-0.0229
X1.6159 Z-0.015
X1.5989 Z-0.0088
X1.5811 Z-0.0039
X1.5637 Z-0.0005
X1.5635 Z0.0002
X1.5637 Y2.2992 Z0.002
X1.5641 Y2.2999 Z0.0035
X1.5648 Y2.3009 Z0.0047
X1.5657 Y2.3021 Z0.0055
X1.5667 Y2.3035 Z0.0058
X1.5677 Y2.3049 Z0.0055
X1.5686 Y2.3062 Z0.0047
X1.5694 Y2.3072 Z0.0035
X1.5698 Y2.3078 Z0.002
X1.57 Y2.308 Z0.0002
X1.5702 Z-0.0005
X1.587 Z-0.0038
X1.6049 Z-0.0088
X1.6219 Z-0.0151
X1.6384 Z-0.0227
X1.6538 Z-0.0317
X1.6557 Z-0.0314
X1.6575 Z-0.0305
X1.6589 Z-0.0291
X1.6598 Z-0.0273
X1.6601 Z-0.0254
X1.6602 Y2.3082 Z-0.0238
X1.6606 Y2.3089 Z-0.0223
X1.6612 Y2.3099 Z-0.0211
X1.662 Y2.3111 Z-0.0204
X1.6628 Y2.3125 Z-0.0201
X1.6637 Y2.3139 Z-0.0204
X1.6644 Y2.3152 Z-0.0211
X1.665 Y2.3162 Z-0.0223
X1.6654 Y2.3168 Z-0.0238
X1.6656 Y2.317 Z-0.0254
X1.6653 Z-0.0273
X1.6644 Z-0.0291
X1.663 Z-0.0305
X1.6612 Z-0.0314
X1.6593 Z-0.0317
X1.6432 Z-0.0224
X1.6274 Z-0.015
X1.6106 Z-0.0088
X1.5928 Z-0.0038
X1.5761 Z-0.0005
X1.582 Y2.326
X1.5987 Z-0.0039
X1.616 Z-0.0087
X1.6327 Z-0.015
X1.6489 Z-0.0227
X1.6643 Z-0.0317
X1.6663 Z-0.0314
X1.668 Z-0.0305
X1.6694 Z-0.0291
X1.6703 Z-0.0273
X1.6706 Z-0.0254
X1.6707 Y2.3263 Z-0.0237
X1.6712 Y2.3271 Z-0.0221
X1.6718 Y2.3283 Z-0.021
X1.6726 Y2.3297 Z-0.0204
X1.6735 Y2.3313
X1.6743 Y2.3328 Z-0.021
X1.6749 Y2.334 Z-0.0221
X1.6753 Y2.3347 Z-0.0237
X1.6755 Y2.335 Z-0.0254
X1.6752 Z-0.0273
X1.6743 Z-0.0291
X1.6729 Z-0.0305
X1.6712 Z-0.0314
X1.6692 Z-0.0317
X1.6543 Z-0.0228
X1.6378 Z-0.015
X1.6215 Z-0.0088
X1.6042 Z-0.0038
X1.5878 Z-0.0005
X1.5905 Y2.3395
X1.5932 Y2.344
X1.6097 Z-0.0039
X1.6266 Z-0.0088
X1.6432 Z-0.0151
X1.6587 Z-0.0225
X1.6741 Z-0.0316
X1.6761 Z-0.0313
X1.6778 Z-0.0305
X1.6792 Z-0.0291
X1.6801 Z-0.0273
X1.6804 Z-0.0254
X1.6805 Y2.3443 Z-0.0237
X1.6809 Y2.3451 Z-0.0221
X1.6816 Y2.3463 Z-0.021
X1.6824 Y2.3477 Z-0.0204
X1.6832 Y2.3493
X1.684 Y2.3508 Z-0.021
X1.6846 Y2.352 Z-0.0221
X1.685 Y2.3527 Z-0.0237
X1.6852 Y2.353 Z-0.0254
X1.6849 Z-0.0273
X1.684 Z-0.0291
X1.6826 Z-0.0305
X1.6809 Z-0.0314
X1.6789 Z-0.0317
X1.6633 Z-0.0224
X1.648 Z-0.015
X1.6316 Z-0.0087
X1.6147 Z-0.0039
X1.5984 Z-0.0005
X1.6037 Y2.362
X1.6198 Z-0.0038
X1.6363 Z-0.0087
X1.6526 Z-0.015
X1.6687 Z-0.0228
X1.6833 Z-0.0316
X1.6852 Z-0.0313
X1.6869 Z-0.0304
X1.6883 Z-0.0291
X1.6892 Z-0.0273
X1.6895 Z-0.0254
X1.6896 Y2.3623 Z-0.0237
X1.69 Y2.3631 Z-0.0222
X1.6906 Y2.3643 Z-0.021
X1.6913 Y2.3657 Z-0.0205
X1.6921 Y2.3673
X1.6928 Y2.3688 Z-0.021
X1.6934 Y2.37 Z-0.0222
X1.6938 Y2.3707 Z-0.0237
X1.6939 Y2.371 Z-0.0254
X1.6936 Z-0.0273
X1.6927 Z-0.0291
X1.6913 Z-0.0305
X1.6896 Z-0.0313
X1.6877 Z-0.0317
X1.6727 Z-0.0225
X1.6572 Z-0.015
X1.641 Z-0.0087
X1.6245 Z-0.0038
X1.6086 Z-0.0005
X1.6133 Y2.38
X1.6293 Z-0.0039
X1.6458 Z-0.0088
X1.6616 Z-0.0149
X1.6769 Z-0.0225
X1.692 Z-0.0317
X1.694 Z-0.0314
X1.6957 Z-0.0305
X1.6971 Z-0.0291
X1.698 Z-0.0273
X1.6983 Z-0.0254
X1.6984 Y2.3803 Z-0.0237
X1.6988 Y2.3811 Z-0.0222
X1.6993 Y2.3823 Z-0.0211
X1.7 Y2.3837 Z-0.0206
X1.7007 Y2.3853
X1.7013 Y2.3868 Z-0.0211
X1.7019 Y2.388 Z-0.0222
X1.7022 Y2.3887 Z-0.0237
X1.7023 Y2.389 Z-0.0254
X1.702 Z-0.0273
X1.7011 Z-0.0291
X1.6997 Z-0.0305
X1.698 Z-0.0314
X1.6961 Z-0.0317
X1.6811 Z-0.0226
X1.6658 Z-0.0149
X1.6501 Z-0.0088
X1.6336 Z-0.0038
X1.618 Z-0.0005
X1.6177 Z0.0003
G0 Z0.2
X1.6225 Y2.398
Z0.0796
G1 Z-0.0005 F18
X1.638 Z-0.0039
X1.6542 Z-0.0087
X1.6702 Z-0.0151
X1.6855 Z-0.0227
X1.6999 Z-0.0317
X1.7019 Z-0.0314
X1.7036 Z-0.0305
X1.705 Z-0.0291
X1.7059 Z-0.0273
X1.7062 Z-0.0254
X1.7063 Y2.3983 Z-0.0237
X1.7066 Y2.3991 Z-0.0222
X1.7071 Y2.4003 Z-0.0211
X1.7078 Y2.4017 Z-0.0206
X1.7084 Y2.4033
X1.709 Y2.4048 Z-0.0211
X1.7095 Y2.406 Z-0.0222
X1.7099 Y2.4067 Z-0.0237
X1.71 Y2.407 Z-0.0254
X1.7097 Z-0.0273
X1.7088 Z-0.0291
X1.7074 Z-0.0304
X1.7057 Z-0.0313
X1.7037 Z-0.0316
X1.6892 Z-0.0226
X1.674 Z-0.0149
X1.6585 Z-0.0088
X1.6422 Z-0.0039
X1.6267 Z-0.0005
X1.6308 Y2.416
X1.6462 Z-0.0038
X1.6623 Z-0.0087
X1.678 Z-0.015
X1.6925 Z-0.0224
X1.7076 Z-0.0317
X1.7096 Z-0.0314
X1.7113 Z-0.0305
X1.7127 Z-0.0291
X1.7136 Z-0.0273
X1.7139 Z-0.0254
X1.714 Y2.4163 Z-0.0237
X1.7143 Y2.4171 Z-0.0223
X1.7147 Y2.4183 Z-0.0212
X1.7153 Y2.4197 Z-0.0207
X1.7159 Y2.4213
X1.7164 Y2.4228 Z-0.0212
X1.7168 Y2.424 Z-0.0223
X1.7171 Y2.4247 Z-0.0237
X1.7172 Y2.425 Z-0.0254
X1.7169 Z-0.0273
X1.716 Z-0.0291
X1.7147 Z-0.0304
X1.7129 Z-0.0313
X1.711 Z-0.0316
X1.6968 Z-0.0227
X1.6814 Z-0.0149
X1.666 Z-0.0087
X1.6501 Z-0.0039
X1.6349 Z-0.0005
X1.6387 Y2.434
X1.6537 Z-0.0038
X1.6696 Z-0.0087
X1.6853 Z-0.015
X1.7 Z-0.0225
X1.7143 Z-0.0316
X1.7163 Z-0.0313
X1.718 Z-0.0304
X1.7194 Z-0.0291
X1.7203 Z-0.0273
X1.7206 Z-0.0254
X1.7207 Y2.4343 Z-0.0237
X1.721 Y2.4351 Z-0.0223
X1.7214 Y2.4363 Z-0.0212
X1.722 Y2.4377 Z-0.0206
X1.7226 Y2.4393
X1.7231 Y2.4408 Z-0.0212
X1.7236 Y2.442 Z-0.0223
X1.7239 Y2.4427 Z-0.0237
X1.724 Y2.443 Z-0.0254
X1.7237 Z-0.0273
X1.7228 Z-0.0291
X1.7214 Z-0.0305
X1.7197 Z-0.0313
X1.7177 Z-0.0317
X1.7032 Z-0.0225
X1.6886 Z-0.015
X1.6732 Z-0.0087
X1.6575 Z-0.0039
X1.6422 Z-0.0005
X1.6458 Y2.452
X1.661 Z-0.0039
X1.6767 Z-0.0088
X1.6918 Z-0.015
X1.7064 Z-0.0225
X1.721 Z-0.0317
X1.723 Z-0.0314
X1.7247 Z-0.0305
X1.7261 Z-0.0291
X1.727 Z-0.0273
X1.7273 Z-0.0254
X1.7274 Y2.4523 Z-0.0238
X1.7276 Y2.4531 Z-0.0224
X1.728 Y2.4543 Z-0.0213
X1.7285 Y2.4557 Z-0.0208
X1.729 Y2.4573
X1.7294 Y2.4588 Z-0.0213
X1.7298 Y2.46 Z-0.0224
X1.7301 Y2.4607 Z-0.0238
Y2.461 Z-0.0254
X1.7298 Z-0.0273
X1.729 Z-0.0291
X1.7276 Z-0.0305
X1.7258 Z-0.0314
X1.7239 Z-0.0317
X1.71 Z-0.0227
X1.6952 Z-0.0151
X1.6801 Z-0.0088
X1.6644 Z-0.0039
X1.6493 Z-0.0005
X1.6525 Y2.47
X1.6674 Z-0.0039
X1.6831 Z-0.0088
X1.6979 Z-0.0149
X1.7127 Z-0.0226
X1.7268 Z-0.0317
X1.7287 Z-0.0313
X1.7304 Z-0.0305
X1.7318 Z-0.0291
X1.7327 Z-0.0273
X1.733 Z-0.0254
X1.7331 Y2.4703 Z-0.0238
X1.7333 Y2.4711 Z-0.0224
X1.7337 Y2.4723 Z-0.0213
X1.7342 Y2.4737 Z-0.0207
X1.7347 Y2.4753
X1.7352 Y2.4768 Z-0.0213
X1.7355 Y2.478 Z-0.0224
X1.7358 Y2.4787 Z-0.0238
X1.7359 Y2.479 Z-0.0254
X1.7356 Z-0.0273
X1.7347 Z-0.0291
X1.7333 Z-0.0304
X1.7316 Z-0.0313
X1.7296 Z-0.0316
X1.7151 Z-0.0224
X1.701 Z-0.015
X1.686 Z-0.0088
X1.6703 Z-0.0038
X1.6555 Z-0.0005
X1.6585 Y2.488
X1.6733 Z-0.0039
X1.6888 Z-0.0088
X1.7037 Z-0.015
X1.7179 Z-0.0224
X1.7324 Z-0.0316
X1.7329 Z-0.0317
X1.7331 Z-0.0316
X1.7356
X1.7371 Y2.4883
X1.7384 Y2.4891
X1.7395 Y2.4903
X1.74 Y2.4917
Y2.4933
X1.7395 Y2.4948
X1.7384 Y2.496
X1.7371 Y2.4967
X1.7356 Y2.497
X1.7353 Z-0.0317
X1.7348 Z-0.0316
X1.7207 Z-0.0225
X1.7065 Z-0.015
X1.6917 Z-0.0088
X1.6762 Z-0.0039
X1.6614 Z-0.0005
X1.664 Y2.506
X1.6789 Z-0.0039
X1.694 Z-0.0087
X1.7091 Z-0.0151
X1.7231 Z-0.0225
X1.7372 Z-0.0316
X1.7391 Z-0.0313
X1.7409 Z-0.0304
X1.7422 Z-0.0291
X1.7431 Z-0.0273
X1.7434 Z-0.0254
X1.7435 Y2.5063 Z-0.0238
X1.7437 Y2.5071 Z-0.0224
X1.744 Y2.5083 Z-0.0214
X1.7444 Y2.5097 Z-0.0208
X1.7449 Y2.5113
X1.7453 Y2.5128 Z-0.0214
X1.7456 Y2.514 Z-0.0224
X1.7458 Y2.5147 Z-0.0238
X1.7459 Y2.515 Z-0.0254
X1.7456 Z-0.0273
X1.7447 Z-0.0291
X1.7433 Z-0.0305
X1.7416 Z-0.0314
X1.7396 Z-0.0317
X1.7254 Z-0.0225
X1.7114 Z-0.015
X1.6966 Z-0.0088
X1.6814 Z-0.0039
X1.6666 Z-0.0005
X1.6691 Y2.524
X1.6837 Z-0.0039
X1.699 Z-0.0088
X1.7134 Z-0.0149
X1.7278 Z-0.0225
X1.7418 Z-0.0317
X1.7438 Z-0.0314
X1.7455 Z-0.0305
X1.7469 Z-0.0291
X1.7478 Z-0.0273
X1.7481 Z-0.0254
Y2.5243 Z-0.0238
X1.7483 Y2.5251 Z-0.0224
X1.7486 Y2.5263 Z-0.0214
X1.7489 Y2.5277 Z-0.0208
X1.7492 Y2.5293
X1.7495 Y2.5308 Z-0.0214
X1.7498 Y2.532 Z-0.0224
X1.7499 Y2.5327 Z-0.0238
X1.75 Y2.533 Z-0.0254
X1.7497 Z-0.0273
X1.7488 Z-0.029
X1.7474 Z-0.0304
X1.7457 Z-0.0313
X1.7437 Z-0.0316
X1.7301 Z-0.0226
X1.7151 Z-0.0147
X1.701 Z-0.0087
X1.6858 Z-0.0038
X1.6714 Z-0.0005
X1.6735 Y2.542
X1.6879 Z-0.0038
X1.7033 Z-0.0088
X1.7179 Z-0.0151
X1.7319 Z-0.0225
X1.7458 Z-0.0317
X1.7477 Z-0.0314
X1.7494 Z-0.0305
X1.7508 Z-0.0291
X1.7517 Z-0.0273
X1.752 Z-0.0254
X1.7521 Y2.5423 Z-0.0238
X1.7522 Y2.5431 Z-0.0224
X1.7525 Y2.5443 Z-0.0214
X1.7528 Y2.5457 Z-0.0209
X1.7532 Y2.5473
X1.7535 Y2.5488 Z-0.0214
X1.7537 Y2.55 Z-0.0224
X1.7539 Y2.5507 Z-0.0238
X1.754 Y2.551 Z-0.0254
X1.7537 Z-0.0273
X1.7528 Z-0.0291
X1.7514 Z-0.0305
X1.7496 Z-0.0314
X1.7477 Z-0.0317
X1.7337 Z-0.0225
X1.7197 Z-0.015
X1.7051 Z-0.0088
X1.6899 Z-0.0038
X1.6755 Z-0.0005
X1.6776 Y2.56
X1.692 Z-0.0039
X1.7071 Z-0.0088
X1.7214 Z-0.0149
X1.7356 Z-0.0225
X1.7494 Z-0.0316
X1.7514 Z-0.0313
X1.7531 Z-0.0304
X1.7545 Z-0.0291
X1.7554 Z-0.0273
X1.7557 Z-0.0254
Y2.5603 Z-0.0238
X1.7558 Y2.5611 Z-0.0224
X1.7561 Y2.5623 Z-0.0214
X1.7563 Y2.5637 Z-0.0209
X1.7566 Y2.5653
X1.7568 Y2.5668 Z-0.0214
X1.757 Y2.568 Z-0.0224
X1.7572 Y2.5687 Z-0.0238
Y2.569 Z-0.0254
X1.7569 Z-0.0273
X1.756 Z-0.0291
X1.7546 Z-0.0305
X1.7529 Z-0.0313
X1.751 Z-0.0316
X1.7371 Z-0.0225
X1.7233 Z-0.015
X1.708 Z-0.0085
X1.6936 Z-0.0038
X1.6793 Z-0.0005
X1.6809 Y2.578
X1.6952 Z-0.0038
X1.7102 Z-0.0088
X1.7248 Z-0.015
X1.7386 Z-0.0225
X1.7525 Z-0.0317
X1.7544 Z-0.0314
X1.7562 Z-0.0305
X1.7575 Z-0.0291
X1.7584 Z-0.0273
X1.7587 Z-0.0254
X1.7588 Y2.5783 Z-0.0239
X1.7589 Y2.5791 Z-0.0225
X1.7591 Y2.5803 Z-0.0215
X1.7594 Y2.5817 Z-0.0209
X1.7596 Y2.5833
X1.7599 Y2.5848 Z-0.0215
X1.7601 Y2.586 Z-0.0225
X1.7602 Y2.5867 Z-0.0239
X1.7603 Y2.587 Z-0.0254
X1.7599 Z-0.0273
X1.7591 Z-0.0291
X1.7577 Z-0.0305
X1.7559 Z-0.0314
X1.754 Z-0.0317
X1.74 Z-0.0224
X1.7261 Z-0.015
X1.7115 Z-0.0087
X1.6969 Z-0.0039
X1.6825 Z-0.0005
X1.6841 Y2.596
X1.6983 Z-0.0039
X1.7133 Z-0.0088
X1.7275 Z-0.0149
X1.7416 Z-0.0225
X1.7552 Z-0.0316
X1.7572 Z-0.0313
X1.7589 Z-0.0304
X1.7603 Z-0.029
X1.7612 Z-0.0273
X1.7615 Z-0.0254
Y2.5963 Z-0.0238
X1.7616 Y2.5971 Z-0.0225
X1.7618 Y2.5983 Z-0.0214
X1.7619 Y2.5997 Z-0.0209
X1.7621 Y2.6013
X1.7623 Y2.6028 Z-0.0214
X1.7625 Y2.604 Z-0.0225
X1.7626 Y2.6047 Z-0.0238
Y2.605 Z-0.0254
X1.7623 Z-0.0273
X1.7614 Z-0.0291
X1.76 Z-0.0304
X1.7583 Z-0.0313
X1.7563 Z-0.0316
X1.7428 Z-0.0226
X1.7287 Z-0.0149
X1.7146 Z-0.0088
X1.6996 Z-0.0039
X1.6853 Z-0.0005
X1.6864 Y2.614
X1.7006 Z-0.0038
X1.7155 Z-0.0088
X1.73 Z-0.015
X1.7438 Z-0.0225
X1.7574 Z-0.0316
X1.7593 Z-0.0313
X1.7611 Z-0.0304
X1.7625 Z-0.0291
X1.7633 Z-0.0273
X1.7637 Z-0.0254
Y2.6143 Z-0.0238
X1.7638 Y2.6151 Z-0.0225
X1.7639 Y2.6163 Z-0.0215
X1.7641 Y2.6177 Z-0.0209
X1.7643 Y2.6193
X1.7645 Y2.6208 Z-0.0215
X1.7646 Y2.622 Z-0.0225
X1.7647 Y2.6227 Z-0.0238
X1.7648 Y2.623 Z-0.0254
X1.7645 Z-0.0273
X1.7636 Z-0.0291
X1.7622 Z-0.0305
X1.7605 Z-0.0314
X1.7585 Z-0.0317
X1.7446 Z-0.0224
X1.7308 Z-0.0149
X1.7167 Z-0.0088
X1.7017 Z-0.0039
X1.6875 Z-0.0005
X1.6886 Y2.632
X1.7028 Z-0.0039
X1.7174 Z-0.0087
X1.7312 Z-0.0147
X1.7454 Z-0.0223
X1.7594 Z-0.0316
X1.7613 Z-0.0313
X1.763 Z-0.0304
X1.7644 Z-0.0291
X1.7653 Z-0.0273
X1.7656 Z-0.0254
Y2.6323 Z-0.0238
X1.7657 Y2.6331 Z-0.0225
X1.7658 Y2.6343 Z-0.0215
X1.7659 Y2.6357 Z-0.0209
X1.766 Y2.6373
X1.7661 Y2.6388 Z-0.0215
X1.7662 Y2.64 Z-0.0225
Y2.6407 Z-0.0238
Y2.641 Z-0.0254
X1.7659 Z-0.0273
X1.765 Z-0.0291
X1.7637 Z-0.0304
X1.7619 Z-0.0313
X1.76 Z-0.0316
X1.7465 Z-0.0225
X1.7327 Z-0.0151
X1.7183 Z-0.0088
X1.7034 Z-0.0038
X1.6893 Z-0.0005
X1.6899 Y2.65
X1.7042 Z-0.0039
X1.7187 Z-0.0087
X1.7332 Z-0.015
X1.7469 Z-0.0225
X1.7607 Z-0.0317
X1.7626 Z-0.0314
X1.7643 Z-0.0305
X1.7657 Z-0.0291
X1.7666 Z-0.0273
X1.7669 Z-0.0254
Y2.6503 Z-0.0239
X1.767 Y2.6511 Z-0.0225
X1.7671 Y2.6523 Z-0.0215
X1.7672 Y2.6537 Z-0.021
X1.7673 Y2.6553
X1.7674 Y2.6568 Z-0.0215
X1.7675 Y2.6579 Z-0.0225
Y2.6587 Z-0.0239
X1.7676 Y2.659 Z-0.0254
X1.7673 Z-0.0273
X1.7664 Z-0.0291
X1.765 Z-0.0305
X1.7632 Z-0.0314
X1.7613 Z-0.0317
X1.7475 Z-0.0225
X1.7338 Z-0.015
X1.7193 Z-0.0087
X1.7048 Z-0.0039
X1.6906 Z-0.0005
X1.6912 Y2.668
X1.7044 Z-0.0036
X1.7192 Z-0.0085
X1.7343 Z-0.015
X1.7481 Z-0.0225
X1.7617 Z-0.0317
X1.7637 Z-0.0314
X1.7654 Z-0.0305
X1.7668 Z-0.0291
X1.7677 Z-0.0273
X1.768 Z-0.0254
Y2.6683 Z-0.0239
Y2.6691 Z-0.0225
X1.7681 Y2.6703 Z-0.0215
Y2.6717 Z-0.021
Y2.6733
X1.7682 Y2.6748 Z-0.0215
Y2.6759 Z-0.0225
Y2.6767 Z-0.0239
Y2.677 Z-0.0254
X1.7679 Z-0.0273
X1.767 Z-0.0291
X1.7656 Z-0.0305
X1.7639 Z-0.0314
X1.762 Z-0.0317
X1.7482 Z-0.0225
X1.7346 Z-0.015
X1.7201 Z-0.0087
X1.7057 Z-0.0039
X1.6914 Z-0.0005
X1.6916 Y2.686
X1.7059 Z-0.0039
X1.7203 Z-0.0087
X1.7348 Z-0.015
X1.7484 Z-0.0225
X1.7622 Z-0.0317
X1.7641 Z-0.0314
X1.7658 Z-0.0305
X1.7672 Z-0.0291
X1.7681 Z-0.0273
X1.7684 Z-0.0254
Y2.6863 Z-0.0239
X1.7685 Y2.6871 Z-0.0225
Y2.6883 Z-0.0215
Y2.6897 Z-0.021
X1.7686 Y2.6913
Y2.6928 Z-0.0215
Y2.6939 Z-0.0225
Y2.6947 Z-0.0239
Y2.695 Z-0.0254
X1.7683 Z-0.0273
X1.7675 Z-0.0291
X1.7661 Z-0.0305
X1.7643 Z-0.0314
X1.7624 Z-0.0317
X1.7487 Z-0.0225
X1.735 Z-0.015
X1.7205 Z-0.0087
X1.7061 Z-0.0039
X1.6918 Z-0.0005
X1.6919 Y2.704
X1.7061 Z-0.0039
X1.7206 Z-0.0087
X1.735 Z-0.015
X1.7487 Z-0.0225
X1.7624 Z-0.0317
X1.7643 Z-0.0314
X1.7661 Z-0.0305
X1.7675 Z-0.0291
X1.7684 Z-0.0273
X1.7687 Z-0.0254
Y2.7043 Z-0.0238
X1.7686 Y2.7051 Z-0.0225
Y2.7062 Z-0.0215
Y2.7077 Z-0.0209
X1.7685 Y2.7093
Y2.7107 Z-0.0215
X1.7684 Y2.7119 Z-0.0225
Y2.7127 Z-0.0238
Y2.713 Z-0.0254
X1.7681 Z-0.0273
X1.7672 Z-0.0291
X1.7658 Z-0.0304
X1.7641 Z-0.0313
X1.7622 Z-0.0316
X1.7486 Z-0.0225
X1.7349 Z-0.015
X1.7205 Z-0.0088
X1.7056 Z-0.0038
X1.6916 Z-0.0005
X1.6914 Y2.722
X1.7054 Z-0.0038
X1.7203 Z-0.0088
X1.7347 Z-0.015
X1.7484 Z-0.0225
X1.762 Z-0.0316
X1.7639 Z-0.0313
X1.7656 Z-0.0304
X1.767 Z-0.0291
X1.7679 Z-0.0273
X1.7682 Z-0.0254
Y2.7223 Z-0.0238
Y2.7231 Z-0.0225
Y2.7242 Z-0.0215
X1.7681 Y2.7257 Z-0.021
Y2.7273
X1.768 Y2.7287 Z-0.0215
Y2.7299 Z-0.0225
Y2.7307 Z-0.0238
Y2.731 Z-0.0254
X1.7677 Z-0.0273
X1.7668 Z-0.0291
X1.7654 Z-0.0304
X1.7637 Z-0.0313
X1.7617 Z-0.0316
X1.7482 Z-0.0226
X1.7345 Z-0.015
X1.7201 Z-0.0088
X1.7047 Z-0.0037
X1.6912 Z-0.0005
X1.6907 Y2.74
X1.705 Z-0.0039
X1.7194 Z-0.0087
X1.7339 Z-0.015
X1.7476 Z-0.0225
X1.7614 Z-0.0317
X1.7633 Z-0.0314
X1.7651 Z-0.0305
X1.7664 Z-0.0291
X1.7673 Z-0.0273
X1.7676 Z-0.0254
Y2.7403 Z-0.0238
Y2.7411 Z-0.0225
X1.7675 Y2.7422 Z-0.0215
X1.7674 Y2.7437 Z-0.0209
X1.7672 Y2.7453
X1.7671 Y2.7467 Z-0.0215
X1.767 Y2.7479 Z-0.0225
Y2.7487 Z-0.0238
Y2.749 Z-0.0254
X1.7666 Z-0.0273
X1.7658 Z-0.0291
X1.7644 Z-0.0304
X1.7626 Z-0.0313
X1.7607 Z-0.0316
X1.7471 Z-0.0226
X1.7334 Z-0.0151
X1.7191 Z-0.0088
X1.7042 Z-0.0039
X1.69 Z-0.0005
X1.6893 Y2.758
X1.7035 Z-0.0038
X1.7183 Z-0.0088
X1.7328 Z-0.015
X1.7465 Z-0.0225
X1.7601 Z-0.0316
X1.762 Z-0.0313
X1.7637 Z-0.0304
X1.7651 Z-0.0291
X1.766 Z-0.0273
X1.7663 Z-0.0254
Y2.7583 Z-0.0238
X1.7662 Y2.759 Z-0.0225
Y2.7602 Z-0.0215
X1.7661 Y2.7617 Z-0.0209
X1.766 Y2.7633
X1.7659 Y2.7647 Z-0.0215
X1.7658 Y2.7659 Z-0.0225
X1.7657 Y2.7667 Z-0.0238
Y2.767 Z-0.0254
X1.7654 Z-0.0273
X1.7645 Z-0.0291
X1.7631 Z-0.0305
X1.7614 Z-0.0314
X1.7595 Z-0.0317
X1.7457 Z-0.0225
X1.7313 Z-0.0147
X1.7171 Z-0.0086
X1.7029 Z-0.0039
X1.6887 Z-0.0005
X1.6876 Y2.776
X1.7019 Z-0.0039
X1.7168 Z-0.0088
X1.731 Z-0.015
X1.7447 Z-0.0224
X1.7586 Z-0.0317
X1.7606 Z-0.0314
X1.7623 Z-0.0305
X1.7637 Z-0.0291
X1.7646 Z-0.0273
X1.7649 Z-0.0254
Y2.7763 Z-0.0239
X1.7648 Y2.777 Z-0.0225
X1.7646 Y2.7782 Z-0.0215
X1.7644 Y2.7797 Z-0.0209
X1.7643 Y2.7813
X1.7641 Y2.7827 Z-0.0215
X1.7639 Y2.7839 Z-0.0225
X1.7638 Y2.7847 Z-0.0239
Y2.785 Z-0.0254
X1.7635 Z-0.0273
X1.7626 Z-0.0291
X1.7612 Z-0.0305
X1.7595 Z-0.0314
X1.7576 Z-0.0317
X1.7438 Z-0.0225
X1.73 Z-0.015
X1.7155 Z-0.0087
X1.7006 Z-0.0038
X1.6865 Z-0.0005
X1.6854 Y2.794
X1.6994 Z-0.0038
X1.7147 Z-0.0088
X1.7289 Z-0.0149
X1.7429 Z-0.0226
X1.7565 Z-0.0316
X1.7584 Z-0.0313
X1.7601 Z-0.0304
X1.7615 Z-0.0291
X1.7624 Z-0.0273
X1.7627 Z-0.0254
Y2.7943 Z-0.0238
X1.7626 Y2.795 Z-0.0225
X1.7624 Y2.7962 Z-0.0214
X1.7623 Y2.7977 Z-0.0209
X1.7621 Y2.7993
X1.7619 Y2.8007 Z-0.0214
X1.7617 Y2.8019 Z-0.0225
X1.7616 Y2.8027 Z-0.0238
Y2.803 Z-0.0254
X1.7613 Z-0.0273
X1.7604 Z-0.029
X1.759 Z-0.0304
X1.7573 Z-0.0313
X1.7554 Z-0.0316
X1.7414 Z-0.0223
X1.7279 Z-0.0151
X1.7134 Z-0.0088
X1.6984 Z-0.0039
X1.6842 Z-0.0005
X1.6827 Y2.812
X1.6968 Z-0.0038
X1.7118 Z-0.0087
X1.7264 Z-0.015
X1.7402 Z-0.0225
X1.7541 Z-0.0316
X1.7561 Z-0.0313
X1.7578 Z-0.0304
X1.7592 Z-0.0291
X1.7601 Z-0.0273
X1.7604 Z-0.0254
X1.7603 Y2.8123 Z-0.0238
X1.7602 Y2.813 Z-0.0225
X1.76 Y2.8142 Z-0.0214
X1.7598 Y2.8157 Z-0.0209
X1.7595 Y2.8173
X1.7593 Y2.8187 Z-0.0214
X1.7591 Y2.8199 Z-0.0225
X1.7589 Y2.8207 Z-0.0238
Y2.821 Z-0.0254
X1.7586 Z-0.0273
X1.7577 Z-0.0291
X1.7563 Z-0.0305
X1.7546 Z-0.0314
X1.7527 Z-0.0317
X1.7388 Z-0.0225
X1.725 Z-0.015
X1.7104 Z-0.0088
X1.6954 Z-0.0038
X1.6811 Z-0.0005
X1.6795 Y2.83
X1.6937 Z-0.0038
X1.7085 Z-0.0086
X1.7233 Z-0.0149
X1.7375 Z-0.0226
X1.7511 Z-0.0316
X1.753 Z-0.0313
X1.7548 Z-0.0304
X1.7561 Z-0.029
X1.757 Z-0.0273
X1.7573 Z-0.0254
Y2.8303 Z-0.0238
X1.7572 Y2.831 Z-0.0224
X1.757 Y2.8322 Z-0.0214
X1.7567 Y2.8337 Z-0.0209
X1.7565 Y2.8353
X1.7562 Y2.8367 Z-0.0214
X1.756 Y2.8379 Z-0.0224
X1.7559 Y2.8387 Z-0.0238
X1.7558 Y2.839 Z-0.0254
X1.7555 Z-0.0273
X1.7546 Z-0.0291
X1.7533 Z-0.0304
X1.7515 Z-0.0313
X1.7496 Z-0.0316
X1.7359 Z-0.0226
X1.7218 Z-0.015
X1.7071 Z-0.0087
X1.692 Z-0.0038
X1.6778 Z-0.0005
X1.6757 Y2.848
X1.6901 Z-0.0038
X1.7052 Z-0.0087
X1.7199 Z-0.015
X1.7338 Z-0.0225
X1.7479 Z-0.0317
X1.7499 Z-0.0314
X1.7516 Z-0.0305
X1.753 Z-0.0291
X1.7539 Z-0.0273
X1.7542 Z-0.0254
X1.7541 Y2.8483 Z-0.0238
X1.754 Y2.849 Z-0.0224
X1.7537 Y2.8502 Z-0.0214
X1.7534 Y2.8517 Z-0.0209
X1.753 Y2.8533
X1.7527 Y2.8547 Z-0.0214
X1.7525 Y2.8559 Z-0.0224
X1.7523 Y2.8567 Z-0.0238
X1.7522 Y2.857 Z-0.0254
X1.7519 Z-0.0273
X1.751 Z-0.0291
X1.7496 Z-0.0305
X1.7479 Z-0.0314
X1.746 Z-0.0317
X1.7321 Z-0.0225
X1.7179 Z-0.0149
X1.7035 Z-0.0088
X1.6881 Z-0.0038
X1.6737 Z-0.0005
X1.6716 Y2.866
X1.6862 Z-0.0039
X1.7015 Z-0.0088
X1.7153 Z-0.0147
X1.7302 Z-0.0225
X1.744 Z-0.0317
X1.746 Z-0.0314
X1.7477 Z-0.0305
X1.7491 Z-0.0291
X1.75 Z-0.0273
X1.7503 Z-0.0254
X1.7502 Y2.8663 Z-0.0238
X1.75 Y2.867 Z-0.0224
X1.7498 Y2.8682 Z-0.0214
X1.7495 Y2.8697 Z-0.0209
X1.7491 Y2.8713
X1.7488 Y2.8727 Z-0.0214
X1.7485 Y2.8739 Z-0.0224
X1.7484 Y2.8747 Z-0.0238
X1.7483 Y2.875 Z-0.0254
X1.748 Z-0.0273
X1.7471 Z-0.0291
X1.7457 Z-0.0305
X1.744 Z-0.0314
X1.7421 Z-0.0317
X1.7281 Z-0.0226
X1.7138 Z-0.015
X1.699 Z-0.0088
X1.6838 Z-0.0038
X1.6694 Z-0.0005
X1.6668 Y2.884
X1.6816 Z-0.0039
X1.6969 Z-0.0088
X1.7116 Z-0.015
X1.7256 Z-0.0225
X1.7399 Z-0.0317
X1.7418 Z-0.0314
X1.7436 Z-0.0305
X1.7449 Z-0.0291
X1.7458 Z-0.0273
X1.7461 Z-0.0254
Y2.8843 Z-0.0238
X1.7459 Y2.885 Z-0.0224
X1.7455 Y2.8862 Z-0.0213
X1.7451 Y2.8877 Z-0.0208
X1.7447 Y2.8893
X1.7443 Y2.8907 Z-0.0213
X1.744 Y2.8919 Z-0.0224
X1.7438 Y2.8927 Z-0.0238
X1.7437 Y2.893 Z-0.0254
X1.7434 Z-0.0273
X1.7425 Z-0.0291
X1.7411 Z-0.0304
X1.7394 Z-0.0313
X1.7374 Z-0.0316
X1.7234 Z-0.0225
X1.7093 Z-0.015
X1.6946 Z-0.0088
X1.6789 Z-0.0038
X1.6643 Z-0.0005
X1.6617 Y2.902
X1.6764 Z-0.0039
X1.6919 Z-0.0088
X1.7068 Z-0.015
X1.721 Z-0.0225
X1.735 Z-0.0316
X1.7369 Z-0.0313
X1.7387 Z-0.0304
X1.7401 Z-0.0291
X1.741 Z-0.0273
X1.7413 Z-0.0254
X1.7412 Y2.9023 Z-0.0238
X1.741 Y2.903 Z-0.0224
X1.7407 Y2.9042 Z-0.0213
X1.7403 Y2.9057 Z-0.0208
X1.7399 Y2.9073
X1.7395 Y2.9087 Z-0.0213
X1.7392 Y2.9099 Z-0.0224
X1.739 Y2.9107 Z-0.0238
X1.7389 Y2.911 Z-0.0254
X1.7386 Z-0.0273
X1.7377 Z-0.0291
X1.7363 Z-0.0305
X1.7346 Z-0.0314
X1.7327 Z-0.0317
X1.7184 Z-0.0225
X1.704 Z-0.015
X1.689 Z-0.0087
X1.6735 Z-0.0038
X1.6589 Z-0.0005
X1.6558 Y2.92
X1.6707 Z-0.0038
X1.6865 Z-0.0088
X1.7014 Z-0.015
X1.7155 Z-0.0225
X1.73 Z-0.0317
X1.7319 Z-0.0314
X1.7336 Z-0.0305
X1.735 Z-0.0291
X1.7359 Z-0.0273
X1.7362 Z-0.0254
X1.7361 Y2.9203 Z-0.0238
X1.7359 Y2.921 Z-0.0224
X1.7355 Y2.9222 Z-0.0213
X1.735 Y2.9237 Z-0.0207
X1.7345 Y2.9253
X1.7341 Y2.9267 Z-0.0213
X1.7337 Y2.9279 Z-0.0224
X1.7334 Y2.9287 Z-0.0238
X1.7333 Y2.929 Z-0.0254
X1.733 Z-0.0273
X1.7321 Z-0.0291
X1.7308 Z-0.0305
X1.729 Z-0.0313
X1.7271 Z-0.0317
X1.713 Z-0.0226
X1.6984 Z-0.015
X1.6835 Z-0.0088
X1.6679 Z-0.0039
X1.6528 Z-0.0005
X1.6497 Y2.938
X1.6644 Z-0.0038
X1.6804 Z-0.0088
X1.6955 Z-0.015
X1.7103 Z-0.0227
X1.7242 Z-0.0317
X1.7261 Z-0.0314
X1.7279 Z-0.0305
X1.7293 Z-0.0291
X1.7302 Z-0.0273
X1.7305 Z-0.0254
X1.7304 Y2.9383 Z-0.0238
X1.7301 Y2.939 Z-0.0224
X1.7297 Y2.9402 Z-0.0213
X1.7293 Y2.9417 Z-0.0208
X1.7288 Y2.9433
X1.7283 Y2.9447 Z-0.0213
X1.7279 Y2.9459 Z-0.0224
X1.7277 Y2.9467 Z-0.0238
X1.7276 Y2.947 Z-0.0254
X1.7273 Z-0.0273
X1.7264 Z-0.0291
X1.725 Z-0.0305
X1.7233 Z-0.0314
X1.7213 Z-0.0317
X1.7067 Z-0.0225
X1.6921 Z-0.015
X1.677 Z-0.0088
X1.6613 Z-0.0039
X1.6462 Z-0.0005
X1.6426 Y2.956
X1.6579 Z-0.0039
X1.6736 Z-0.0087
X1.689 Z-0.015
X1.7036 Z-0.0225
X1.7181 Z-0.0317
X1.72 Z-0.0314
X1.7218 Z-0.0305
X1.7232 Z-0.0291
X1.7241 Z-0.0273
X1.7244 Z-0.0254
X1.7243 Y2.9563 Z-0.0237
X1.724 Y2.957 Z-0.0223
X1.7235 Y2.9582 Z-0.0212
X1.723 Y2.9597 Z-0.0206
X1.7224 Y2.9613
X1.7218 Y2.9627 Z-0.0212
X1.7214 Y2.9639 Z-0.0223
X1.7211 Y2.9647 Z-0.0237
X1.721 Y2.965 Z-0.0254
X1.7207 Z-0.0273
X1.7198 Z-0.029
X1.7184 Z-0.0304
X1.7166 Z-0.0313
X1.7147 Z-0.0316
X1.7004 Z-0.0225
X1.6857 Z-0.015
X1.6704 Z-0.0088
X1.6544 Z-0.0039
X1.6391 Z-0.0005
X1.6353 Y2.974
X1.6505 Z-0.0038
X1.6664 Z-0.0087
X1.6818 Z-0.0149
X1.6972 Z-0.0227
X1.7114 Z-0.0316
X1.7133 Z-0.0313
X1.715 Z-0.0304
X1.7164 Z-0.0291
X1.7173 Z-0.0273
X1.7176 Z-0.0254
X1.7175 Y2.9743 Z-0.0237
X1.7172 Y2.975 Z-0.0223
X1.7168 Y2.9762 Z-0.0212
X1.7162 Y2.9777 Z-0.0207
X1.7157 Y2.9793
X1.7151 Y2.9807 Z-0.0212
X1.7147 Y2.9819 Z-0.0223
X1.7144 Y2.9827 Z-0.0237
X1.7143 Y2.983 Z-0.0254
X1.714 Z-0.0273
X1.7131 Z-0.0291
X1.7117 Z-0.0305
X1.71 Z-0.0314
X1.708 Z-0.0317
X1.693 Z-0.0224
X1.6784 Z-0.0151
X1.6627 Z-0.0087
X1.6461 Z-0.0037
X1.6312 Z-0.0005
X1.6271 Y2.992
X1.6425 Z-0.0038
X1.6591 Z-0.0088
X1.6745 Z-0.015
X1.6895 Z-0.0225
X1.7042 Z-0.0317
X1.7061 Z-0.0313
X1.7079 Z-0.0305
X1.7093 Z-0.0291
X1.7101 Z-0.0273
X1.7104 Z-0.0254
X1.7103 Y2.9923 Z-0.0237
X1.71 Y2.993 Z-0.0223
X1.7095 Y2.9942 Z-0.0212
X1.7089 Y2.9957 Z-0.0206
X1.7082 Y2.9973
X1.7076 Y2.9987 Z-0.0212
X1.7071 Y2.9999 Z-0.0223
X1.7067 Y3.0007 Z-0.0237
X1.7066 Y3.001 Z-0.0254
X1.7063 Z-0.0273
X1.7054 Z-0.0291
X1.704 Z-0.0305
X1.7023 Z-0.0314
X1.7004 Z-0.0317
X1.6859 Z-0.0227
X1.6706 Z-0.015
X1.6547 Z-0.0087
X1.6385 Z-0.0039
X1.623 Z-0.0005
X1.6208 Y3.0055
X1.6185 Y3.01
X1.6342 Z-0.0038
X1.6508 Z-0.0088
X1.6664 Z-0.015
X1.6819 Z-0.0227
X1.6965 Z-0.0317
X1.6984 Z-0.0314
X1.7002 Z-0.0305
X1.7016 Z-0.0291
X1.7024 Z-0.0273
X1.7028 Z-0.0254
X1.7026 Y3.0103 Z-0.0237
X1.7023 Y3.011 Z-0.0222
X1.7018 Y3.0122 Z-0.0211
X1.7011 Y3.0137 Z-0.0206
X1.7004 Y3.0153
X1.6998 Y3.0167 Z-0.0211
X1.6992 Y3.0179 Z-0.0222
X1.6989 Y3.0187 Z-0.0237
X1.6988 Y3.019 Z-0.0254
X1.6985 Z-0.0273
X1.6976 Z-0.0291
X1.6962 Z-0.0305
X1.6945 Z-0.0314
X1.6925 Z-0.0317
X1.6772 Z-0.0224
X1.6621 Z-0.0149
X1.6463 Z-0.0088
X1.6297 Z-0.0039
X1.6138 Z-0.0005
X1.6092 Y3.028
X1.6251 Z-0.0039
X1.6416 Z-0.0088
X1.6579 Z-0.0151
X1.6731 Z-0.0225
X1.6881 Z-0.0316
X1.69 Z-0.0313
X1.6918 Z-0.0304
X1.6932 Z-0.0291
X1.6941 Z-0.0273
X1.6944 Z-0.0254
X1.6942 Y3.0283 Z-0.0237
X1.6939 Y3.029 Z-0.0222
X1.6933 Y3.0302 Z-0.0211
X1.6926 Y3.0317 Z-0.0205
X1.6918 Y3.0333
X1.6911 Y3.0347 Z-0.0211
X1.6905 Y3.0359 Z-0.0222
X1.6902 Y3.0367 Z-0.0237
X1.69 Y3.037 Z-0.0254
X1.6897 Z-0.0273
X1.6888 Z-0.0291
X1.6875 Z-0.0305
X1.6857 Z-0.0314
X1.6838 Z-0.0317
X1.6693 Z-0.0229
X1.6532 Z-0.015
X1.6369 Z-0.0087
X1.6203 Z-0.0039
X1.6042 Z-0.0005
X1.599 Y3.046
X1.6152 Z-0.0038
X1.6321 Z-0.0087
X1.6484 Z-0.015
X1.664 Z-0.0225
X1.6794 Z-0.0316
X1.6813 Z-0.0313
X1.6831 Z-0.0304
X1.6844 Z-0.0291
X1.6853 Z-0.0273
X1.6856 Z-0.0254
X1.6855 Y3.0463 Z-0.0237
X1.6851 Y3.047 Z-0.0221
X1.6845 Y3.0482 Z-0.021
X1.6837 Y3.0497 Z-0.0204
X1.6829 Y3.0513
X1.6821 Y3.0527 Z-0.021
X1.6815 Y3.0539 Z-0.0221
X1.6811 Y3.0547 Z-0.0237
X1.681 Y3.055 Z-0.0254
X1.6807 Z-0.0273
X1.6798 Z-0.0291
X1.6784 Z-0.0305
X1.6766 Z-0.0314
X1.6747 Z-0.0317
X1.6592 Z-0.0225
X1.6439 Z-0.0151
X1.6273 Z-0.0088
X1.6099 Z-0.0038
X1.5938 Z-0.0005
X1.5936 Z0.0002
X1.5934 Y3.0552 Z0.0018
X1.5931 Y3.0558 Z0.0033
X1.5925 Y3.0568 Z0.0044
X1.5917 Y3.0581 Z0.0052
X1.5909 Y3.0595 Z0.0054
X1.5901 Y3.0609 Z0.0052
X1.5893 Y3.0621 Z0.0044
X1.5888 Y3.0631 Z0.0033
X1.5884 Y3.0638 Z0.0018
X1.5883 Y3.064 Z0.0002
X1.5884 Z-0.0005
X1.6049 Z-0.0039
X1.6218 Z-0.0087
X1.6384 Z-0.015
X1.6549 Z-0.0228
X1.6698 Z-0.0317
X1.6717 Z-0.0314
X1.6735 Z-0.0305
X1.6748 Z-0.0291
X1.6757 Z-0.0273
X1.676 Z-0.0254
X1.6759 Y3.0643 Z-0.0237
X1.6755 Y3.065 Z-0.0221
X1.6748 Y3.0662 Z-0.021
X1.674 Y3.0677 Z-0.0204
X1.6732 Y3.0693
X1.6723 Y3.0707 Z-0.021
X1.6717 Y3.0719 Z-0.0221
X1.6713 Y3.0727 Z-0.0237
X1.6711 Y3.073 Z-0.0254
X1.6708 Z-0.0273
X1.6699 Z-0.0291
X1.6685 Z-0.0305
X1.6668 Z-0.0314
X1.6649 Z-0.0317
X1.6497 Z-0.0228
X1.6332 Z-0.015
X1.6166 Z-0.0087
X1.5993 Z-0.0039
X1.5826 Z-0.0005
X1.5767 Y3.082
X1.5937 Z-0.0039
X1.6111 Z-0.0088
X1.628 Z-0.015
X1.6438 Z-0.0225
X1.6599 Z-0.0317
X1.6618 Z-0.0314
X1.6636 Z-0.0305
X1.665 Z-0.0291
X1.6659 Z-0.0273
X1.6662 Z-0.0254
X1.666 Y3.0822 Z-0.0238
X1.6656 Y3.0828 Z-0.0223
X1.665 Y3.0838 Z-0.0211
X1.6643 Y3.0851 Z-0.0204
X1.6634 Y3.0865 Z-0.0201
X1.6626 Y3.0879 Z-0.0204
X1.6618 Y3.0891 Z-0.0211
X1.6612 Y3.0901 Z-0.0223
X1.6608 Y3.0908 Z-0.0238
X1.6607 Y3.091 Z-0.0254
X1.6604 Z-0.0273
X1.6595 Z-0.0291
X1.6581 Z-0.0305
X1.6564 Z-0.0314
X1.6544 Z-0.0317
X1.6387 Z-0.0226
X1.6225 Z-0.0151
X1.6055 Z-0.0088
X1.5877 Z-0.0038
X1.5708 Z-0.0005
X1.5677 Y3.0955
X1.5644 Y3.1
X1.5816 Z-0.0039
X1.5998 Z-0.0088
X1.6164 Z-0.015
X1.6336 Z-0.0229
X1.6489 Z-0.0317
X1.6509 Z-0.0314
X1.6526 Z-0.0305
X1.654 Z-0.0291
X1.6549 Z-0.0273
X1.6552 Z-0.0254
X1.6551 Y3.1002 Z-0.0238
X1.6547 Y3.1008 Z-0.0223
X1.6541 Y3.1018 Z-0.0211
X1.6533 Y3.1031 Z-0.0204
X1.6525 Y3.1045 Z-0.0201
X1.6516 Y3.1059 Z-0.0204
X1.6508 Y3.1071 Z-0.0211
X1.6502 Y3.1081 Z-0.0223
X1.6498 Y3.1088 Z-0.0238
X1.6497 Y3.109 Z-0.0254
X1.6494 Z-0.0273
X1.6485 Z-0.0291
X1.6471 Z-0.0305
X1.6454 Z-0.0314
X1.6435 Z-0.0317
X1.6271 Z-0.0225
X1.6108 Z-0.015
X1.5933 Z-0.0088
X1.5755 Z-0.0039
X1.5579 Z-0.0005
X1.5514 Y3.118
X1.5689 Z-0.0039
X1.5872 Z-0.0088
X1.6046 Z-0.015
X1.6213 Z-0.0225
X1.6376 Z-0.0317
X1.6395 Z-0.0314
X1.6413 Z-0.0305
X1.6426 Z-0.0291
X1.6435 Z-0.0273
X1.6438 Z-0.0254
X1.6437 Y3.1182 Z-0.0237
X1.6433 Y3.1188 Z-0.0222
X1.6426 Y3.1198 Z-0.021
X1.6417 Y3.1211 Z-0.0202
X1.6408 Y3.1225 Z-0.02
X1.6398 Y3.1239 Z-0.0202
X1.639 Y3.1251 Z-0.021
X1.6383 Y3.1261 Z-0.0222
X1.6379 Y3.1268 Z-0.0237
X1.6377 Y3.127 Z-0.0254
X1.6374 Z-0.0273
X1.6365 Z-0.0291
X1.6352 Z-0.0305
X1.6334 Z-0.0314
X1.6315 Z-0.0317
X1.6159 Z-0.0229
X1.5983 Z-0.015
X1.5809 Z-0.0088
X1.5621 Z-0.0039
X1.5443 Z-0.0005
X1.537 Y3.136
X1.5551 Z-0.0039
X1.574 Z-0.0088
X1.5919 Z-0.015
X1.6086 Z-0.0225
X1.6254 Z-0.0317
X1.6273 Z-0.0314
X1.6291 Z-0.0305
X1.6305 Z-0.0291
X1.6313 Z-0.0273
X1.6317 Z-0.0254
X1.6315 Y3.1362 Z-0.0237
X1.6311 Y3.1368 Z-0.0222
X1.6304 Y3.1378 Z-0.021
X1.6295 Y3.1391 Z-0.0202
X1.6285 Y3.1405 Z-0.0199
X1.6275 Y3.1419 Z-0.0202
X1.6267 Y3.1431 Z-0.021
X1.626 Y3.1441 Z-0.0222
X1.6255 Y3.1448 Z-0.0237
X1.6254 Y3.145 Z-0.0254
X1.6251 Z-0.0273
X1.6242 Z-0.0291
X1.6228 Z-0.0305
X1.621 Z-0.0313
X1.6191 Z-0.0317
X1.6014 Z-0.0221
X1.5851 Z-0.0151
X1.5667 Z-0.0087
X1.5482 Z-0.0039
X1.5298 Z-0.0005
X1.526 Y3.1495
X1.522 Y3.154
X1.5405 Z-0.0039
X1.5598 Z-0.0088
X1.578 Z-0.015
X1.5961 Z-0.0228
X1.6124 Z-0.0316
X1.6143 Z-0.0313
X1.616 Z-0.0305
X1.6174 Z-0.0291
X1.6183 Z-0.0273
X1.6186 Z-0.0254
X1.6184 Y3.1542 Z-0.0237
X1.618 Y3.1548 Z-0.0221
X1.6172 Y3.1558 Z-0.0209
X1.6163 Y3.1571 Z-0.0201
X1.6153 Y3.1585 Z-0.0198
X1.6142 Y3.1599 Z-0.0201
X1.6133 Y3.1611 Z-0.0209
X1.6125 Y3.1621 Z-0.0221
X1.6121 Y3.1628 Z-0.0237
X1.6119 Y3.163 Z-0.0254
X1.6116 Z-0.0273
X1.6107 Z-0.0291
X1.6093 Z-0.0305
X1.6076 Z-0.0314
X1.6057 Z-0.0317
X1.5889 Z-0.0227
X1.571 Z-0.015
X1.5522 Z-0.0087
X1.5331 Z-0.0039
X1.514 Z-0.0005
X1.5059 Y3.172
X1.5253 Z-0.0039
X1.5445 Z-0.0088
X1.5636 Z-0.0151
X1.5804 Z-0.0221
X1.5989 Z-0.0317
X1.6008 Z-0.0314
X1.6025 Z-0.0305
X1.6039 Z-0.0291
X1.6048 Z-0.0273
X1.6051 Z-0.0254
X1.6049 Y3.1722 Z-0.0236
X1.6044 Y3.1728 Z-0.022
X1.6036 Y3.1738 Z-0.0207
X1.6025 Y3.1751 Z-0.0199
X1.6014 Y3.1765 Z-0.0196
X1.6002 Y3.1779 Z-0.0199
X1.5992 Y3.1791 Z-0.0207
X1.5984 Y3.1801 Z-0.022
X1.5979 Y3.1808 Z-0.0236
X1.5977 Y3.181 Z-0.0254
X1.5974 Z-0.0273
X1.5965 Z-0.0291
X1.5951 Z-0.0305
X1.5934 Z-0.0314
X1.5914 Z-0.0317
X1.5744 Z-0.0228
X1.5558 Z-0.015
X1.5369 Z-0.0088
X1.5168 Z-0.0039
X1.4972 Z-0.0005
X1.4883 Y3.19
X1.5085 Z-0.0039
X1.5283 Z-0.0087
X1.548 Z-0.015
X1.5667 Z-0.0228
X1.584 Z-0.0316
X1.5859 Z-0.0313
X1.5876 Z-0.0304
X1.589 Z-0.0291
X1.5899 Z-0.0273
X1.5902 Z-0.0254
X1.59 Y3.1902 Z-0.0236
X1.5895 Y3.1908 Z-0.022
X1.5887 Y3.1918 Z-0.0207
X1.5877 Y3.1931 Z-0.0198
X1.5865 Y3.1945 Z-0.0196
X1.5854 Y3.1959 Z-0.0198
X1.5843 Y3.1971 Z-0.0207
X1.5835 Y3.1981 Z-0.022
X1.583 Y3.1988 Z-0.0236
X1.5828 Y3.199 Z-0.0254
X1.5825 Z-0.0273
X1.5816 Z-0.0291
X1.5802 Z-0.0305
X1.5785 Z-0.0314
X1.5766 Z-0.0317
X1.5576 Z-0.0222
X1.5396 Z-0.015
X1.5203 Z-0.0088
X1.4995 Z-0.0039
X1.4794 Z-0.0005
X1.4745 Y3.2035
X1.4695 Y3.208
X1.49 Z-0.0038
X1.5117 Z-0.0089
X1.5313 Z-0.015
X1.5508 Z-0.0229
X1.5684 Z-0.0317
X1.5704 Z-0.0314
X1.5721 Z-0.0305
X1.5735 Z-0.0291
X1.5744 Z-0.0273
X1.5747 Z-0.0254
X1.5745 Y3.2082 Z-0.0235
X1.5739 Y3.2088 Z-0.0218
X1.573 Y3.2098 Z-0.0205
X1.5718 Y3.2111 Z-0.0196
X1.5706 Y3.2125 Z-0.0193
X1.5693 Y3.2139 Z-0.0196
X1.5682 Y3.2151 Z-0.0205
X1.5673 Y3.2161 Z-0.0218
X1.5667 Y3.2168 Z-0.0235
X1.5665 Y3.217 Z-0.0254
X1.5662 Z-0.0273
X1.5653 Z-0.0291
X1.5639 Z-0.0305
X1.5622 Z-0.0314
X1.5602 Z-0.0317
X1.5419 Z-0.0226
X1.5231 Z-0.0152
X1.5021 Z-0.0088
X1.4808 Z-0.0039
X1.4597 Z-0.0005
X1.4594 Z0.0006
X1.4592 Y3.2172 Z0.0025
X1.4586 Y3.2177 Z0.0043
X1.4577 Y3.2185 Z0.0057
X1.4564 Y3.2196 Z0.0068
X1.455 Y3.2208 Z0.0073
X1.4536 Y3.2221
X1.4521 Y3.2233 Z0.0068
X1.4509 Y3.2244 Z0.0057
X1.45 Y3.2253 Z0.0043
X1.4493 Y3.2258 Z0.0025
X1.4491 Y3.226 Z0.0006
Z0.0005
X1.4494 Z-0.0005
X1.4706 Z-0.0038
X1.4928 Z-0.0088
X1.5134 Z-0.015
X1.5334 Z-0.0227
X1.552 Z-0.0317
X1.554 Z-0.0314
X1.5557 Z-0.0305
X1.5571 Z-0.0291
X1.558 Z-0.0273
X1.5583 Z-0.0254
X1.5581 Y3.2262 Z-0.0234
X1.5574 Y3.2268 Z-0.0217
X1.5564 Y3.2278 Z-0.0203
X1.5552 Y3.2291 Z-0.0194
X1.5538 Y3.2305 Z-0.0191
X1.5524 Y3.2319 Z-0.0194
X1.5512 Y3.2331 Z-0.0203
X1.5502 Y3.2341 Z-0.0217
X1.5496 Y3.2348 Z-0.0234
X1.5493 Y3.235 Z-0.0254
X1.549 Z-0.0273
X1.5481 Z-0.0291
X1.5468 Z-0.0305
X1.545 Z-0.0314
X1.5431 Z-0.0317
X1.5245 Z-0.0228
X1.5042 Z-0.015
X1.4829 Z-0.0088
X1.4607 Z-0.0039
X1.4385 Z-0.0005
X1.4331 Y3.2395
X1.4276 Y3.244
X1.4506 Z-0.004
X1.4727 Z-0.0088
X1.495 Z-0.0152
X1.5145 Z-0.0225
X1.5341 Z-0.0317
X1.536 Z-0.0314
X1.5378 Z-0.0305
X1.5391 Z-0.0291
X1.54 Z-0.0273
X1.5403 Z-0.0254
X1.5401 Y3.2442 Z-0.0235
X1.5395 Y3.2448 Z-0.0217
X1.5385 Y3.2458 Z-0.0203
X1.5373 Y3.247 Z-0.0195
X1.5359 Y3.2484 Z-0.0192
X1.5357 Y3.2486
X1.5343 Y3.2499 Z-0.0195
X1.533 Y3.2512 Z-0.0203
X1.5321 Y3.2521 Z-0.0217
X1.5314 Y3.2528 Z-0.0235
X1.5312 Y3.253 Z-0.0254
X1.5309 Z-0.0273
X1.53 Z-0.0291
X1.5286 Z-0.0305
X1.5269 Z-0.0313
X1.525 Z-0.0317
X1.5051 Z-0.0226
X1.4841 Z-0.015
X1.4633 Z-0.009
X1.4389 Z-0.0039
X1.4156 Z-0.0005
X1.4035 Y3.262
X1.4284 Z-0.004
X1.4514 Z-0.0088
X1.4748 Z-0.0153
X1.4954 Z-0.0228
X1.5151 Z-0.0317
X1.517 Z-0.0314
X1.5187 Z-0.0305
X1.5201 Z-0.0291
X1.521 Z-0.0273
X1.5213 Z-0.0254
X1.5211 Y3.2622 Z-0.0235
X1.5204 Y3.2628 Z-0.0217
X1.5194 Y3.2637 Z-0.0204
X1.5181 Y3.2649 Z-0.0195
X1.5167 Y3.2662 Z-0.0192
X1.516 Y3.2668
X1.5146 Y3.2681 Z-0.0195
X1.5133 Y3.2692 Z-0.0204
X1.5123 Y3.2702 Z-0.0217
X1.5116 Y3.2708 Z-0.0235
X1.5114 Y3.271 Z-0.0254
X1.5111 Z-0.0273
X1.5102 Z-0.0291
X1.5088 Z-0.0305
X1.5071 Z-0.0314
X1.5052 Z-0.0317
X1.4848 Z-0.0226
X1.463 Z-0.0151
X1.4404 Z-0.0089
X1.415 Z-0.0039
X1.3906 Z-0.0005
X1.3771 Y3.28
X1.4032 Z-0.004
X1.428 Z-0.0088
X1.4517 Z-0.015
X1.474 Z-0.0227
X1.4949 Z-0.0317
X1.4968 Z-0.0314
X1.4985 Z-0.0305
X1.4999 Z-0.0291
X1.5008 Z-0.0273
X1.5011 Z-0.0254
X1.5009 Y3.2802 Z-0.0235
X1.5002 Y3.2807 Z-0.0217
X1.4991 Y3.2816 Z-0.0204
X1.4978 Y3.2827 Z-0.0195
X1.4963 Y3.2839 Z-0.0192
X1.495 Y3.285
X1.4935 Y3.2862 Z-0.0195
X1.4922 Y3.2873 Z-0.0204
X1.4911 Y3.2882 Z-0.0217
X1.4904 Y3.2888 Z-0.0235
X1.4902 Y3.289 Z-0.0254
X1.4899 Z-0.0273
X1.489 Z-0.0291
X1.4876 Z-0.0305
X1.4859 Z-0.0314
X1.484 Z-0.0317
X1.4626 Z-0.0226
X1.4403 Z-0.0152
X1.4157 Z-0.0088
X1.3891 Z-0.0039
X1.3629 Z-0.0005
X1.3479 Y3.298
X1.3761 Z-0.004
X1.4026 Z-0.0089
X1.4275 Z-0.015
X1.4509 Z-0.0226
X1.4731 Z-0.0317
X1.4739 Z-0.0318
X1.4747 Z-0.0316
X1.4755 Z-0.0314
X1.4771 Y3.2982
X1.4784 Y3.299
X1.4794 Y3.3002
X1.48 Y3.3017
Y3.3032
X1.4794 Y3.3047
X1.4784 Y3.3059
X1.4771 Y3.3067
X1.4755 Y3.307
X1.4637
X1.4628 Z-0.0316
X1.462 Z-0.0318
X1.4612 Z-0.0317
X1.4385 Z-0.0226
X1.4184 Z-0.0161
X1.4126 Z-0.0146
X1.3887 Z-0.0088
X1.3606 Z-0.0039
X1.3318 Z-0.0005
X1.315 Y3.316
X1.3464 Z-0.0041
X1.3756 Z-0.009
X1.4014 Z-0.0151
X1.4239 Z-0.022
X1.4292 Z-0.0238
X1.4492 Z-0.0317
X1.45 Z-0.0318
X1.4508 Z-0.0316
X1.4509
X1.4517 Z-0.0314
X1.4533 Y3.3162
X1.4546 Y3.317
X1.4556 Y3.3182
X1.4562 Y3.3197
Y3.3212
X1.4556 Y3.3227
X1.4546 Y3.3239
X1.4533 Y3.3247
X1.4517 Y3.325
X1.4391
X1.4382 Z-0.0316
X1.4374 Z-0.0318
X1.4366 Z-0.0317
X1.4122 Z-0.0225
X1.3922 Z-0.0165
X1.3858 Z-0.0148
X1.3593 Z-0.0088
X1.3286 Z-0.0039
X1.2965 Z-0.0005
X1.282 Y3.3318
X1.2772 Y3.334
X1.3071 Z-0.0035
X1.3155 Z-0.0046
X1.3438 Z-0.009
X1.3723 Z-0.0151
X1.3937 Z-0.0212
X1.4015 Z-0.0235
X1.4233 Z-0.0317
X1.4242 Z-0.0318
X1.425 Z-0.0316
X1.4251
X1.426 Z-0.0313
X1.4276 Y3.3342
X1.4289 Y3.335
X1.4299 Y3.3362
X1.4304 Y3.3377
Y3.3392
X1.4299 Y3.3407
X1.4289 Y3.3419
X1.4276 Y3.3427
X1.426 Y3.343
X1.4124
X1.4114 Z-0.0316
X1.4106 Z-0.0318
X1.4098 Z-0.0317
X1.3838 Z-0.0226
X1.3642 Z-0.0171
X1.3556 Z-0.0149
X1.3273 Z-0.009
X1.2927 Z-0.004
X1.2552 Z-0.0005
X1.2546 Z0.0011
X1.2544 Z0.0027
X1.2541 Y3.3431 Z0.0054
X1.2533 Y3.3434 Z0.008
X1.2521 Y3.3438 Z0.0103
X1.2504 Y3.3445 Z0.0123
X1.2483 Y3.3452 Z0.0139
X1.246 Y3.3461 Z0.015
X1.2436 Y3.347 Z0.0155
X1.241 Y3.3479
X1.2386 Y3.3489 Z0.015
X1.2363 Y3.3497 Z0.0139
X1.2343 Y3.3505 Z0.0123
X1.2326 Y3.3511 Z0.0103
X1.2313 Y3.3516 Z0.008
X1.2305 Y3.3519 Z0.0054
X1.2303 Y3.352 Z0.0027
X1.2305 Z0.0011
X1.2312 Z-0.0005
X1.2314
X1.2723 Z-0.004
X1.3078 Z-0.0089
X1.3394 Z-0.015
X1.3658 Z-0.0219
X1.3721 Z-0.0237
X1.395 Z-0.0317
X1.3959 Z-0.0318
X1.3968 Z-0.0316
X1.3969 Z-0.0315
X1.3979 Z-0.0313
X1.3994 Y3.3522
X1.4008 Y3.353
X1.4018 Y3.3542
X1.4023 Y3.3557
Y3.3572
X1.4018 Y3.3587
X1.4008 Y3.3599
X1.3994 Y3.3607
X1.3979 Y3.361
X1.3829
X1.3818 Z-0.0315
X1.381 Z-0.0318
X1.3801 Z-0.0316
X1.3517 Z-0.0225
X1.3331 Z-0.0178
X1.3214 Z-0.015
X1.2979 Z-0.0106
X1.2866 Z-0.0087
X1.2591 Z-0.0052
X1.2465 Z-0.0038
X1.2056 Z-0.0006
X1.2041 Z-0.0005
X1.2035 Z0.0011
X1.2032 Z0.0027
X1.203 Z0.0058
X1.2022 Y3.3613 Z0.0087
X1.2009 Y3.3616 Z0.0114
X1.1991 Y3.3621 Z0.0139
X1.1969 Y3.3628 Z0.0159
X1.1944 Y3.3635 Z0.0175
X1.1917 Y3.3642 Z0.0186
X1.1888 Y3.365 Z0.0192
X1.1859 Y3.3659
X1.183 Y3.3667 Z0.0186
X1.1803 Y3.3675 Z0.0175
X1.1778 Y3.3682 Z0.0159
X1.1756 Y3.3688 Z0.0139
X1.1739 Y3.3693 Z0.0114
X1.1725 Y3.3697 Z0.0087
X1.1717 Y3.3699 Z0.0058
X1.1715 Y3.37 Z0.0027
X1.1717 Z0.0011
X1.1724 Z-0.0005
X1.1778 Z-0.0008
X1.2203 Z-0.0037
X1.2313 Z-0.0047
X1.2683 Z-0.0091
X1.3046 Z-0.0154
X1.3339 Z-0.0224
X1.3424 Z-0.0249
X1.3636 Z-0.0317
X1.3637
X1.365 Z-0.0318
X1.3663 Z-0.0315
Z-0.0314
X1.3671 Z-0.0312
X1.3679 Z-0.0311
X1.3695 Y3.3702
X1.3708 Y3.371
X1.3718 Y3.3722
X1.3723 Y3.3737
Y3.3752
X1.3718 Y3.3767
X1.3708 Y3.3779
X1.3695 Y3.3787
X1.3679 Y3.379
X1.351
X1.3502 Z-0.0312
X1.3494 Z-0.0314
X1.3482 Z-0.0318
X1.3469 Z-0.0317
X1.3159 Z-0.0225
X1.282 Z-0.0151
X1.244 Z-0.009
X1.2011 Z-0.0045
X1.1874 Z-0.0035
X1.1436 Z-0.001
X1.1323 Z-0.0005
X1.1316 Z0.0011
X1.1314 Z0.0027
Z0.0029
X1.1311 Z0.0049
X1.1302 Y3.3791 Z0.0066
X1.1288 Y3.3794 Z0.008
X1.1271 Y3.3796 Z0.0089
X1.1252 Y3.3799 Z0.0092
X1.0782 Y3.387
X1.0763 Y3.3873 Z0.0089
X1.0746 Y3.3876 Z0.008
X1.0732 Y3.3878 Z0.0066
X1.0724 Y3.3879 Z0.0049
X1.0721 Y3.388 Z0.0029
X1.0723 Z0.0011
X1.0731 Z-0.0005
X1.1133 Z-0.0018
X1.1564 Z-0.0038
X1.1716 Z-0.0048
X1.2152 Z-0.0088
X1.237 Z-0.0118
X1.2583 Z-0.015
X1.2752 Z-0.0182
X1.2954 Z-0.0225
X1.3115 Z-0.0268
X1.3284 Z-0.0317
G0 Z0.2
X0.9385 Y2.011
Z0.0796
G1 Z0.0062 F18
X0.9383 Z0.0039
X0.9376 Z0.0016
X0.9365 Z-0.0005
X0.8932 Z-0.0018
X0.8507 Z-0.0036
X0.8316 Z-0.0049
X0.793 Z-0.0083
X0.7834 Z-0.0094
X0.75 Z-0.0141
X0.7393 Z-0.0159
X0.7147 Z-0.0208
X0.7031 Z-0.0235
X0.6802 Z-0.0297
X0.6737 Z-0.0317
X0.6717 Z-0.0314
X0.67 Z-0.0305
X0.6686 Z-0.0291
X0.6677 Z-0.0273
X0.6674 Z-0.0254
X0.6671 Y2.0112 Z-0.0235
X0.6664 Y2.0116 Z-0.0217
X0.6651 Y2.0122 Z-0.0204
X0.6635 Y2.0129 Z-0.0195
X0.6618 Y2.0138 Z-0.0192
X0.6545 Y2.0173
X0.6528 Y2.0181 Z-0.0195
X0.6512 Y2.0189 Z-0.0204
X0.65 Y2.0195 Z-0.0217
X0.6492 Y2.0199 Z-0.0235
X0.6489 Y2.02 Z-0.0254
X0.6492 Z-0.0273
X0.6501 Z-0.0291
X0.6515 Z-0.0305
X0.6532 Z-0.0314
X0.6551 Z-0.0317
X0.684 Z-0.0231
X0.7188 Z-0.0153
X0.7568 Z-0.0093
X0.7788 Z-0.0069
X0.8048 Z-0.0043
X0.8237 Z-0.003
X0.8721 Z-0.0005
X0.8669 Y2.0211
X0.8415 Y2.0266
X0.8364 Y2.0277
X0.8314 Y2.029
X0.787 Z-0.0034
X0.7745 Z-0.0045
X0.7487 Z-0.0074
X0.7327 Z-0.0094
X0.7011 Z-0.0148
X0.6917 Z-0.0167
X0.6649 Z-0.0233
X0.648 Z-0.0285
X0.6382 Z-0.0317
X0.6363 Z-0.0313
X0.6345 Z-0.0305
X0.6331 Z-0.0291
X0.6323 Z-0.0273
X0.632 Z-0.0254
X0.6317 Y2.0292 Z-0.0235
X0.6309 Y2.0296 Z-0.0217
X0.6297 Y2.0303 Z-0.0203
X0.6282 Y2.0311 Z-0.0195
X0.6265 Y2.032 Z-0.0192
X0.621 Y2.035
X0.6193 Y2.036 Z-0.0195
X0.6177 Y2.0368 Z-0.0203
X0.6165 Y2.0375 Z-0.0217
X0.6157 Y2.0379 Z-0.0235
X0.6155 Y2.038 Z-0.0254
X0.6158 Z-0.0273
X0.6167 Z-0.0291
X0.618 Z-0.0305
X0.6198 Z-0.0313
X0.6217 Z-0.0317
X0.6461 Z-0.0237
X0.652 Z-0.022
X0.6771 Z-0.0158
X0.6872 Z-0.0137
X0.7112 Z-0.0094
X0.7247 Z-0.0075
X0.7549 Z-0.0039
X0.7989 Z-0.0005
X0.7781 Y2.0448
X0.7712 Y2.047
X0.7291 Z-0.0041
X0.6931 Z-0.009
X0.6598 Z-0.0156
X0.6308 Z-0.0234
X0.6144 Z-0.0289
X0.6066 Z-0.0317
X0.6057 Z-0.0318
X0.6049 Z-0.0316
X0.6039 Z-0.0313
X0.5891
X0.5876 Y2.0473
X0.5862 Y2.0481
X0.5852 Y2.0493
X0.5847 Y2.0508
Y2.0523
X0.5852 Y2.0538
X0.5862 Y2.055
X0.5876 Y2.0558
X0.5891 Y2.056
X0.5901 Z-0.0316
X0.591 Z-0.0318
X0.5918 Z-0.0317
X0.5919
X0.6153 Z-0.0234
X0.6239 Z-0.0208
X0.6453 Z-0.0151
X0.6733 Z-0.0093
X0.7089 Z-0.0041
X0.7473 Z-0.0005
X0.748 Z0.0011
X0.7482 Z0.0027
X0.748 Y2.0561 Z0.0054
X0.7471 Y2.0565 Z0.0079
X0.7458 Y2.057 Z0.0101
X0.7441 Y2.0577 Z0.012
X0.7421 Y2.0586 Z0.0134
X0.7398 Y2.0595 Z0.0142
X0.7373 Y2.0605 Z0.0145
X0.7349 Y2.0615 Z0.0142
X0.7326 Y2.0625 Z0.0134
X0.7305 Y2.0633 Z0.012
X0.7288 Y2.0641 Z0.0101
X0.7275 Y2.0646 Z0.0079
X0.7267 Y2.0649 Z0.0054
X0.7264 Y2.065 Z0.0027
X0.7262 Z0.0011
X0.7255 Z-0.0005
X0.6904 Z-0.004
X0.6618 Z-0.0084
X0.6546 Z-0.0097
X0.6281 Z-0.0154
X0.6007 Z-0.0233
X0.5824 Z-0.03
X0.5781 Z-0.0317
X0.5773 Z-0.0318
X0.5765 Z-0.0316
X0.5755 Z-0.0314
X0.5623
X0.5607 Y2.0653
X0.5594 Y2.0661
X0.5584 Y2.0673
X0.5578 Y2.0688
Y2.0703
X0.5584 Y2.0718
X0.5594 Y2.073
X0.5607 Y2.0738
X0.5623 Y2.074
X0.5632 Z-0.0316
X0.564 Z-0.0318
X0.5648 Z-0.0317
X0.5864 Z-0.0235
X0.5921 Z-0.0216
X0.612 Z-0.0157
X0.6396 Z-0.0094
X0.671 Z-0.0042
X0.7051 Z-0.0005
X0.7006 Y2.0763
X0.6872 Y2.083
X0.6548 Z-0.0042
X0.6262 Z-0.009
X0.5989 Z-0.0154
X0.5733 Z-0.0234
X0.5534 Z-0.0311
X0.5522 Z-0.0316
X0.5503 Z-0.0313
X0.5485 Z-0.0304
X0.5471 Z-0.0291
X0.5462 Z-0.0273
X0.5459 Z-0.0254
X0.5457 Y2.0832 Z-0.0235
X0.545 Y2.0837 Z-0.0217
X0.5439 Y2.0846 Z-0.0203
X0.5425 Y2.0856 Z-0.0194
X0.5409 Y2.0868 Z-0.0191
X0.5389 Y2.0883
X0.5373 Y2.0895 Z-0.0194
X0.5359 Y2.0905 Z-0.0203
X0.5348 Y2.0913 Z-0.0217
X0.5341 Y2.0918 Z-0.0235
X0.5339 Y2.092 Z-0.0254
X0.5342 Z-0.0273
X0.5351 Z-0.0291
X0.5364 Z-0.0305
X0.5382 Z-0.0314
X0.5401 Z-0.0317
X0.5552 Z-0.0256
X0.5633 Z-0.0224
X0.5843 Z-0.0158
X0.6102 Z-0.0093
X0.6392 Z-0.0042
X0.6698 Z-0.0005
X0.6539 Y2.101
X0.6237 Z-0.0043
X0.5972 Z-0.0092
X0.5723 Z-0.0155
X0.5484 Z-0.0234
X0.5282 Z-0.0317
X0.5262 Z-0.0314
X0.5245 Z-0.0305
X0.5231 Z-0.0291
X0.5222 Z-0.0273
X0.5219 Z-0.0254
X0.5217 Y2.1012 Z-0.0235
X0.521 Y2.1018 Z-0.0217
X0.5199 Y2.1027 Z-0.0204
X0.5186 Y2.1038 Z-0.0195
X0.5171 Y2.105 Z-0.0192
X0.5158 Y2.1061
X0.5143 Y2.1073 Z-0.0195
X0.513 Y2.1084 Z-0.0204
X0.5119 Y2.1093 Z-0.0217
X0.5112 Y2.1098 Z-0.0235
X0.511 Y2.11 Z-0.0254
X0.5113 Z-0.0273
X0.5122 Z-0.0291
X0.5136 Z-0.0305
X0.5153 Z-0.0314
X0.5172 Z-0.0317
X0.5374 Z-0.023
X0.5593 Z-0.0157
X0.5834 Z-0.0093
X0.6102 Z-0.0042
X0.6387 Z-0.0005
X0.6245 Y2.119
X0.5962 Z-0.0043
X0.5715 Z-0.0093
X0.5473 Z-0.0157
X0.5257 Z-0.0233
X0.5064 Z-0.0316
X0.5045 Z-0.0313
X0.5027 Z-0.0305
X0.5013 Z-0.0291
X0.5004 Z-0.0273
X0.5001 Z-0.0254
X0.4999 Y2.1192 Z-0.0235
X0.4992 Y2.1198 Z-0.0217
X0.4982 Y2.1207 Z-0.0203
X0.4969 Y2.1218 Z-0.0195
X0.4954 Y2.1231 Z-0.0191
X0.4944 Y2.124
X0.4929 Y2.1252 Z-0.0195
X0.4916 Y2.1263 Z-0.0203
X0.4906 Y2.1273 Z-0.0217
X0.4899 Y2.1278 Z-0.0235
X0.4897 Y2.128 Z-0.0254
X0.49 Z-0.0273
X0.4909 Z-0.0291
X0.4923 Z-0.0305
X0.494 Z-0.0314
X0.4959 Z-0.0317
X0.5145 Z-0.0234
X0.5362 Z-0.0157
X0.559 Z-0.0093
X0.5843 Z-0.0042
X0.6108 Z-0.0005
X0.5981 Y2.137
X0.5716 Z-0.0043
X0.5481 Z-0.0093
X0.5251 Z-0.0157
X0.5044 Z-0.0233
X0.486 Z-0.0317
X0.4841 Z-0.0314
X0.4824 Z-0.0305
X0.481 Z-0.0291
X0.4801 Z-0.0273
X0.4798 Z-0.0254
X0.4795 Y2.1372 Z-0.0235
X0.4789 Y2.1378 Z-0.0217
X0.4779 Y2.1388 Z-0.0204
X0.4766 Y2.1399 Z-0.0195
X0.4752 Y2.1412 Z-0.0192
X0.4745 Y2.1418
X0.4731 Y2.1431 Z-0.0195
X0.4718 Y2.1443 Z-0.0204
X0.4708 Y2.1452 Z-0.0217
X0.4701 Y2.1458 Z-0.0235
X0.4699 Y2.146 Z-0.0254
X0.4702 Z-0.0273
X0.4711 Z-0.0291
X0.4725 Z-0.0305
X0.4742 Z-0.0314
X0.4761 Z-0.0317
X0.4943 Z-0.0233
X0.5155 Z-0.0155
X0.5368 Z-0.0093
X0.5602 Z-0.0043
X0.5854 Z-0.0005
X0.5797 Y2.1505
X0.574 Y2.155
X0.5491 Z-0.0043
X0.5266 Z-0.0092
X0.5047 Z-0.0157
X0.4851 Z-0.0231
X0.4669 Z-0.0317
X0.465 Z-0.0314
X0.4632 Z-0.0305
X0.4619 Z-0.0291
X0.461 Z-0.0273
X0.4607 Z-0.0254
X0.4604 Y2.1552 Z-0.0235
X0.4598 Y2.1559 Z-0.0217
X0.4588 Y2.1569 Z-0.0204
X0.4576 Y2.1581 Z-0.0195
X0.4562 Y2.1594 Z-0.0192
X0.4561 Y2.1596
X0.4547 Y2.161 Z-0.0195
X0.4535 Y2.1622 Z-0.0204
X0.4525 Y2.1632 Z-0.0217
X0.4519 Y2.1638 Z-0.0235
X0.4517 Y2.164 Z-0.0254
X0.452 Z-0.0273
X0.4529 Z-0.0291
X0.4542 Z-0.0305
X0.456 Z-0.0314
X0.4579 Z-0.0317
X0.4752 Z-0.0234
X0.4952 Z-0.0156
X0.5161 Z-0.0093
X0.5383 Z-0.0043
X0.5625 Z-0.0005
X0.5571 Y2.1684
X0.5518 Y2.173
X0.5282 Z-0.0043
X0.506 Z-0.0094
X0.4856 Z-0.0158
X0.4662 Z-0.0233
X0.4489 Z-0.0317
X0.447 Z-0.0314
X0.4452 Z-0.0305
X0.4439 Z-0.0291
X0.443 Z-0.0273
X0.4427 Z-0.0254
X0.4425 Y2.1732 Z-0.0235
X0.4419 Y2.1739 Z-0.0218
X0.441 Y2.1749 Z-0.0205
X0.4398 Y2.1761 Z-0.0196
X0.4385 Y2.1775 Z-0.0193
X0.4373 Y2.1789 Z-0.0196
X0.4361 Y2.1802 Z-0.0205
X0.4352 Y2.1812 Z-0.0218
X0.4346 Y2.1818 Z-0.0235
X0.4344 Y2.182 Z-0.0254
X0.4347 Z-0.0273
X0.4356 Z-0.0291
X0.437 Z-0.0305
X0.4387 Z-0.0314
X0.4407 Z-0.0317
X0.4578 Z-0.0232
X0.4763 Z-0.0158
X0.4968 Z-0.0094
X0.5179 Z-0.0043
X0.5415 Z-0.0005
X0.5418 Z0.0006
X0.5416 Y2.1822 Z0.0025
X0.541 Y2.1827 Z0.0043
X0.54 Y2.1836 Z0.0057
X0.5388 Y2.1847 Z0.0068
X0.5374 Y2.1859 Z0.0073
X0.5359 Y2.1872
X0.5345 Y2.1884 Z0.0068
X0.5333 Y2.1895 Z0.0057
X0.5324 Y2.1903 Z0.0043
X0.5317 Y2.1908 Z0.0025
X0.5315 Y2.191 Z0.0006
Z0.0003
X0.5313 Z-0.0005
X0.5086 Z-0.0043
X0.4875 Z-0.0094
X0.4682 Z-0.0155
X0.4489 Z-0.0234
X0.4325 Z-0.0317
X0.4306 Z-0.0314
X0.4288 Z-0.0305
X0.4274 Z-0.0291
X0.4265 Z-0.0273
X0.4262 Z-0.0254
X0.426 Y2.1912 Z-0.0235
X0.4255 Y2.1919 Z-0.0218
X0.4245 Y2.1929 Z-0.0205
X0.4234 Y2.1941 Z-0.0196
X0.4221 Y2.1955 Z-0.0193
X0.4209 Y2.1969 Z-0.0196
X0.4197 Y2.1982 Z-0.0205
X0.4188 Y2.1992 Z-0.0218
X0.4183 Y2.1998 Z-0.0235
X0.4181 Y2.2 Z-0.0254
X0.4184 Z-0.0273
X0.4192 Z-0.0291
X0.4206 Z-0.0305
X0.4224 Z-0.0314
X0.4243 Z-0.0317
X0.4407 Z-0.0234
X0.4592 Z-0.0158
X0.4793 Z-0.0092
X0.4997 Z-0.0043
X0.522 Z-0.0005
X0.5126 Y2.209
X0.4907 Z-0.0043
X0.4703 Z-0.0094
X0.4509 Z-0.0157
X0.4328 Z-0.0234
X0.4168 Z-0.0317
X0.4149 Z-0.0314
X0.4131 Z-0.0305
X0.4118 Z-0.0291
X0.4109 Z-0.0273
X0.4106 Z-0.0254
X0.4104 Y2.2092 Z-0.0236
X0.4099 Y2.2099 Z-0.022
X0.409 Y2.2109 Z-0.0207
X0.408 Y2.2121 Z-0.0198
X0.4069 Y2.2135 Z-0.0196
X0.4057 Y2.2149 Z-0.0198
X0.4047 Y2.2162 Z-0.0207
X0.4039 Y2.2172 Z-0.022
X0.4034 Y2.2178 Z-0.0236
X0.4032 Y2.218 Z-0.0254
X0.4035 Z-0.0273
X0.4044 Z-0.0291
X0.4058 Z-0.0304
X0.4075 Z-0.0313
X0.4094 Z-0.0316
X0.4253 Z-0.0233
X0.4433 Z-0.0157
X0.4619 Z-0.0094
X0.4822 Z-0.0043
X0.5037 Z-0.0005
X0.4952 Y2.227
X0.474 Z-0.0042
X0.4544 Z-0.0093
X0.4355 Z-0.0158
X0.4176 Z-0.0234
X0.402 Z-0.0316
X0.4001 Z-0.0313
X0.3983 Z-0.0304
X0.397 Z-0.0291
X0.3961 Z-0.0273
X0.3958 Z-0.0254
X0.3956 Y2.2272 Z-0.0236
X0.3951 Y2.2279 Z-0.0221
X0.3943 Y2.2289 Z-0.0208
X0.3934 Y2.2301 Z-0.02
X0.3923 Y2.2315 Z-0.0197
X0.3913 Y2.2329 Z-0.02
X0.3903 Y2.2342 Z-0.0208
X0.3896 Y2.2352 Z-0.0221
X0.3891 Y2.2358 Z-0.0236
X0.3889 Y2.236 Z-0.0254
X0.3892 Z-0.0273
X0.3901 Z-0.0291
X0.3915 Z-0.0304
X0.3932 Z-0.0313
X0.3951 Z-0.0316
X0.4105 Z-0.0234
X0.4279 Z-0.0158
X0.4467 Z-0.0093
X0.4663 Z-0.0042
X0.4868 Z-0.0005
X0.4827 Y2.2405
X0.4788 Y2.245
X0.4584 Z-0.0043
X0.4389 Z-0.0094
X0.421 Z-0.0157
X0.4035 Z-0.0234
X0.3884 Z-0.0317
X0.3864 Z-0.0314
X0.3847 Z-0.0305
X0.3833 Z-0.0291
X0.3824 Z-0.0273
X0.3821 Z-0.0254
X0.3819 Y2.2452 Z-0.0237
X0.3815 Y2.2459 Z-0.0221
X0.3807 Y2.2469 Z-0.0209
X0.3798 Y2.2481 Z-0.0201
X0.3787 Y2.2495 Z-0.0198
X0.3777 Y2.2509 Z-0.0201
X0.3768 Y2.2522 Z-0.0209
X0.376 Y2.2532 Z-0.0221
X0.3755 Y2.2538 Z-0.0237
X0.3754 Y2.254 Z-0.0254
X0.3757 Z-0.0273
X0.3766 Z-0.0291
X0.3779 Z-0.0305
X0.3797 Z-0.0314
X0.3816 Z-0.0317
X0.3968 Z-0.0233
X0.4141 Z-0.0157
X0.4321 Z-0.0093
X0.4506 Z-0.0043
X0.4712 Z-0.0005
X0.4636 Y2.263
X0.4436 Z-0.0043
X0.4252 Z-0.0093
X0.4071 Z-0.0157
X0.3904 Z-0.0234
X0.3753 Z-0.0317
X0.3733 Z-0.0314
X0.3716 Z-0.0305
X0.3702 Z-0.0291
X0.3693 Z-0.0273
X0.369 Z-0.0254
X0.3689 Y2.2632 Z-0.0237
X0.3684 Y2.2639 Z-0.0222
X0.3678 Y2.2649 Z-0.021
X0.3669 Y2.2661 Z-0.0202
X0.366 Y2.2675 Z-0.02
X0.3651 Y2.2689 Z-0.0202
X0.3642 Y2.2702 Z-0.021
X0.3635 Y2.2712 Z-0.0222
X0.3631 Y2.2718 Z-0.0237
X0.363 Y2.272 Z-0.0254
X0.3633 Z-0.0273
X0.3642 Z-0.0291
X0.3655 Z-0.0304
X0.3673 Z-0.0313
X0.3692 Z-0.0316
X0.384 Z-0.0233
X0.4007 Z-0.0157
X0.4183 Z-0.0093
X0.437 Z-0.0042
X0.4565 Z-0.0005
X0.4496 Y2.281
X0.4299 Z-0.0043
X0.4117 Z-0.0094
X0.3945 Z-0.0157
X0.3777 Z-0.0234
X0.3631 Z-0.0316
X0.3612 Z-0.0313
X0.3594 Z-0.0305
X0.3581 Z-0.0291
X0.3572 Z-0.0273
X0.3569 Z-0.0254
X0.3567 Y2.2812 Z-0.0237
X0.3563 Y2.2819 Z-0.0222
X0.3556 Y2.2829 Z-0.021
X0.3548 Y2.2841 Z-0.0203
X0.3539 Y2.2855 Z-0.02
X0.353 Y2.2869 Z-0.0203
X0.3521 Y2.2882 Z-0.021
X0.3515 Y2.2892 Z-0.0222
X0.351 Y2.2898 Z-0.0237
X0.3509 Y2.29 Z-0.0254
X0.3512 Z-0.0273
X0.3521 Z-0.0291
X0.3535 Z-0.0305
X0.3552 Z-0.0314
X0.3571 Z-0.0317
X0.3718 Z-0.0234
X0.388 Z-0.0158
X0.4053 Z-0.0094
X0.4236 Z-0.0043
X0.4427 Z-0.0005
X0.4394 Y2.2945
X0.4363 Y2.299
X0.4172 Z-0.0043
X0.3995 Z-0.0093
X0.3824 Z-0.0157
X0.3661 Z-0.0234
X0.3517 Z-0.0317
X0.3497 Z-0.0314
X0.348 Z-0.0305
X0.3466 Z-0.0291
X0.3457 Z-0.0273
X0.3454 Z-0.0254
X0.3453 Y2.2992 Z-0.0238
X0.3449 Y2.2999 Z-0.0223
X0.3443 Y2.3009 Z-0.0211
X0.3435 Y2.3021 Z-0.0204
X0.3427 Y2.3035 Z-0.0201
X0.3418 Y2.3049 Z-0.0204
X0.3411 Y2.3062 Z-0.0211
X0.3404 Y2.3072 Z-0.0223
X0.3401 Y2.3078 Z-0.0238
X0.3399 Y2.308 Z-0.0254
X0.3402 Z-0.0273
X0.3411 Z-0.0291
X0.3425 Z-0.0305
X0.3442 Z-0.0314
X0.3462 Z-0.0317
X0.3602 Z-0.0235
X0.3767 Z-0.0157
X0.3934 Z-0.0094
X0.4111 Z-0.0043
X0.43 Z-0.0005
X0.4238 Y2.317
X0.4054 Z-0.0043
X0.3879 Z-0.0093
X0.3708 Z-0.0158
X0.3549 Z-0.0234
X0.3407 Z-0.0316
X0.3388 Z-0.0313
X0.3371 Z-0.0304
X0.3357 Z-0.0291
X0.3348 Z-0.0273
X0.3345 Z-0.0254
X0.3343 Y2.3173 Z-0.0236
X0.3339 Y2.3181 Z-0.0221
X0.3332 Y2.3193 Z-0.0209
X0.3324 Y2.3207 Z-0.0203
X0.3315 Y2.3223
X0.3307 Y2.3238 Z-0.0209
X0.33 Y2.325 Z-0.0221
X0.3296 Y2.3257 Z-0.0236
X0.3295 Y2.326 Z-0.0254
X0.3298 Z-0.0273
X0.3306 Z-0.0291
X0.332 Z-0.0304
X0.3338 Z-0.0313
X0.3357 Z-0.0316
X0.3498 Z-0.0234
X0.3657 Z-0.0157
X0.382 Z-0.0094
X0.3996 Z-0.0043
X0.418 Z-0.0005
X0.4124 Y2.335
X0.394 Z-0.0043
X0.3768 Z-0.0094
X0.3604 Z-0.0157
X0.3445 Z-0.0234
X0.3308 Z-0.0317
X0.3288 Z-0.0314
X0.3271 Z-0.0305
X0.3257 Z-0.0291
X0.3248 Z-0.0273
X0.3245 Z-0.0254
X0.3244 Y2.3353 Z-0.0236
X0.3239 Y2.3361 Z-0.0221
X0.3233 Y2.3373 Z-0.021
X0.3225 Y2.3387 Z-0.0203
X0.3217 Y2.3403
X0.3209 Y2.3418 Z-0.021
X0.3202 Y2.343 Z-0.0221
X0.3198 Y2.3437 Z-0.0236
X0.3196 Y2.344 Z-0.0254
X0.32 Z-0.0273
X0.3208 Z-0.0291
X0.3222 Z-0.0304
X0.324 Z-0.0313
X0.3259 Z-0.0316
X0.3396 Z-0.0234
X0.3552 Z-0.0157
X0.3715 Z-0.0094
X0.3888 Z-0.0043
X0.4068 Z-0.0005
X0.4041 Y2.3485
X0.4014 Y2.353
X0.3836 Z-0.0043
X0.3663 Z-0.0094
X0.3503 Z-0.0158
X0.335 Z-0.0234
X0.3211 Z-0.0317
X0.3192 Z-0.0313
X0.3174 Z-0.0305
X0.316 Z-0.0291
X0.3151 Z-0.0273
X0.3148 Z-0.0254
X0.3147 Y2.3533 Z-0.0237
X0.3143 Y2.3541 Z-0.0222
X0.3137 Y2.3553 Z-0.0211
X0.313 Y2.3567 Z-0.0205
X0.3123 Y2.3583
X0.3116 Y2.3598 Z-0.0211
X0.311 Y2.361 Z-0.0222
X0.3106 Y2.3617 Z-0.0237
X0.3105 Y2.362 Z-0.0254
X0.3108 Z-0.0273
X0.3117 Z-0.0291
X0.313 Z-0.0305
X0.3148 Z-0.0313
X0.3167 Z-0.0317
X0.3302 Z-0.0235
X0.3457 Z-0.0157
X0.362 Z-0.0093
X0.3786 Z-0.0043
X0.3964 Z-0.0005
X0.3915 Y2.371
X0.3737 Z-0.0043
X0.3571 Z-0.0094
X0.3412 Z-0.0157
X0.3255 Z-0.0235
X0.3123 Z-0.0317
X0.3104 Z-0.0314
X0.3087 Z-0.0305
X0.3073 Z-0.0291
X0.3064 Z-0.0273
X0.3061 Z-0.0254
X0.3059 Y2.3713 Z-0.0237
X0.3056 Y2.3721 Z-0.0222
X0.305 Y2.3733 Z-0.0211
X0.3043 Y2.3747 Z-0.0205
X0.3035 Y2.3763
X0.3028 Y2.3778 Z-0.0211
X0.3022 Y2.379 Z-0.0222
X0.3018 Y2.3797 Z-0.0237
X0.3017 Y2.38 Z-0.0254
X0.302 Z-0.0273
X0.3029 Z-0.0291
X0.3043 Z-0.0305
X0.306 Z-0.0314
X0.308 Z-0.0317
X0.3214 Z-0.0234
X0.3367 Z-0.0157
X0.3524 Z-0.0094
X0.369 Z-0.0043
X0.3865 Z-0.0005
X0.3842 Y2.3845
X0.382 Y2.389
X0.3644 Z-0.0043
X0.3481 Z-0.0094
X0.3325 Z-0.0157
X0.3174 Z-0.0234
X0.3039 Z-0.0317
X0.302 Z-0.0314
X0.3002 Z-0.0305
X0.2989 Z-0.0291
X0.298 Z-0.0273
X0.2977 Z-0.0254
X0.2976 Y2.3893 Z-0.0237
X0.2972 Y2.3901 Z-0.0223
X0.2967 Y2.3913 Z-0.0212
X0.2961 Y2.3927 Z-0.0206
X0.2954 Y2.3943
X0.2948 Y2.3958 Z-0.0212
X0.2943 Y2.397 Z-0.0223
X0.294 Y2.3977 Z-0.0237
X0.2938 Y2.398 Z-0.0254
X0.2941 Z-0.0273
X0.295 Z-0.0291
X0.2964 Z-0.0304
X0.2982 Z-0.0313
X0.3001 Z-0.0316
X0.3133 Z-0.0233
X0.3283 Z-0.0157
X0.344 Z-0.0094
X0.3603 Z-0.0043
X0.3777 Z-0.0005
X0.3733 Y2.407
X0.356 Z-0.0043
X0.3398 Z-0.0094
X0.3238 Z-0.0159
X0.3093 Z-0.0235
X0.2962 Z-0.0316
X0.2957 Z-0.0317
X0.2954 Z-0.0316
X0.2916
X0.29 Y2.4073
X0.2887 Y2.4081
X0.2877 Y2.4093
X0.2872 Y2.4107
Y2.4123
X0.2877 Y2.4138
X0.2887 Y2.415
X0.29 Y2.4157
X0.2916 Y2.416
X0.2918 Z-0.0317
X0.2924 Z-0.0316
X0.3056 Z-0.0235
X0.3204 Z-0.0158
X0.3361 Z-0.0093
X0.3521 Z-0.0043
X0.3691 Z-0.0005
X0.3652 Y2.425
X0.3485 Z-0.0042
X0.3321 Z-0.0094
X0.3168 Z-0.0158
X0.302 Z-0.0234
X0.289 Z-0.0317
X0.287 Z-0.0314
X0.2853 Z-0.0305
X0.2839 Z-0.0291
X0.283 Z-0.0273
X0.2827 Z-0.0254
X0.2826 Y2.4253 Z-0.0237
X0.2823 Y2.4261 Z-0.0223
X0.2819 Y2.4273 Z-0.0212
X0.2814 Y2.4287 Z-0.0207
X0.2808 Y2.4303
X0.2802 Y2.4318 Z-0.0212
X0.2798 Y2.433 Z-0.0223
X0.2795 Y2.4337 Z-0.0237
X0.2794 Y2.434 Z-0.0254
X0.2797 Z-0.0273
X0.2806 Z-0.0291
X0.282 Z-0.0304
X0.2837 Z-0.0313
X0.2857 Z-0.0316
X0.298 Z-0.0237
X0.3131 Z-0.0158
X0.3287 Z-0.0093
X0.3447 Z-0.0043
X0.3614 Z-0.0005
X0.3576 Y2.443
X0.3409 Z-0.0043
X0.3246 Z-0.0095
X0.3097 Z-0.0158
X0.2952 Z-0.0235
X0.2823 Z-0.0316
X0.2817 Z-0.0317
X0.2815 Z-0.0316
X0.2782
X0.2767 Y2.4433
X0.2753 Y2.4441
X0.2743 Y2.4453
X0.2738 Y2.4467
Y2.4483
X0.2743 Y2.4498
X0.2753 Y2.451
X0.2767 Y2.4517
X0.2782 Y2.452
X0.2785 Z-0.0317
X0.279 Z-0.0316
X0.2921 Z-0.0234
X0.3065 Z-0.0158
X0.3216 Z-0.0094
X0.3377 Z-0.0042
X0.3542 Z-0.0005
X0.3509 Y2.461
X0.3345 Z-0.0042
X0.3184 Z-0.0094
X0.3033 Z-0.0158
X0.2889 Z-0.0234
X0.2761 Z-0.0316
X0.2756 Z-0.0317
X0.2753 Z-0.0316
X0.2725
X0.2709 Y2.4613
X0.2696 Y2.4621
X0.2686 Y2.4633
X0.268 Y2.4647
Y2.4663
X0.2686 Y2.4678
X0.2696 Y2.469
X0.2709 Y2.4697
X0.2725 Y2.47
X0.2727 Z-0.0317
X0.2733 Z-0.0316
X0.2858 Z-0.0235
X0.2995 Z-0.0161
X0.3155 Z-0.0093
X0.3312 Z-0.0042
X0.3476 Z-0.0005
X0.3443 Y2.479
X0.327 Z-0.0046
X0.3123 Z-0.0094
X0.2976 Z-0.0157
X0.2831 Z-0.0234
X0.2704 Z-0.0316
X0.2684 Z-0.0313
X0.2667 Z-0.0304
X0.2653 Z-0.0291
X0.2644 Z-0.0273
X0.2641 Z-0.0254
X0.264 Y2.4793 Z-0.0238
X0.2638 Y2.4801 Z-0.0224
X0.2634 Y2.4813 Z-0.0213
X0.263 Y2.4827 Z-0.0208
X0.2625 Y2.4843
X0.2621 Y2.4858 Z-0.0213
X0.2617 Y2.487 Z-0.0224
X0.2615 Y2.4877 Z-0.0238
X0.2614 Y2.488 Z-0.0254
X0.2617 Z-0.0273
X0.2626 Z-0.0291
X0.264 Z-0.0304
X0.2657 Z-0.0313
X0.2677 Z-0.0316
X0.2804 Z-0.0234
X0.2949 Z-0.0157
X0.3095 Z-0.0094
X0.3253 Z-0.0042
X0.3415 Z-0.0005
X0.3387 Y2.497
X0.3223 Z-0.0043
X0.3069 Z-0.0094
X0.2919 Z-0.0158
X0.2775 Z-0.0235
X0.2652 Z-0.0317
X0.2633 Z-0.0314
X0.2615 Z-0.0305
X0.2601 Z-0.0291
X0.2593 Z-0.0273
X0.2589 Z-0.0254
Y2.4973 Z-0.0238
X0.2587 Y2.4981 Z-0.0224
X0.2583 Y2.4993 Z-0.0214
X0.258 Y2.5007 Z-0.0208
X0.2575 Y2.5023
X0.2571 Y2.5038 Z-0.0214
X0.2568 Y2.505 Z-0.0224
X0.2566 Y2.5057 Z-0.0238
X0.2565 Y2.506 Z-0.0254
X0.2568 Z-0.0273
X0.2577 Z-0.0291
X0.2591 Z-0.0305
X0.2609 Z-0.0314
X0.2628 Z-0.0317
X0.2752 Z-0.0235
X0.2895 Z-0.0157
X0.3034 Z-0.0097
X0.3197 Z-0.0043
X0.3359 Z-0.0005
X0.3333 Y2.515
X0.3174 Z-0.0042
X0.3018 Z-0.0094
X0.2872 Z-0.0157
X0.273 Z-0.0235
X0.2604 Z-0.0317
X0.26 Z-0.0318
X0.2596 Z-0.0317
X0.2592 Z-0.0316
X0.257
X0.2554 Y2.5153
X0.2541 Y2.5161
X0.2531 Y2.5173
X0.2526 Y2.5187
Y2.5203
X0.2531 Y2.5218
X0.2541 Y2.523
X0.2554 Y2.5237
X0.257 Y2.524
X0.2573 Z-0.0317
X0.2578 Z-0.0318
X0.2582 Z-0.0317
Z-0.0316
X0.2708 Z-0.0233
X0.2849 Z-0.0157
X0.2997 Z-0.0093
X0.315 Z-0.0043
X0.331 Z-0.0005
X0.3287 Y2.533
X0.3126 Z-0.0043
X0.2973 Z-0.0094
X0.2824 Z-0.0158
X0.2685 Z-0.0234
X0.2562 Z-0.0317
X0.2543 Z-0.0314
X0.2525 Z-0.0305
X0.2512 Z-0.0291
X0.2503 Z-0.0273
X0.25 Z-0.0254
X0.2499 Y2.5333 Z-0.0238
X0.2497 Y2.5341 Z-0.0224
X0.2495 Y2.5353 Z-0.0214
X0.2491 Y2.5367 Z-0.0209
X0.2488 Y2.5383
X0.2485 Y2.5398 Z-0.0214
X0.2482 Y2.541 Z-0.0224
X0.248 Y2.5417 Z-0.0238
Y2.542 Z-0.0254
X0.2483 Z-0.0273
X0.2492 Z-0.0291
X0.2506 Z-0.0305
X0.2523 Z-0.0314
X0.2542 Z-0.0317
X0.2666 Z-0.0235
X0.2806 Z-0.0158
X0.2952 Z-0.0094
X0.3104 Z-0.0043
X0.3264 Z-0.0005
X0.3244 Y2.551
X0.3087 Z-0.0042
X0.2935 Z-0.0093
X0.2788 Z-0.0157
X0.2649 Z-0.0234
X0.2523 Z-0.0316
X0.2504 Z-0.0313
X0.2486 Z-0.0304
X0.2473 Z-0.0291
X0.2464 Z-0.0273
X0.2461 Z-0.0254
X0.246 Y2.5513 Z-0.0238
X0.2459 Y2.5521 Z-0.0224
X0.2456 Y2.5533 Z-0.0214
X0.2454 Y2.5547 Z-0.0209
X0.2451 Y2.5563
X0.2448 Y2.5578 Z-0.0214
X0.2445 Y2.559 Z-0.0224
X0.2444 Y2.5597 Z-0.0238
X0.2443 Y2.56 Z-0.0254
X0.2446 Z-0.0273
X0.2455 Z-0.0291
X0.2469 Z-0.0304
X0.2487 Z-0.0313
X0.2506 Z-0.0316
X0.263 Z-0.0234
X0.277 Z-0.0157
X0.2917 Z-0.0093
X0.3069 Z-0.0042
X0.3226 Z-0.0005
X0.3208 Y2.569
X0.305 Z-0.0042
X0.289 Z-0.0097
X0.2751 Z-0.0158
X0.2612 Z-0.0235
X0.2491 Z-0.0316
X0.2471 Z-0.0313
X0.2454 Z-0.0305
X0.244 Z-0.0291
X0.2431 Z-0.0273
X0.2428 Z-0.0254
Y2.5693 Z-0.0238
X0.2426 Y2.5701 Z-0.0225
X0.2424 Y2.5713 Z-0.0214
X0.2422 Y2.5727 Z-0.0209
X0.2419 Y2.5743
X0.2417 Y2.5758 Z-0.0214
X0.2415 Y2.577 Z-0.0225
X0.2413 Y2.5777 Z-0.0238
Y2.578 Z-0.0254
X0.2416 Z-0.0273
X0.2425 Z-0.0291
X0.2439 Z-0.0304
X0.2456 Z-0.0313
X0.2476 Z-0.0316
X0.2599 Z-0.0234
X0.2738 Z-0.0157
X0.2881 Z-0.0094
X0.303 Z-0.0043
X0.3189 Z-0.0005
X0.3175 Y2.587
X0.3017 Z-0.0043
X0.2867 Z-0.0094
X0.2723 Z-0.0157
X0.2585 Z-0.0233
X0.246 Z-0.0317
X0.2441 Z-0.0313
X0.2423 Z-0.0305
X0.241 Z-0.0291
X0.2401 Z-0.0273
X0.2398 Z-0.0254
X0.2397 Y2.5873 Z-0.0238
X0.2396 Y2.5881 Z-0.0225
X0.2394 Y2.5893 Z-0.0215
X0.2392 Y2.5907 Z-0.0209
X0.239 Y2.5923
X0.2388 Y2.5938 Z-0.0215
X0.2386 Y2.595 Z-0.0225
X0.2385 Y2.5957 Z-0.0238
Y2.596 Z-0.0254
X0.2388 Z-0.0273
X0.2396 Z-0.0291
X0.241 Z-0.0305
X0.2428 Z-0.0314
X0.2447 Z-0.0317
X0.2569 Z-0.0235
X0.2707 Z-0.0158
X0.2853 Z-0.0094
X0.3003 Z-0.0043
X0.3161 Z-0.0005
X0.3148 Y2.605
X0.2987 Z-0.0044
X0.2841 Z-0.0093
X0.2696 Z-0.0157
X0.2558 Z-0.0234
X0.2436 Z-0.0317
X0.2417 Z-0.0314
X0.24 Z-0.0305
X0.2386 Z-0.0291
X0.2377 Z-0.0273
X0.2374 Z-0.0254
X0.2373 Y2.6053 Z-0.0238
Y2.6061 Z-0.0225
X0.2371 Y2.6073 Z-0.0215
X0.237 Y2.6087 Z-0.0209
X0.2368 Y2.6103
X0.2366 Y2.6118 Z-0.0215
X0.2365 Y2.613 Z-0.0225
X0.2364 Y2.6137 Z-0.0238
X0.2363 Y2.614 Z-0.0254
X0.2367 Z-0.0273
X0.2375 Z-0.0291
X0.2389 Z-0.0304
X0.2407 Z-0.0313
X0.2426 Z-0.0316
X0.2549 Z-0.0233
X0.2687 Z-0.0157
X0.2829 Z-0.0094
X0.2979 Z-0.0043
X0.3134 Z-0.0005
X0.3125 Y2.623
X0.2969 Z-0.0043
X0.2819 Z-0.0094
X0.2677 Z-0.0157
X0.2539 Z-0.0234
X0.2415 Z-0.0317
X0.2395 Z-0.0314
X0.2378 Z-0.0305
X0.2364 Z-0.0291
X0.2355 Z-0.0273
X0.2352 Z-0.0254
Y2.6233 Z-0.0239
X0.2351 Y2.6241 Z-0.0225
X0.235 Y2.6253 Z-0.0215
X0.2349 Y2.6267 Z-0.021
X0.2347 Y2.6283
X0.2346 Y2.6298 Z-0.0215
X0.2345 Y2.631 Z-0.0225
X0.2344 Y2.6317 Z-0.0239
Y2.632 Z-0.0254
X0.2347 Z-0.0273
X0.2356 Z-0.0291
X0.2369 Z-0.0305
X0.2387 Z-0.0314
X0.2406 Z-0.0317
X0.252 Z-0.0239
X0.2662 Z-0.0159
X0.2808 Z-0.0094
X0.2958 Z-0.0043
X0.3116 Z-0.0005
X0.3107 Y2.641
X0.2952 Z-0.0042
X0.2803 Z-0.0093
X0.2658 Z-0.0158
X0.2521 Z-0.0235
X0.24 Z-0.0316
X0.2381 Z-0.0313
X0.2363 Z-0.0304
X0.235 Z-0.0291
X0.2341 Z-0.0273
X0.2338 Z-0.0254
X0.2337 Y2.6413 Z-0.0238
Y2.6421 Z-0.0225
X0.2336 Y2.6433 Z-0.0215
X0.2335 Y2.6447 Z-0.0209
X0.2334 Y2.6463
X0.2333 Y2.6478 Z-0.0215
X0.2332 Y2.6489 Z-0.0225
X0.2331 Y2.6497 Z-0.0238
Y2.65 Z-0.0254
X0.2334 Z-0.0273
X0.2343 Z-0.0291
X0.2357 Z-0.0304
X0.2374 Z-0.0313
X0.2394 Z-0.0316
X0.2516 Z-0.0234
X0.2653 Z-0.0157
X0.2795 Z-0.0094
X0.2944 Z-0.0043
X0.3099 Z-0.0005
X0.3094 Y2.659
X0.2937 Z-0.0043
X0.2788 Z-0.0094
X0.2646 Z-0.0157
X0.2509 Z-0.0234
X0.2387 Z-0.0316
X0.2368 Z-0.0313
X0.235 Z-0.0304
X0.2337 Z-0.0291
X0.2328 Z-0.0273
X0.2325 Z-0.0254
Y2.6593 Z-0.0238
X0.2324 Y2.6601 Z-0.0225
Y2.6613 Z-0.0215
X0.2323 Y2.6627 Z-0.021
X0.2322 Y2.6643
X0.2321 Y2.6658 Z-0.0215
Y2.6669 Z-0.0225
X0.232 Y2.6677 Z-0.0238
Y2.668 Z-0.0254
X0.2323 Z-0.0273
X0.2332 Z-0.0291
X0.2346 Z-0.0305
X0.2363 Z-0.0313
X0.2383 Z-0.0317
X0.2504 Z-0.0234
X0.2641 Z-0.0157
X0.2776 Z-0.0097
X0.2932 Z-0.0043
X0.309 Z-0.0005
X0.3086 Y2.677
X0.2931 Z-0.0043
X0.2782 Z-0.0094
X0.264 Z-0.0157
X0.2503 Z-0.0233
X0.238 Z-0.0317
X0.2361 Z-0.0314
X0.2344 Z-0.0305
X0.233 Z-0.0291
X0.2321 Z-0.0273
X0.2318 Z-0.0254
Y2.6773 Z-0.0238
Y2.6781 Z-0.0225
X0.2317 Y2.6793 Z-0.0215
Y2.6807 Z-0.0209
Y2.6823
Y2.6838 Z-0.0215
X0.2316 Y2.6849 Z-0.0225
Y2.6857 Z-0.0238
Y2.686 Z-0.0254
X0.2319 Z-0.0273
X0.2328 Z-0.0291
X0.2342 Z-0.0304
X0.2359 Z-0.0313
X0.2379 Z-0.0316
X0.25 Z-0.0234
X0.2637 Z-0.0157
X0.2779 Z-0.0094
X0.2928 Z-0.0043
X0.3083 Z-0.0005
Y2.695
X0.2926 Z-0.0043
X0.2777 Z-0.0094
X0.2636 Z-0.0157
X0.2499 Z-0.0234
X0.2376 Z-0.0317
X0.2357 Z-0.0314
X0.2339 Z-0.0305
X0.2325 Z-0.0291
X0.2317 Z-0.0273
X0.2314 Z-0.0254
Y2.6953 Z-0.0238
Y2.6961 Z-0.0225
Y2.6973 Z-0.0215
Y2.6987 Z-0.021
Y2.7003
Y2.7017 Z-0.0215
Y2.7029 Z-0.0225
Y2.7037 Z-0.0238
Y2.704 Z-0.0254
X0.2317 Z-0.0273
X0.2326 Z-0.0291
X0.2339 Z-0.0304
X0.2357 Z-0.0313
X0.2376 Z-0.0316
X0.2497 Z-0.0234
X0.2635 Z-0.0157
X0.2776 Z-0.0094
X0.2924 Z-0.0043
X0.3083 Z-0.0005
Y2.713
X0.2926 Z-0.0043
X0.2781 Z-0.0093
X0.2637 Z-0.0157
X0.2499 Z-0.0234
X0.2378 Z-0.0317
X0.2359 Z-0.0314
X0.2341 Z-0.0305
X0.2327 Z-0.0291
X0.2319 Z-0.0273
X0.2316 Z-0.0254
Y2.7133 Z-0.0238
Y2.7141 Z-0.0225
Y2.7152 Z-0.0215
X0.2317 Y2.7167 Z-0.0209
Y2.7183
Y2.7197 Z-0.0215
X0.2318 Y2.7209 Z-0.0225
Y2.7217 Z-0.0238
Y2.722 Z-0.0254
X0.2321 Z-0.0273
X0.233 Z-0.0291
X0.2344 Z-0.0304
X0.2361 Z-0.0313
X0.2381 Z-0.0316
X0.2503 Z-0.0233
X0.2639 Z-0.0158
X0.2782 Z-0.0093
X0.2931 Z-0.0042
X0.3085 Z-0.0005
X0.3089 Y2.731
X0.293 Z-0.0044
X0.2784 Z-0.0093
X0.2641 Z-0.0158
X0.2505 Z-0.0233
X0.2382 Z-0.0317
X0.2363 Z-0.0314
X0.2345 Z-0.0305
X0.2332 Z-0.0291
X0.2323 Z-0.0273
X0.232 Z-0.0254
Y2.7313 Z-0.0238
Y2.7321 Z-0.0225
X0.2321 Y2.7332 Z-0.0215
X0.2322 Y2.7347 Z-0.0209
Y2.7363
X0.2323 Y2.7377 Z-0.0215
X0.2324 Y2.7389 Z-0.0225
Y2.7397 Z-0.0238
Y2.74 Z-0.0254
X0.2327 Z-0.0273
X0.2336 Z-0.0291
X0.235 Z-0.0304
X0.2367 Z-0.0313
X0.2387 Z-0.0316
X0.2509 Z-0.0234
X0.2646 Z-0.0157
X0.2788 Z-0.0094
X0.2936 Z-0.0043
X0.3094 Z-0.0005
X0.3098 Y2.749
X0.2943 Z-0.0043
X0.2794 Z-0.0094
X0.2653 Z-0.0157
X0.2515 Z-0.0234
X0.2393 Z-0.0316
X0.2374 Z-0.0313
X0.2356 Z-0.0304
X0.2342 Z-0.0291
X0.2334 Z-0.0273
X0.2331 Z-0.0254
Y2.7493 Z-0.0238
Y2.7501 Z-0.0225
X0.2332 Y2.7512 Z-0.0215
X0.2333 Y2.7527 Z-0.0209
X0.2334 Y2.7543
X0.2335 Y2.7557 Z-0.0215
X0.2336 Y2.7569 Z-0.0225
X0.2337 Y2.7577 Z-0.0238
Y2.758 Z-0.0254
X0.234 Z-0.0273
X0.2349 Z-0.0291
X0.2363 Z-0.0304
X0.238 Z-0.0313
X0.2399 Z-0.0316
X0.2521 Z-0.0234
X0.2658 Z-0.0157
X0.28 Z-0.0094
X0.2948 Z-0.0043
X0.3106 Z-0.0005
X0.3115 Y2.767
X0.2958 Z-0.0043
X0.2808 Z-0.0094
X0.2656 Z-0.0162
X0.2524 Z-0.0236
X0.2406 Z-0.0316
X0.2387 Z-0.0313
X0.2369 Z-0.0304
X0.2355 Z-0.0291
X0.2347 Z-0.0273
X0.2343 Z-0.0254
X0.2344 Y2.7673 Z-0.0238
Y2.768 Z-0.0225
X0.2345 Y2.7692 Z-0.0215
X0.2347 Y2.7707 Z-0.0209
X0.2348 Y2.7723
X0.2349 Y2.7737 Z-0.0215
X0.235 Y2.7749 Z-0.0225
X0.2351 Y2.7757 Z-0.0238
Y2.776 Z-0.0254
X0.2354 Z-0.0273
X0.2363 Z-0.0291
X0.2377 Z-0.0305
X0.2394 Z-0.0314
X0.2414 Z-0.0317
X0.2537 Z-0.0234
X0.2675 Z-0.0157
X0.2817 Z-0.0094
X0.2967 Z-0.0043
X0.3124 Z-0.0005
X0.3133 Y2.785
X0.2978 Z-0.0043
X0.2829 Z-0.0094
X0.2684 Z-0.0158
X0.2546 Z-0.0235
X0.2425 Z-0.0316
X0.2405 Z-0.0313
X0.2388 Z-0.0305
X0.2374 Z-0.0291
X0.2365 Z-0.0273
X0.2362 Z-0.0254
Y2.7853 Z-0.0238
X0.2363 Y2.786 Z-0.0225
X0.2365 Y2.7872 Z-0.0215
X0.2367 Y2.7887 Z-0.0209
X0.2368 Y2.7903
X0.237 Y2.7917 Z-0.0215
X0.2372 Y2.7929 Z-0.0225
X0.2373 Y2.7937 Z-0.0238
Y2.794 Z-0.0254
X0.2376 Z-0.0273
X0.2385 Z-0.0291
X0.2399 Z-0.0304
X0.2416 Z-0.0313
X0.2435 Z-0.0316
X0.2557 Z-0.0234
X0.2695 Z-0.0157
X0.2841 Z-0.0093
X0.2987 Z-0.0043
X0.3146 Z-0.0005
X0.316 Y2.803
X0.3001 Z-0.0043
X0.285 Z-0.0094
X0.2707 Z-0.0157
X0.2564 Z-0.0236
X0.2446 Z-0.0317
X0.2427 Z-0.0314
X0.2409 Z-0.0305
X0.2395 Z-0.0291
X0.2386 Z-0.0273
X0.2383 Z-0.0254
X0.2384 Y2.8033 Z-0.0238
X0.2385 Y2.804 Z-0.0225
X0.2387 Y2.8052 Z-0.0214
X0.2389 Y2.8067 Z-0.0209
X0.2391 Y2.8083
X0.2393 Y2.8097 Z-0.0214
X0.2395 Y2.8109 Z-0.0225
X0.2396 Y2.8117 Z-0.0238
Y2.812 Z-0.0254
X0.2399 Z-0.0273
X0.2408 Z-0.0291
X0.2422 Z-0.0304
X0.2439 Z-0.0313
X0.2459 Z-0.0316
X0.2583 Z-0.0234
X0.2722 Z-0.0157
X0.2865 Z-0.0094
X0.3016 Z-0.0043
X0.3173 Z-0.0005
X0.3187 Y2.821
X0.3031 Z-0.0043
X0.288 Z-0.0094
X0.2737 Z-0.0157
X0.2598 Z-0.0233
X0.2474 Z-0.0316
X0.2454 Z-0.0313
X0.2437 Z-0.0305
X0.2423 Z-0.0291
X0.2414 Z-0.0273
X0.2411 Z-0.0254
X0.2412 Y2.8213 Z-0.0238
X0.2413 Y2.822 Z-0.0225
X0.2415 Y2.8232 Z-0.0214
X0.2417 Y2.8247 Z-0.0209
X0.242 Y2.8263
X0.2422 Y2.8277 Z-0.0214
X0.2424 Y2.8289 Z-0.0225
X0.2426 Y2.8297 Z-0.0238
Y2.83 Z-0.0254
X0.2429 Z-0.0273
X0.2438 Z-0.0291
X0.2452 Z-0.0305
X0.2469 Z-0.0314
X0.2489 Z-0.0317
X0.2612 Z-0.0234
X0.2751 Z-0.0157
X0.2886 Z-0.0097
X0.3044 Z-0.0043
X0.3205 Z-0.0005
X0.3224 Y2.839
X0.3065 Z-0.0043
X0.2914 Z-0.0093
X0.2767 Z-0.0158
X0.2628 Z-0.0234
X0.2504 Z-0.0316
X0.2485 Z-0.0313
X0.2467 Z-0.0304
X0.2453 Z-0.0291
X0.2445 Z-0.0273
X0.2442 Z-0.0254
Y2.8393 Z-0.0238
X0.2443 Y2.84 Z-0.0224
X0.2446 Y2.8412 Z-0.0214
X0.2448 Y2.8427 Z-0.0209
X0.2451 Y2.8443
X0.2454 Y2.8457 Z-0.0214
X0.2456 Y2.8469 Z-0.0224
X0.2458 Y2.8477 Z-0.0238
Y2.848 Z-0.0254
X0.2461 Z-0.0273
X0.247 Z-0.0291
X0.2484 Z-0.0305
X0.2501 Z-0.0314
X0.2521 Z-0.0317
X0.2646 Z-0.0234
X0.2785 Z-0.0158
X0.2932 Z-0.0094
X0.3083 Z-0.0043
X0.3242 Z-0.0005
X0.3261 Y2.857
X0.3103 Z-0.0043
X0.2951 Z-0.0093
X0.2804 Z-0.0158
X0.2665 Z-0.0234
X0.2541 Z-0.0316
X0.2521 Z-0.0313
X0.2504 Z-0.0304
X0.249 Z-0.0291
X0.2481 Z-0.0273
X0.2478 Z-0.0254
X0.2479 Y2.8573 Z-0.0238
X0.248 Y2.858 Z-0.0224
X0.2483 Y2.8592 Z-0.0214
X0.2486 Y2.8607 Z-0.0208
X0.249 Y2.8623
X0.2493 Y2.8637 Z-0.0214
X0.2495 Y2.8649 Z-0.0224
X0.2497 Y2.8657 Z-0.0238
X0.2498 Y2.866 Z-0.0254
X0.2501 Z-0.0273
X0.251 Z-0.0291
X0.2523 Z-0.0304
X0.2541 Z-0.0313
X0.256 Z-0.0316
X0.2684 Z-0.0234
X0.2815 Z-0.0162
X0.297 Z-0.0094
X0.3124 Z-0.0043
X0.3284 Z-0.0005
X0.3307 Y2.875
X0.3148 Z-0.0042
X0.2995 Z-0.0093
X0.2847 Z-0.0157
X0.2704 Z-0.0235
X0.258 Z-0.0316
X0.2561 Z-0.0313
X0.2543 Z-0.0304
X0.2529 Z-0.0291
X0.252 Z-0.0273
X0.2517 Z-0.0254
X0.2518 Y2.8753 Z-0.0238
X0.252 Y2.876 Z-0.0224
X0.2523 Y2.8772 Z-0.0214
X0.2526 Y2.8787 Z-0.0208
X0.253 Y2.8803
X0.2534 Y2.8817 Z-0.0214
X0.2536 Y2.8829 Z-0.0224
X0.2538 Y2.8837 Z-0.0238
X0.2539 Y2.884 Z-0.0254
X0.2542 Z-0.0273
X0.2551 Z-0.0291
X0.2565 Z-0.0304
X0.2582 Z-0.0313
X0.2601 Z-0.0316
X0.2727 Z-0.0235
X0.287 Z-0.0157
X0.3018 Z-0.0093
X0.3171 Z-0.0042
X0.3331 Z-0.0005
X0.3356 Y2.893
X0.3195 Z-0.0042
X0.3042 Z-0.0093
X0.2893 Z-0.0157
X0.275 Z-0.0235
X0.2625 Z-0.0317
X0.2606 Z-0.0314
X0.2588 Z-0.0305
X0.2575 Z-0.0291
X0.2566 Z-0.0273
X0.2563 Z-0.0254
Y2.8933 Z-0.0238
X0.2566 Y2.894 Z-0.0224
X0.2569 Y2.8952 Z-0.0213
X0.2573 Y2.8967 Z-0.0208
X0.2577 Y2.8983
X0.2581 Y2.8997 Z-0.0213
X0.2584 Y2.9009 Z-0.0224
X0.2587 Y2.9017 Z-0.0238
Y2.902 Z-0.0254
X0.259 Z-0.0273
X0.2599 Z-0.0291
X0.2613 Z-0.0304
X0.2631 Z-0.0313
X0.265 Z-0.0316
X0.277 Z-0.0237
X0.2918 Z-0.0157
X0.3065 Z-0.0094
X0.322 Z-0.0043
X0.3384 Z-0.0005
X0.3412 Y2.911
X0.3248 Z-0.0043
X0.3093 Z-0.0094
X0.2946 Z-0.0157
X0.2801 Z-0.0234
X0.2674 Z-0.0316
X0.2654 Z-0.0313
X0.2637 Z-0.0304
X0.2623 Z-0.0291
X0.2614 Z-0.0273
X0.2611 Z-0.0254
X0.2612 Y2.9113 Z-0.0238
X0.2614 Y2.912 Z-0.0224
X0.2618 Y2.9132 Z-0.0213
X0.2622 Y2.9147 Z-0.0207
X0.2627 Y2.9163
X0.2632 Y2.9177 Z-0.0213
X0.2635 Y2.9189 Z-0.0224
X0.2637 Y2.9197 Z-0.0238
X0.2638 Y2.92 Z-0.0254
X0.2641 Z-0.0273
X0.265 Z-0.0291
X0.2664 Z-0.0304
X0.2681 Z-0.0313
X0.2701 Z-0.0316
X0.2828 Z-0.0234
X0.2973 Z-0.0157
X0.3123 Z-0.0093
X0.3275 Z-0.0043
X0.344 Z-0.0005
X0.3472 Y2.929
X0.3307 Z-0.0043
X0.315 Z-0.0093
X0.3001 Z-0.0157
X0.2856 Z-0.0234
X0.273 Z-0.0316
X0.2724 Z-0.0317
X0.2721 Z-0.0316
X0.2706 Y2.9293
X0.2692 Y2.93
X0.2682 Y2.9312
X0.2677 Y2.9327
Y2.9343
X0.2682 Y2.9357
X0.2692 Y2.9369
X0.2706 Y2.9377
X0.2721 Y2.938
X0.275
X0.2753 Z-0.0317
X0.2758 Z-0.0316
X0.2884 Z-0.0235
X0.303 Z-0.0157
X0.3182 Z-0.0094
X0.3339 Z-0.0043
X0.3505 Z-0.0005
X0.3538 Y2.947
X0.3371 Z-0.0043
X0.3214 Z-0.0093
X0.3062 Z-0.0157
X0.2916 Z-0.0235
X0.2787 Z-0.0317
X0.2767 Z-0.0313
X0.275 Z-0.0305
X0.2736 Z-0.0291
X0.2727 Z-0.0273
X0.2724 Z-0.0254
X0.2725 Y2.9473 Z-0.0238
X0.2728 Y2.948 Z-0.0223
X0.2732 Y2.9492 Z-0.0213
X0.2738 Y2.9507 Z-0.0207
X0.2743 Y2.9523
X0.2748 Y2.9537 Z-0.0213
X0.2753 Y2.9549 Z-0.0223
X0.2756 Y2.9557 Z-0.0238
X0.2757 Y2.956 Z-0.0254
X0.276 Z-0.0273
X0.2768 Z-0.0291
X0.2782 Z-0.0305
X0.28 Z-0.0313
X0.2819 Z-0.0316
X0.295 Z-0.0234
X0.3093 Z-0.0158
X0.3238 Z-0.0097
X0.3406 Z-0.0043
X0.3572 Z-0.0005
X0.361 Y2.965
X0.3441 Z-0.0043
X0.3281 Z-0.0094
X0.3127 Z-0.0157
X0.2981 Z-0.0234
X0.2853 Z-0.0316
X0.2833 Z-0.0313
X0.2816 Z-0.0305
X0.2802 Z-0.0291
X0.2793 Z-0.0273
X0.279 Z-0.0254
X0.2791 Y2.9653 Z-0.0238
X0.2794 Y2.966 Z-0.0223
X0.2798 Y2.9672 Z-0.0212
X0.2804 Y2.9687 Z-0.0207
X0.281 Y2.9703
X0.2815 Y2.9717 Z-0.0212
X0.282 Y2.9729 Z-0.0223
X0.2822 Y2.9737 Z-0.0238
X0.2823 Y2.974 Z-0.0254
X0.2826 Z-0.0273
X0.2835 Z-0.0291
X0.2849 Z-0.0305
X0.2867 Z-0.0314
X0.2886 Z-0.0317
X0.3016 Z-0.0234
X0.3163 Z-0.0158
X0.332 Z-0.0093
X0.3481 Z-0.0042
X0.3648 Z-0.0005
X0.3687 Y2.983
X0.3514 Z-0.0043
X0.3356 Z-0.0093
X0.3201 Z-0.0157
X0.3053 Z-0.0234
X0.292 Z-0.0316
X0.29 Z-0.0313
X0.2883 Z-0.0305
X0.2869 Z-0.0291
X0.286 Z-0.0273
X0.2857 Z-0.0254
X0.2858 Y2.9833 Z-0.0237
X0.2862 Y2.984 Z-0.0223
X0.2867 Y2.9852 Z-0.0212
X0.2873 Y2.9867 Z-0.0206
X0.288 Y2.9883
X0.2886 Y2.9897 Z-0.0212
X0.2891 Y2.9909 Z-0.0223
X0.2894 Y2.9917 Z-0.0237
X0.2895 Y2.992 Z-0.0254
X0.2898 Z-0.0273
X0.2907 Z-0.0291
X0.2921 Z-0.0305
X0.2938 Z-0.0314
X0.2958 Z-0.0317
X0.309 Z-0.0234
X0.3233 Z-0.016
X0.3396 Z-0.0093
X0.3559 Z-0.0042
X0.3728 Z-0.0005
X0.3772 Y3.001
X0.3599 Z-0.0043
X0.3437 Z-0.0093
X0.3278 Z-0.0158
X0.3127 Z-0.0234
X0.2996 Z-0.0317
X0.2977 Z-0.0314
X0.296 Z-0.0305
X0.2946 Z-0.0291
X0.2937 Z-0.0273
X0.2934 Z-0.0254
X0.2935 Y3.0013 Z-0.0237
X0.2938 Y3.002 Z-0.0223
X0.2943 Y3.0032 Z-0.0212
X0.295 Y3.0047 Z-0.0206
X0.2956 Y3.0063
X0.2963 Y3.0077 Z-0.0212
X0.2968 Y3.0089 Z-0.0223
X0.2971 Y3.0097 Z-0.0237
X0.2972 Y3.01 Z-0.0254
X0.2975 Z-0.0273
X0.2984 Z-0.0291
X0.2998 Z-0.0305
X0.3016 Z-0.0314
X0.3035 Z-0.0317
X0.3169 Z-0.0234
X0.3319 Z-0.0158
X0.3478 Z-0.0093
X0.364 Z-0.0043
X0.3815 Z-0.0005
X0.3837 Y3.0145
X0.386 Y3.019
X0.3685 Z-0.0043
X0.3519 Z-0.0094
X0.3363 Z-0.0157
X0.321 Z-0.0235
X0.3075 Z-0.0317
X0.3055 Z-0.0314
X0.3038 Z-0.0305
X0.3024 Z-0.0291
X0.3015 Z-0.0273
X0.3012 Z-0.0254
X0.3014 Y3.0193 Z-0.0237
X0.3017 Y3.02 Z-0.0222
X0.3023 Y3.0212 Z-0.0211
X0.303 Y3.0227 Z-0.0205
X0.3038 Y3.0243
X0.3045 Y3.0257 Z-0.0211
X0.3051 Y3.0269 Z-0.0222
X0.3055 Y3.0277 Z-0.0237
X0.3056 Y3.028 Z-0.0254
X0.3059 Z-0.0273
X0.3068 Z-0.0291
X0.3082 Z-0.0305
X0.3099 Z-0.0314
X0.3118 Z-0.0317
X0.3252 Z-0.0234
X0.3406 Z-0.0157
X0.3565 Z-0.0094
X0.3734 Z-0.0042
X0.3909 Z-0.0005
X0.3959 Y3.037
X0.3781 Z-0.0043
X0.3614 Z-0.0093
X0.3452 Z-0.0157
X0.3299 Z-0.0233
X0.3162 Z-0.0316
X0.3143 Z-0.0313
X0.3126 Z-0.0305
X0.3112 Z-0.0291
X0.3103 Z-0.0273
X0.31 Z-0.0254
X0.3101 Y3.0373 Z-0.0237
X0.3105 Y3.038 Z-0.0222
X0.3111 Y3.0392 Z-0.0211
X0.3118 Y3.0407 Z-0.0205
X0.3126 Y3.0423
X0.3133 Y3.0437 Z-0.0211
X0.3139 Y3.0449 Z-0.0222
X0.3142 Y3.0457 Z-0.0237
X0.3144 Y3.046 Z-0.0254
X0.3147 Z-0.0273
X0.3156 Z-0.0291
X0.3169 Z-0.0304
X0.3187 Z-0.0313
X0.3206 Z-0.0316
X0.3344 Z-0.0234
X0.3499 Z-0.0157
X0.3657 Z-0.0095
X0.383 Z-0.0043
X0.4008 Z-0.0005
X0.4035 Y3.0505
X0.4062 Y3.055
X0.3883 Z-0.0043
X0.3709 Z-0.0094
X0.3545 Z-0.0158
X0.3392 Z-0.0234
X0.3253 Z-0.0316
X0.3234 Z-0.0313
X0.3217 Z-0.0305
X0.3203 Z-0.0291
X0.3194 Z-0.0273
X0.3191 Z-0.0254
X0.3192 Y3.0553 Z-0.0236
X0.3196 Y3.056 Z-0.0221
X0.3203 Y3.0572 Z-0.021
X0.3211 Y3.0587 Z-0.0204
X0.3219 Y3.0603
X0.3227 Y3.0617 Z-0.021
X0.3234 Y3.0629 Z-0.0221
X0.3238 Y3.0637 Z-0.0236
X0.324 Y3.064 Z-0.0254
X0.3243 Z-0.0273
X0.3251 Z-0.0291
X0.3265 Z-0.0305
X0.3283 Z-0.0314
X0.3302 Z-0.0317
X0.3439 Z-0.0234
X0.3598 Z-0.0157
X0.3761 Z-0.0094
X0.3935 Z-0.0043
X0.4118 Z-0.0005
X0.4173 Y3.073
X0.3989 Z-0.0043
X0.3814 Z-0.0094
X0.3651 Z-0.0157
X0.3492 Z-0.0234
X0.3351 Z-0.0317
X0.3332 Z-0.0314
X0.3314 Z-0.0305
X0.3301 Z-0.0291
X0.3292 Z-0.0273
X0.3289 Z-0.0254
X0.329 Y3.0733 Z-0.0236
X0.3295 Y3.074 Z-0.0221
X0.3301 Y3.0752 Z-0.0209
X0.3309 Y3.0767 Z-0.0203
X0.3318 Y3.0783
X0.3326 Y3.0797 Z-0.0209
X0.3333 Y3.0809 Z-0.0221
X0.3337 Y3.0817 Z-0.0236
X0.3339 Y3.082 Z-0.0254
X0.3342 Z-0.0273
X0.335 Z-0.0291
X0.3364 Z-0.0305
X0.3382 Z-0.0313
X0.3401 Z-0.0317
X0.3543 Z-0.0235
X0.3701 Z-0.0158
X0.3871 Z-0.0094
X0.4046 Z-0.0043
X0.4232 Z-0.0005
X0.4293 Y3.091
X0.4105 Z-0.0043
X0.3927 Z-0.0094
X0.376 Z-0.0157
X0.3596 Z-0.0234
X0.3456 Z-0.0316
X0.3437 Z-0.0313
X0.3419 Z-0.0304
X0.3405 Z-0.0291
X0.3397 Z-0.0273
X0.3394 Z-0.0254
X0.3395 Y3.0912 Z-0.0238
X0.3399 Y3.0918 Z-0.0223
X0.3405 Y3.0928 Z-0.0211
X0.3412 Y3.0941 Z-0.0204
X0.3421 Y3.0955 Z-0.0201
X0.3429 Y3.0969 Z-0.0204
X0.3437 Y3.0981 Z-0.0211
X0.3443 Y3.0991 Z-0.0223
X0.3447 Y3.0998 Z-0.0238
X0.3448 Y3.1 Z-0.0254
X0.3451 Z-0.0273
X0.346 Z-0.0291
X0.3474 Z-0.0305
X0.3491 Z-0.0314
X0.3511 Z-0.0317
X0.3653 Z-0.0235
X0.3815 Z-0.0158
X0.3986 Z-0.0094
X0.4165 Z-0.0043
X0.4355 Z-0.0005
X0.4358 Z0.0003
X0.4359 Y3.1002 Z0.002
X0.4364 Y3.1008 Z0.0036
X0.4371 Y3.1018 Z0.0048
X0.438 Y3.1031 Z0.0056
X0.439 Y3.1045 Z0.0058
X0.4399 Y3.1059 Z0.0056
X0.4408 Y3.1071 Z0.0048
X0.4415 Y3.1081 Z0.0036
X0.442 Y3.1088 Z0.002
X0.4421 Y3.109 Z0.0003
X0.4419 Z-0.0005
X0.4229 Z-0.0043
X0.4047 Z-0.0094
X0.3875 Z-0.0157
X0.3712 Z-0.0234
X0.3565 Z-0.0317
X0.3546 Z-0.0314
X0.3529 Z-0.0305
X0.3515 Z-0.0291
X0.3506 Z-0.0273
X0.3503 Z-0.0254
X0.3504 Y3.1092 Z-0.0238
X0.3508 Y3.1098 Z-0.0223
X0.3515 Y3.1108 Z-0.0211
X0.3523 Y3.1121 Z-0.0203
X0.3532 Y3.1135 Z-0.02
X0.3541 Y3.1149 Z-0.0203
X0.3549 Y3.1161 Z-0.0211
X0.3556 Y3.1171 Z-0.0223
X0.356 Y3.1178 Z-0.0238
X0.3562 Y3.118 Z-0.0254
X0.3565 Z-0.0273
X0.3574 Z-0.0291
X0.3587 Z-0.0305
X0.3605 Z-0.0314
X0.3624 Z-0.0317
X0.3769 Z-0.0234
X0.3935 Z-0.0158
X0.411 Z-0.0094
X0.4292 Z-0.0043
X0.4488 Z-0.0005
X0.4557 Y3.127
X0.436 Z-0.0043
X0.4178 Z-0.0092
X0.4 Z-0.0157
X0.3833 Z-0.0234
X0.3685 Z-0.0317
X0.3666 Z-0.0314
X0.3648 Z-0.0305
X0.3634 Z-0.0291
X0.3626 Z-0.0273
X0.3622 Z-0.0254
X0.3624 Y3.1272 Z-0.0237
X0.3628 Y3.1278 Z-0.0222
X0.3635 Y3.1288 Z-0.021
X0.3644 Y3.1301 Z-0.0202
X0.3653 Y3.1315 Z-0.02
X0.3662 Y3.1329 Z-0.0202
X0.3671 Y3.1341 Z-0.021
X0.3678 Y3.1351 Z-0.0222
X0.3682 Y3.1358 Z-0.0237
X0.3683 Y3.136 Z-0.0254
X0.3686 Z-0.0273
X0.3695 Z-0.0291
X0.3709 Z-0.0305
X0.3727 Z-0.0314
X0.3746 Z-0.0317
X0.3895 Z-0.0234
X0.4065 Z-0.0157
X0.4242 Z-0.0094
X0.4432 Z-0.0042
X0.4628 Z-0.0005
X0.4704 Y3.145
X0.4501 Z-0.0043
X0.4311 Z-0.0094
X0.4131 Z-0.0158
X0.396 Z-0.0234
X0.3809 Z-0.0317
X0.3789 Z-0.0314
X0.3772 Z-0.0305
X0.3758 Z-0.0291
X0.3749 Z-0.0273
X0.3746 Z-0.0254
X0.3748 Y3.1452 Z-0.0236
X0.3753 Y3.1458 Z-0.0221
X0.376 Y3.1468 Z-0.0208
X0.377 Y3.1481 Z-0.02
X0.378 Y3.1495 Z-0.0198
X0.3791 Y3.1509 Z-0.02
X0.38 Y3.1521 Z-0.0208
X0.3808 Y3.1531 Z-0.0221
X0.3812 Y3.1538 Z-0.0236
X0.3814 Y3.154 Z-0.0254
X0.3817 Z-0.0273
X0.3826 Z-0.0291
X0.384 Z-0.0304
X0.3857 Z-0.0313
X0.3877 Z-0.0316
X0.4029 Z-0.0234
X0.4201 Z-0.0158
X0.4385 Z-0.0093
X0.4575 Z-0.0043
X0.478 Z-0.0005
X0.4782 Z0.0004
X0.4784 Y3.1542 Z0.0022
X0.479 Y3.1548 Z0.0039
X0.4799 Y3.1558 Z0.0052
X0.4809 Y3.1571 Z0.006
X0.4822 Y3.1585 Z0.0063
X0.4834 Y3.1599 Z0.006
X0.4845 Y3.1611 Z0.0052
X0.4853 Y3.1621 Z0.0039
X0.4859 Y3.1628 Z0.0022
X0.4861 Y3.163 Z0.0004
X0.4858 Z-0.0005
X0.4655 Z-0.0042
X0.4459 Z-0.0093
X0.4272 Z-0.0157
X0.4097 Z-0.0234
X0.3944 Z-0.0316
X0.3924 Z-0.0313
X0.3907 Z-0.0305
X0.3893 Z-0.0291
X0.3884 Z-0.0273
X0.3881 Z-0.0254
X0.3883 Y3.1632 Z-0.0237
X0.3888 Y3.1638 Z-0.0221
X0.3895 Y3.1648 Z-0.0208
X0.3905 Y3.1661 Z-0.02
X0.3915 Y3.1675 Z-0.0198
X0.3926 Y3.1689 Z-0.02
X0.3935 Y3.1701 Z-0.0208
X0.3942 Y3.1711 Z-0.0221
X0.3947 Y3.1718 Z-0.0237
X0.3949 Y3.172 Z-0.0254
X0.3952 Z-0.0273
X0.3961 Z-0.0291
X0.3975 Z-0.0305
X0.3992 Z-0.0314
X0.4011 Z-0.0317
X0.4169 Z-0.0233
X0.4347 Z-0.0157
X0.4533 Z-0.0094
X0.4728 Z-0.0043
X0.4943 Z-0.0005
X0.5027 Y3.181
X0.4815 Z-0.0042
X0.461 Z-0.0094
X0.4423 Z-0.0158
X0.4243 Z-0.0234
X0.4086 Z-0.0317
X0.4066 Z-0.0314
X0.4049 Z-0.0305
X0.4035 Z-0.0291
X0.4026 Z-0.0273
X0.4023 Z-0.0254
X0.4025 Y3.1812 Z-0.0236
X0.403 Y3.1818 Z-0.022
X0.4039 Y3.1828 Z-0.0207
X0.4049 Y3.1841 Z-0.0198
X0.406 Y3.1855 Z-0.0195
X0.4072 Y3.1869 Z-0.0198
X0.4082 Y3.1881 Z-0.0207
X0.4091 Y3.1891 Z-0.022
X0.4096 Y3.1898 Z-0.0236
X0.4098 Y3.19 Z-0.0254
X0.4101 Z-0.0273
X0.411 Z-0.0291
X0.4124 Z-0.0305
X0.4141 Z-0.0313
X0.416 Z-0.0316
X0.432 Z-0.0234
X0.4499 Z-0.0158
X0.4694 Z-0.0094
X0.4901 Z-0.0042
X0.5116 Z-0.0005
X0.5209 Y3.199
X0.4986 Z-0.0043
X0.478 Z-0.0093
X0.4583 Z-0.0158
X0.4398 Z-0.0233
X0.4234 Z-0.0317
X0.4215 Z-0.0314
X0.4198 Z-0.0305
X0.4184 Z-0.0291
X0.4175 Z-0.0273
X0.4172 Z-0.0254
X0.4174 Y3.1992 Z-0.0235
X0.418 Y3.1998 Z-0.0218
X0.4189 Y3.2008 Z-0.0205
X0.42 Y3.2021 Z-0.0196
X0.4213 Y3.2035 Z-0.0193
X0.4225 Y3.2049 Z-0.0196
X0.4237 Y3.2061 Z-0.0205
X0.4246 Y3.2071 Z-0.0218
X0.4251 Y3.2078 Z-0.0235
X0.4253 Y3.208 Z-0.0254
X0.4256 Z-0.0273
X0.4265 Z-0.0291
X0.4279 Z-0.0305
X0.4297 Z-0.0313
X0.4316 Z-0.0317
X0.448 Z-0.0234
X0.467 Z-0.0157
X0.4865 Z-0.0094
X0.5077 Z-0.0043
X0.5302 Z-0.0005
X0.5352 Y3.2125
X0.5404 Y3.217
X0.5169 Z-0.0043
X0.496 Z-0.0093
X0.4755 Z-0.0157
X0.4565 Z-0.0233
X0.4398 Z-0.0317
X0.4378 Z-0.0314
X0.4361 Z-0.0305
X0.4347 Z-0.0291
X0.4338 Z-0.0273
X0.4335 Z-0.0254
X0.4337 Y3.2172 Z-0.0235
X0.4343 Y3.2178 Z-0.0218
X0.4352 Y3.2188 Z-0.0205
X0.4363 Y3.2201 Z-0.0196
X0.4376 Y3.2215 Z-0.0193
X0.4389 Y3.2229 Z-0.0196
X0.44 Y3.2241 Z-0.0205
X0.4409 Y3.2251 Z-0.0218
X0.4415 Y3.2258 Z-0.0235
X0.4417 Y3.226 Z-0.0254
X0.442 Z-0.0273
X0.4429 Z-0.0291
X0.4443 Z-0.0305
X0.446 Z-0.0314
X0.448 Z-0.0317
X0.465 Z-0.0234
X0.4847 Z-0.0157
X0.5052 Z-0.0093
X0.5274 Z-0.0042
X0.5507 Z-0.0005
X0.5509 Z0.0001
X0.551 Z0.0007
Z0.0009
X0.5512 Y3.2262 Z0.0029
X0.5518 Y3.2267 Z0.0047
X0.5528 Y3.2275 Z0.0062
X0.5541 Y3.2286 Z0.0072
X0.5555 Y3.2298 Z0.0078
X0.557 Y3.2311
X0.5585 Y3.2323 Z0.0072
X0.5598 Y3.2334 Z0.0062
X0.5608 Y3.2343 Z0.0047
X0.5614 Y3.2348 Z0.0029
X0.5616 Y3.235 Z0.0009
X0.5615 Z0.0002
X0.5612 Z-0.0005
X0.5373 Z-0.0043
X0.515 Z-0.0093
X0.4942 Z-0.0156
X0.4741 Z-0.0234
X0.4569 Z-0.0317
X0.455 Z-0.0314
X0.4532 Z-0.0305
X0.4519 Z-0.0291
X0.451 Z-0.0273
X0.4507 Z-0.0254
X0.4509 Y3.2352 Z-0.0235
X0.4515 Y3.2358 Z-0.0217
X0.4525 Y3.2368 Z-0.0204
X0.4537 Y3.238 Z-0.0195
X0.4551 Y3.2394 Z-0.0192
X0.4552 Y3.2396
X0.4566 Y3.2409 Z-0.0195
X0.4578 Y3.2421 Z-0.0204
X0.4588 Y3.2431 Z-0.0217
X0.4594 Y3.2438 Z-0.0235
X0.4597 Y3.244 Z-0.0254
X0.46 Z-0.0273
X0.4609 Z-0.0291
X0.4622 Z-0.0305
X0.464 Z-0.0314
X0.4659 Z-0.0317
X0.4841 Z-0.0231
X0.5036 Z-0.0157
X0.5255 Z-0.0092
X0.548 Z-0.0043
X0.5727 Z-0.0005
X0.5841 Y3.253
X0.5591 Z-0.0043
X0.5352 Z-0.0094
X0.5139 Z-0.0156
X0.493 Z-0.0234
X0.475 Z-0.0317
X0.4731 Z-0.0314
X0.4714 Z-0.0305
X0.47 Z-0.0291
X0.4691 Z-0.0273
X0.4688 Z-0.0254
X0.469 Y3.2532 Z-0.0235
X0.4697 Y3.2538 Z-0.0217
X0.4707 Y3.2547 Z-0.0204
X0.472 Y3.2559 Z-0.0195
X0.4734 Y3.2572 Z-0.0192
X0.4741 Y3.2578
X0.4755 Y3.2591 Z-0.0195
X0.4768 Y3.2602 Z-0.0204
X0.4778 Y3.2612 Z-0.0217
X0.4784 Y3.2618 Z-0.0235
X0.4787 Y3.262 Z-0.0254
X0.479 Z-0.0273
X0.4799 Z-0.0291
X0.4813 Z-0.0305
X0.483 Z-0.0314
X0.4849 Z-0.0317
X0.5034 Z-0.0233
X0.524 Z-0.0157
X0.5466 Z-0.0093
X0.5704 Z-0.0043
X0.5966 Z-0.0005
X0.6093 Y3.271
X0.583 Z-0.0042
X0.5575 Z-0.0094
X0.535 Z-0.0157
X0.5134 Z-0.0233
X0.4948 Z-0.0317
X0.4943 Z-0.0318
X0.4937 Z-0.0316
X0.4936
X0.4931 Z-0.0315
X0.4915 Y3.2712
X0.4902 Y3.272
X0.4892 Y3.2732
X0.4886 Y3.2747
Y3.2763
X0.4892 Y3.2777
X0.4902 Y3.2789
X0.4915 Y3.2797
X0.4931 Y3.28
X0.5035
X0.5041 Z-0.0316
X0.5046 Z-0.0317
X0.5052 Z-0.0316
X0.5245 Z-0.0233
X0.5464 Z-0.0156
X0.5696 Z-0.0094
X0.5947 Z-0.0043
X0.6229 Z-0.0005
X0.6371 Y3.289
X0.6088 Z-0.0042
X0.5822 Z-0.0093
X0.558 Z-0.0157
X0.5364 Z-0.0229
X0.516 Z-0.0317
X0.5141 Z-0.0314
X0.5124 Z-0.0305
X0.511 Z-0.0291
X0.5101 Z-0.0273
X0.5098 Z-0.0254
X0.51 Y3.2892 Z-0.0235
X0.5107 Y3.2897 Z-0.0217
X0.5118 Y3.2906 Z-0.0204
X0.5131 Y3.2917 Z-0.0195
X0.5146 Y3.2929 Z-0.0192
X0.5159 Y3.294
X0.5174 Y3.2952 Z-0.0195
X0.5187 Y3.2963 Z-0.0204
X0.5198 Y3.2972 Z-0.0217
X0.5204 Y3.2978 Z-0.0235
X0.5207 Y3.298 Z-0.0254
X0.521 Z-0.0273
X0.5219 Z-0.0291
X0.5233 Z-0.0305
X0.525 Z-0.0314
X0.5269 Z-0.0317
X0.5471 Z-0.0234
X0.5713 Z-0.0153
X0.5954 Z-0.0093
X0.6223 Z-0.0042
X0.6521 Z-0.0005
X0.6681 Y3.307
X0.6376 Z-0.0041
X0.6092 Z-0.0092
X0.583 Z-0.0157
X0.5629 Z-0.0221
X0.5577 Z-0.024
X0.5388 Z-0.0317
X0.5368 Z-0.0314
X0.5351 Z-0.0305
X0.5337 Z-0.0291
X0.5328 Z-0.0273
X0.5325 Z-0.0254
X0.5328 Y3.3072 Z-0.0235
X0.5335 Y3.3077 Z-0.0217
X0.5346 Y3.3085 Z-0.0203
X0.536 Y3.3096 Z-0.0195
X0.5375 Y3.3107 Z-0.0192
X0.5396 Y3.3122
X0.5411 Y3.3134 Z-0.0195
X0.5425 Y3.3144 Z-0.0203
X0.5436 Y3.3153 Z-0.0217
X0.5443 Y3.3158 Z-0.0235
X0.5446 Y3.316 Z-0.0254
X0.5449 Z-0.0273
X0.5458 Z-0.0291
X0.5472 Z-0.0305
X0.5489 Z-0.0313
X0.5508 Z-0.0317
X0.5521 Z-0.0311
X0.5721 Z-0.0233
X0.5983 Z-0.0152
X0.6241 Z-0.0091
X0.6528 Z-0.0042
X0.6852 Z-0.0005
X0.6987 Y3.3227
X0.7031 Y3.325
X0.6693 Z-0.0042
X0.6381 Z-0.0093
X0.6104 Z-0.0157
X0.5911 Z-0.0215
X0.5847 Z-0.0236
X0.5634 Z-0.0316
X0.5615 Z-0.0313
X0.5597 Z-0.0304
X0.5584 Z-0.0291
X0.5575 Z-0.0273
X0.5572 Z-0.0254
X0.5574 Y3.3251 Z-0.0235
X0.5582 Y3.3256 Z-0.0217
X0.5593 Y3.3264 Z-0.0203
X0.5607 Y3.3274 Z-0.0194
X0.5623 Y3.3285 Z-0.0191
X0.5652 Y3.3305
X0.5668 Y3.3315 Z-0.0194
X0.5683 Y3.3325 Z-0.0203
X0.5694 Y3.3333 Z-0.0217
X0.5702 Y3.3338 Z-0.0235
X0.5704 Y3.334 Z-0.0254
X0.5707 Z-0.0273
X0.5716 Z-0.0291
X0.573 Z-0.0305
X0.5747 Z-0.0314
X0.5767 Z-0.0317
X0.5776 Z-0.0313
X0.599 Z-0.0233
X0.6267 Z-0.0153
