%
(Case_Back_Top)
(T2  D=0.125 CR=0 - ZMIN=-0.0704 - flat end mill)
(T3  D=0.12 CR=0.001 - ZMIN=-0.0704 - slot mill)
(T4  D=0.08 CR=0 - ZMIN=-0.0491 - thread mill)
G90
G17
G20
G28 G91 Z0
G90

(Center Contour)
T2 M6
S10000 M3
G54
G0 X1.2014 Y3.3985
Z0.6
Z0.2
G1 Z0.1 F6
G2 X1 Y1.973 Z-0.009 I-0.2014 J-0.6985 F8
Y3.427 I0 J0.727 F18
Y1.973 I0 J-0.727
X0.8299 Y1.9932 Z-0.018 I0 J0.727 F8
X1.1701 Y3.4068 I0.1701 J0.7068 F18
X0.8299 Y1.9932 I-0.1701 J-0.7068
X0.6692 Y2.0527 Z-0.027 I0.1701 J0.7068 F8
X1.3308 Y3.3473 I0.3308 J0.6473 F18
X0.6692 Y2.0527 I-0.3308 J-0.6473
X0.5269 Y2.1481 Z-0.036 I0.3308 J0.6473 F8
X1.4731 Y3.2519 I0.4731 J0.5519 F18
X0.5269 Y2.1481 I-0.4731 J-0.5519
X0.4109 Y2.2741 Z-0.045 I0.4731 J0.5519 F8
X1.5891 Y3.1259 I0.5891 J0.4259 F18
X0.4109 Y2.2741 I-0.5891 J-0.4259
X0.3276 Y2.4238 Z-0.054 I0.5891 J0.4259 F8
X1.6724 Y2.9762 I0.6724 J0.2762 F18
X0.3276 Y2.4238 I-0.6724 J-0.2762
X0.2816 Y2.5889 Z-0.063 I0.6724 J0.2762 F8
X1.7184 Y2.8111 I0.7184 J0.1111 F18
X0.2816 Y2.5889 I-0.7184 J-0.1111
X0.2737 Y2.7293 Z-0.0704 I0.7184 J0.1111 F8
X1.7263 Y2.6707 I0.7263 J-0.0293 F18
X0.2737 Y2.7293 I-0.7263 J0.0293
G0 X0.2736 Z0.6

(Center Contour)
X0.6933 Y2.0019
Z0.6
Z0.2
G1 Z0.1 F6
G2 X0.2375 Y2.7 Z0.0538 I0.3067 J0.6981 F8
X0.4608 Y3.2392 Z0.0224 I0.7625 J0
X1 Y3.4625 Z-0.009 I0.5392 J-0.5392
Y1.9375 I0 J-0.7625 F18
X0.2375 Y2.7 I0 J0.7625
X0.4608 Y3.2392 I0.7625 J0
X1 Y3.4625 I0.5392 J-0.5392
X1.1703 Y3.4432 Z-0.018 I0 J-0.7625 F8
X0.8297 Y1.9568 I-0.1703 J-0.7432 F18
X0.2375 Y2.7 I0.1703 J0.7432
X0.4608 Y3.2392 I0.7625 J0
X1 Y3.4625 I0.5392 J-0.5392
X1.1703 Y3.4432 I0 J-0.7625
X1.3319 Y3.3864 Z-0.027 I-0.1703 J-0.7432 F8
X0.6681 Y2.0136 I-0.3319 J-0.6864 F18
X0.2376 Y2.7 I0.3319 J0.6864
X0.4609 Y3.2391 I0.7624 J0
X1 Y3.4624 I0.5391 J-0.5391
X1.3319 Y3.3864 I0 J-0.7624
X1.4768 Y3.2949 Z-0.036 I-0.3319 J-0.6864 F8
X0.5232 Y2.1051 I-0.4768 J-0.5949 F18
X0.2376 Y2.7 I0.4768 J0.5949
X0.4609 Y3.2391 I0.7624 J0
X1 Y3.4624 I0.5391 J-0.5391
X1.4768 Y3.2949 I0 J-0.7624
X1.5976 Y3.1734 Z-0.045 I-0.4768 J-0.5949 F8
X0.4024 Y2.2266 I-0.5976 J-0.4734 F18
X0.2376 Y2.7 I0.5976 J0.4734
X0.4609 Y3.2391 I0.7624 J0
X1 Y3.4624 I0.5391 J-0.5391
X1.5976 Y3.1734 I0 J-0.7624
X1.6882 Y3.028 Z-0.054 I-0.5976 J-0.4734 F8
X0.3118 Y2.372 I-0.6882 J-0.328 F18
X0.2376 Y2.7 I0.6882 J0.328
X0.4609 Y3.2391 I0.7624 J0
X1 Y3.4624 I0.5391 J-0.5391
X1.6883 Y3.028 I0 J-0.7624
X1.7442 Y2.866 Z-0.063 I-0.6883 J-0.328 F8
X1.0835 Y1.9421 I-0.7442 J-0.166 F18
X0.2375 Y2.7 I-0.0835 J0.7579
X0.4608 Y3.2392 I0.7625 J0
X1 Y3.4625 I0.5392 J-0.5392
X1.7442 Y2.866 I0 J-0.7625
X1.762 Y2.7264 Z-0.0704 I-0.7442 J-0.166 F8
X1.0132 Y1.9377 I-0.762 J-0.0264 F18
X0.2376 Y2.7 I-0.0132 J0.7623
X0.4609 Y3.2391 I0.7624 J0
X1 Y3.4624 I0.5391 J-0.5391
X1.7619 Y2.7264 I0 J-0.7624
G0 X1.762 Z0.6
M5
G28 G91 Z0
G90

(Keyset Contour 3)
T3 M6
S10000 M3
G54
G0 X1.3143 Y3.3911
Z0.6
Z0.2
G1 Z0.112 F13.333
X1.3142 Y3.3908 Z0.1093 F18
X1.3138 Y3.39 Z0.1068
X1.3132 Y3.3887 Z0.1045
X1.3124 Y3.387 Z0.1026
X1.3114 Y3.3849 Z0.1012
X1.3103 Y3.3826 Z0.1003
X1.3092 Y3.3802 Z0.1
X1.3041 Y3.3694
G3 X1.3098 Y3.3534 I0.0108 J-0.0052
G2 X0.6902 Y2.0466 Z0.085 I-0.3098 J-0.6534 F13.333
X1.3098 Y3.3534 Z0.07 I0.3098 J0.6534
X0.6902 Y2.0466 Z0.055 I-0.3098 J-0.6534
X1.3098 Y3.3534 Z0.04 I0.3098 J0.6534
X0.6902 Y2.0466 Z0.025 I-0.3098 J-0.6534
X1.3098 Y3.3534 Z0.01 I0.3098 J0.6534
X0.6902 Y2.0466 Z-0.005 I-0.3098 J-0.6534
X1.3098 Y3.3534 Z-0.02 I0.3098 J0.6534
X0.6902 Y2.0466 Z-0.035 I-0.3098 J-0.6534
X1.3098 Y3.3534 Z-0.05 I0.3098 J0.6534
X0.6902 Y2.0466 Z-0.065 I-0.3098 J-0.6534
X0.2769 Y2.7 Z-0.0704 I0.3098 J0.6534
X1.7231 I0.7231 J0 F18
X0.2769 I-0.7231 J0
G1 X0.2772 Y2.7016
X0.2781 Y2.7029
X0.2794 Y2.7037
X0.2807 Y2.7046
X0.2816 Y2.7059
X0.2819 Y2.7075
G2 X1.7181 Y2.6925 I0.7181 J-0.0075
X0.2819 Y2.7075 I-0.7181 J0.0075
G1 X0.2822 Y2.7092
X0.2828 Y2.7108
X0.2838 Y2.7122
X0.285 Y2.7134
X0.2865 Y2.7142
X0.2884 Y2.7153
X0.2899 Y2.7169
X0.2908 Y2.7188
X0.2912 Y2.7209
G2 X1.7088 Y2.6791 I0.7088 J-0.0209
X0.2912 Y2.7209 I-0.7088 J0.0209
G3 X0.2796 Y2.7333 I-0.012 J0.0004
G1 X0.2676 Y2.7336
X0.2649 Y2.7337 Z-0.0701
X0.2624 Y2.7338 Z-0.0692
X0.2601 Z-0.0678
X0.2582 Y2.7339 Z-0.0659
X0.2568 Z-0.0636
X0.2559 Y2.734 Z-0.0611
X0.2556 Z-0.0584
G0 Z0.6
M5
G28 G91 Z0
G90

(Thread2)
T4 M6
S5000 M3
G54
M7
G0 X1.714 Y2.708
Z0.6
Z0.0796
G1 Z0.0076 F5
G18 G3 X1.706 Z-0.0004 I-0.008 K0
G1 X1.702
G17 G3 X1.694 Y2.7 I0 J-0.008
G2 X0.306 Z-0.0093 I-0.694 J0
X1.694 Z-0.0182 I0.694 J0
X0.306 Z-0.0272 I-0.694 J0
X1.694 Z-0.0361 I0.694 J0
X0.306 Z-0.045 I-0.694 J0
X0.9145 Y3.3887 Z-0.0491 I0.694 J0
G3 X0.9215 Y3.3976 I-0.001 J0.008
G1 X0.921 Y3.4016
X0.9207 Y3.4037 Z-0.0489
X0.9205 Y3.4056 Z-0.0481
X0.9203 Y3.4072 Z-0.0468
X0.9201 Y3.4085 Z-0.0451
X0.92 Y3.4093 Z-0.0432
Y3.4095 Z-0.0411
G0 Z0.2
X1.71 Y2.708
Z0.0796
G1 Z0.0076 F5
G18 G3 X1.702 Z-0.0004 I-0.008 K0
G1 X1.698
G17 G3 X1.69 Y2.7 I0 J-0.008
G2 X0.31 Z-0.0093 I-0.69 J0
X1.69 Z-0.0182 I0.69 J0
X0.31 Z-0.0272 I-0.69 J0
X1.69 Z-0.0361 I0.69 J0
X0.31 Z-0.045 I-0.69 J0
X0.915 Y3.3847 Z-0.0491 I0.69 J0
G3 X0.922 Y3.3937 I-0.001 J0.008
G1 X0.9214 Y3.3976
X0.9212 Y3.3997 Z-0.0489
X0.921 Y3.4016 Z-0.0481
X0.9207 Y3.4033 Z-0.0468
X0.9206 Y3.4045 Z-0.0451
X0.9205 Y3.4053 Z-0.0432
Y3.4056 Z-0.0411
G0 Z0.2
X1.706 Y2.708
Z0.0796
G1 Z0.0076 F5
G18 G3 X1.698 Z-0.0004 I-0.008 K0
G1 X1.694
G17 G3 X1.686 Y2.7 I0 J-0.008
G2 X0.314 Z-0.0093 I-0.686 J0
X1.686 Z-0.0182 I0.686 J0
X0.314 Z-0.0272 I-0.686 J0
X1.686 Z-0.0361 I0.686 J0
X0.314 Z-0.045 I-0.686 J0
X0.9155 Y3.3808 Z-0.0491 I0.686 J0
G3 X0.9224 Y3.3897 I-0.001 J0.0079
G1 X0.9219 Y3.3937
X0.9217 Y3.3957 Z-0.0489
X0.9214 Y3.3976 Z-0.0481
X0.9212 Y3.3993 Z-0.0468
X0.9211 Y3.4005 Z-0.0451
X0.921 Y3.4013 Z-0.0432
Y3.4016 Z-0.0411
G0 Z0.6
M9
M5
G28 G91 Z0
G90

(Faceing Operation)
T2 M6
S10000 M3
G54
G0 X1.0588 Y2.7079
Z0.6
Z0.2
Z0.1
G3 X0.9412 Y2.6921 Z0.0935 I-0.0588 J-0.0079 F13
X1.0588 Y2.7079 Z0.087 I0.0588 J0.0079
X0.9412 Y2.6921 Z0.0805 I-0.0588 J-0.0079
X1.0588 Y2.7079 Z0.0739 I0.0588 J0.0079
X0.9412 Y2.6921 Z0.0674 I-0.0588 J-0.0079
X1.0588 Y2.7079 Z0.0609 I0.0588 J0.0079
X0.9412 Y2.6921 Z0.0544 I-0.0588 J-0.0079
X1.0588 Y2.7079 Z0.0479 I0.0588 J0.0079
X0.9412 Y2.6921 Z0.0414 I-0.0588 J-0.0079
X1.0588 Y2.7079 Z0.0349 I0.0588 J0.0079
X0.9412 Y2.6921 Z0.0283 I-0.0588 J-0.0079
X1.0588 Y2.7079 Z0.0218 I0.0588 J0.0079
X0.9412 Y2.6921 Z0.0153 I-0.0588 J-0.0079
X1.0588 Y2.7079 Z0.0088 I0.0588 J0.0079
X0.9412 Y2.6921 Z0.0023 I-0.0588 J-0.0079
X1.0588 Y2.7079 Z-0.0042 I0.0588 J0.0079
X0.9412 Y2.6921 Z-0.0107 I-0.0588 J-0.0079
X1.0588 Y2.7079 Z-0.0172 I0.0588 J0.0079
X0.9412 Y2.6921 Z-0.0238 I-0.0588 J-0.0079
X1.0593 Y2.7 Z-0.03 I0.0588 J0.0079
X0.9407 I-0.0593 J0
X1.0593 I0.0593 J0
G1 X1.0598 Y2.7152 F26
X1.0597 Y2.7212
X1.0584 Y2.7271
X1.0563 Y2.7326
X1.0534 Y2.7379
X1.05 Y2.7428
X1.046 Y2.7474
X1.0416 Y2.7515
X1.0369 Y2.7551
X1.0318 Y2.7583
X1.0264 Y2.761
X1.0208 Y2.7632
X1.0151 Y2.7648
X1.0092 Y2.7659
X1.0032 Y2.7665
X0.9972
X0.9912 Y2.766
X0.9853 Y2.765
X0.9795 Y2.7634
X0.9739 Y2.7613
X0.9685 Y2.7587
X0.9633 Y2.7556
X0.9585 Y2.7521
X0.954 Y2.7482
X0.9498 Y2.7438
X0.9461 Y2.7391
X0.9428 Y2.7341
X0.9399 Y2.7289
X0.9376 Y2.7233
X0.9357 Y2.7176
X0.9344 Y2.7118
X0.9336 Y2.7058
X0.9333 Y2.6998
X0.9336 Y2.6938
X0.9344 Y2.6879
X0.9358 Y2.6821
X0.9377 Y2.6764
X0.94 Y2.6708
X0.9429 Y2.6656
X0.9462 Y2.6606
X0.95 Y2.6559
X0.9541 Y2.6516
X0.9587 Y2.6477
X0.9636 Y2.6442
X0.9687 Y2.6411
X0.9741 Y2.6385
X0.9798 Y2.6365
X0.9856 Y2.6349
X0.9915 Y2.6339
X0.9975 Y2.6334
X1.0035
X1.0094 Y2.634
X1.0153 Y2.6351
X1.0211 Y2.6367
X1.0267 Y2.6389
X1.0321 Y2.6415
X1.0372 Y2.6447
X1.042 Y2.6482
X1.0465 Y2.6522
X1.0506 Y2.6566
X1.0543 Y2.6613
X1.0576 Y2.6664
X1.0603 Y2.6717
X1.0626 Y2.6772
X1.0644 Y2.683
X1.0658 Y2.6888
X1.0669 Y2.6947
X1.0678 Y2.7006
X1.0683 Y2.7066
Y2.7126
X1.0677 Y2.7186
X1.0665 Y2.7245
X1.0648 Y2.7302
X1.0625 Y2.7358
X1.0597 Y2.7411
X1.0564 Y2.7461
X1.0526 Y2.7507
X1.0484 Y2.755
X1.0439 Y2.7589
X1.039 Y2.7624
X1.0338 Y2.7655
X1.0284 Y2.7681
X1.0228 Y2.7703
X1.0171 Y2.7719
X1.0112 Y2.7731
X1.0052 Y2.7738
X0.9992 Y2.774
X0.9932 Y2.7738
X0.9873 Y2.773
X0.9814 Y2.7718
X0.9757 Y2.77
X0.9701 Y2.7678
X0.9647 Y2.7652
X0.9595 Y2.7621
X0.9547 Y2.7586
X0.9501 Y2.7548
X0.9458 Y2.7506
X0.9419 Y2.746
X0.9383 Y2.7412
X0.9352 Y2.7361
X0.9325 Y2.7307
X0.9302 Y2.7252
X0.9284 Y2.7194
X0.9271 Y2.7136
X0.9262 Y2.7076
X0.9258 Y2.7017
X0.9259 Y2.6957
X0.9265 Y2.6897
X0.9276 Y2.6838
X0.9291 Y2.678
X0.9311 Y2.6723
X0.9336 Y2.6669
X0.9365 Y2.6616
X0.9398 Y2.6566
X0.9435 Y2.6519
X0.9476 Y2.6475
X0.952 Y2.6434
X0.9567 Y2.6397
X0.9617 Y2.6364
X0.967 Y2.6335
X0.9725 Y2.6311
X0.9781 Y2.6291
X0.9839 Y2.6276
X0.9898 Y2.6265
X0.9958 Y2.6259
X1.0018 Y2.6258
X1.0078 Y2.6262
X1.0137 Y2.6271
X1.0196 Y2.6284
X1.0253 Y2.6302
X1.0309 Y2.6325
X1.0362 Y2.6352
X1.0413 Y2.6384
X1.0462 Y2.6419
X1.0507 Y2.6459
X1.0549 Y2.6501
X1.0588 Y2.6547
X1.0622 Y2.6596
X1.0653 Y2.6648
X1.068 Y2.6702
X1.0702 Y2.6757
X1.0722 Y2.6814
X1.0738 Y2.6872
X1.075 Y2.693
X1.0758 Y2.699
X1.0762 Y2.705
Y2.711
X1.0757 Y2.7169
X1.0747 Y2.7229
X1.0732 Y2.7287
X1.0712 Y2.7343
X1.0688 Y2.7398
X1.0659 Y2.7451
X1.0626 Y2.7501
X1.0589 Y2.7548
X1.0548 Y2.7592
X1.0504 Y2.7633
X1.0457 Y2.767
X1.0407 Y2.7703
X1.0355 Y2.7732
X1.03 Y2.7757
X1.0244 Y2.7778
X1.0186 Y2.7794
X1.0127 Y2.7806
X1.0068 Y2.7814
X1.0008 Y2.7817
X0.9948 Y2.7816
X0.9888 Y2.781
X0.9829 Y2.78
X0.9771 Y2.7786
X0.9714 Y2.7767
X0.9658 Y2.7744
X0.9605 Y2.7717
X0.9553 Y2.7686
X0.9504 Y2.7652
X0.9458 Y2.7614
X0.9414 Y2.7572
X0.9374 Y2.7528
X0.9337 Y2.7481
X0.9303 Y2.7431
X0.9273 Y2.7379
X0.9248 Y2.7325
X0.9226 Y2.7269
X0.9208 Y2.7212
X0.9195 Y2.7153
X0.9186 Y2.7094
X0.9181 Y2.7034
Y2.6974
X0.9185 Y2.6914
X0.9193 Y2.6855
X0.9206 Y2.6796
X0.9223 Y2.6739
X0.9244 Y2.6682
X0.927 Y2.6628
X0.9299 Y2.6576
X0.9332 Y2.6525
X0.9368 Y2.6478
X0.9408 Y2.6433
X0.9451 Y2.6391
X0.9497 Y2.6353
X0.9546 Y2.6317
X0.9597 Y2.6286
X0.965 Y2.6258
X0.9705 Y2.6235
X0.9762 Y2.6216
X0.982 Y2.62
X0.9879 Y2.6189
X0.9939 Y2.6183
X0.9999 Y2.618
X1.0059 Y2.6182
X1.0118 Y2.6189
X1.0177 Y2.62
X1.0235 Y2.6215
X1.0292 Y2.6234
X1.0347 Y2.6257
X1.0401 Y2.6285
X1.0452 Y2.6316
X1.0501 Y2.6351
X1.0547 Y2.639
X1.059 Y2.6431
X1.063 Y2.6476
X1.0667 Y2.6523
X1.07 Y2.6573
X1.073 Y2.6625
X1.0757 Y2.6679
X1.078 Y2.6734
X1.08 Y2.6791
X1.0816 Y2.6848
X1.0829 Y2.6907
X1.0838 Y2.6967
X1.0842 Y2.7026
X1.0843 Y2.7086
X1.0839 Y2.7146
X1.0831 Y2.7206
X1.0819 Y2.7264
X1.0803 Y2.7322
X1.0782 Y2.7379
X1.0757 Y2.7433
X1.0729 Y2.7486
X1.0696 Y2.7536
X1.066 Y2.7584
X1.062 Y2.7629
X1.0578 Y2.7672
X1.0532 Y2.7711
X1.0484 Y2.7746
X1.0433 Y2.7779
X1.0381 Y2.7807
X1.0326 Y2.7832
X1.027 Y2.7852
X1.0212 Y2.7869
X1.0153 Y2.7882
X1.0094 Y2.7891
X1.0034 Y2.7896
X0.9974 Y2.7897
X0.9914 Y2.7893
X0.9855 Y2.7886
X0.9796 Y2.7875
X0.9738 Y2.7859
X0.9681 Y2.784
X0.9626 Y2.7817
X0.9572 Y2.779
X0.952 Y2.776
X0.9471 Y2.7726
X0.9423 Y2.7689
X0.9378 Y2.7649
X0.9336 Y2.7607
X0.9297 Y2.7561
X0.9261 Y2.7513
X0.9229 Y2.7463
X0.92 Y2.741
X0.9174 Y2.7356
X0.9152 Y2.73
X0.9134 Y2.7243
X0.912 Y2.7185
X0.9109 Y2.7126
X0.9103 Y2.7066
X0.9101 Y2.7006
X0.9102 Y2.6946
X0.9107 Y2.6886
X0.9117 Y2.6827
X0.913 Y2.6769
X0.9148 Y2.6711
X0.9169 Y2.6655
X0.9194 Y2.66
X0.9222 Y2.6548
X0.9254 Y2.6497
X0.929 Y2.6448
X0.9328 Y2.6402
X0.9369 Y2.6358
X0.9413 Y2.6318
X0.946 Y2.628
X0.9509 Y2.6246
X0.956 Y2.6215
X0.9614 Y2.6187
X0.9669 Y2.6163
X0.9725 Y2.6143
X0.9783 Y2.6127
X0.9842 Y2.6114
X0.9901 Y2.6106
X0.9961 Y2.6101
X1.0021 Y2.61
X1.0081 Y2.6104
X1.014 Y2.6111
X1.0199 Y2.6122
X1.0257 Y2.6138
X1.0314 Y2.6157
X1.037 Y2.618
X1.0423 Y2.6206
X1.0475 Y2.6236
X1.0525 Y2.627
X1.0573 Y2.6306
X1.0618 Y2.6346
X1.066 Y2.6389
X1.07 Y2.6434
X1.0736 Y2.6481
X1.077 Y2.6531
X1.0801 Y2.6582
X1.0828 Y2.6636
X1.0852 Y2.6691
X1.0873 Y2.6747
X1.0891 Y2.6804
X1.0904 Y2.6863
X1.0915 Y2.6922
X1.0922 Y2.6981
X1.0925 Y2.7041
X1.0924 Y2.7101
X1.092 Y2.7161
X1.0911 Y2.7221
X1.0899 Y2.7279
X1.0883 Y2.7337
X1.0863 Y2.7394
X1.0839 Y2.7449
X1.0812 Y2.7502
X1.0781 Y2.7554
X1.0747 Y2.7603
X1.071 Y2.765
X1.0669 Y2.7695
X1.0626 Y2.7736
X1.0581 Y2.7775
X1.0532 Y2.7811
X1.0482 Y2.7844
X1.0429 Y2.7873
X1.0375 Y2.7898
X1.032 Y2.7921
X1.0263 Y2.7939
X1.0204 Y2.7955
X1.0146 Y2.7966
X1.0086 Y2.7974
X1.0026 Y2.7978
X0.9966
X0.9906 Y2.7975
X0.9847 Y2.7968
X0.9788 Y2.7957
X0.973 Y2.7942
X0.9672 Y2.7924
X0.9616 Y2.7902
X0.9562 Y2.7877
X0.9509 Y2.7849
X0.9458 Y2.7817
X0.9409 Y2.7783
X0.9362 Y2.7745
X0.9318 Y2.7705
X0.9276 Y2.7662
X0.9236 Y2.7617
X0.92 Y2.7569
X0.9167 Y2.7519
X0.9137 Y2.7467
X0.911 Y2.7413
X0.9086 Y2.7358
X0.9066 Y2.7302
X0.9049 Y2.7244
X0.9036 Y2.7186
X0.9026 Y2.7126
X0.902 Y2.7067
X0.9018 Y2.7007
X0.9019 Y2.6947
X0.9025 Y2.6887
X0.9033 Y2.6828
X0.9046 Y2.6769
X0.9062 Y2.6711
X0.9081 Y2.6654
X0.9104 Y2.6599
X0.913 Y2.6545
X0.916 Y2.6492
X0.9192 Y2.6442
X0.9228 Y2.6394
X0.9266 Y2.6348
X0.9307 Y2.6304
X0.9351 Y2.6263
X0.9397 Y2.6225
X0.9446 Y2.6189
X0.9496 Y2.6157
X0.9549 Y2.6128
X0.9603 Y2.6102
X0.9658 Y2.6079
X0.9715 Y2.606
X0.9773 Y2.6045
X0.9832 Y2.6032
X0.9891 Y2.6024
X0.9951 Y2.6019
X1.0011 Y2.6018
X1.0071 Y2.602
X1.0131 Y2.6027
X1.019 Y2.6037
X1.0248 Y2.605
X1.0306 Y2.6067
X1.0362 Y2.6087
X1.0417 Y2.6111
X1.0471 Y2.6138
X1.0523 Y2.6169
X1.0572 Y2.6202
X1.062 Y2.6239
X1.0666 Y2.6278
X1.0709 Y2.6319
X1.0749 Y2.6364
X1.0787 Y2.641
X1.0822 Y2.6459
X1.0855 Y2.6509
X1.0884 Y2.6561
X1.0911 Y2.6615
X1.0935 Y2.667
X1.0955 Y2.6727
X1.0972 Y2.6784
X1.0987 Y2.6843
X1.0997 Y2.6902
X1.1005 Y2.6961
X1.1008 Y2.7021
X1.1009 Y2.7081
X1.1005 Y2.7141
X1.0998 Y2.7201
X1.0988 Y2.726
X1.0974 Y2.7318
X1.0957 Y2.7375
X1.0936 Y2.7432
X1.0912 Y2.7487
X1.0885 Y2.754
X1.0855 Y2.7592
X1.0821 Y2.7642
X1.0784 Y2.7689
X1.0745 Y2.7735
X1.0703 Y2.7777
X1.0659 Y2.7818
X1.0612 Y2.7855
X1.0563 Y2.789
X1.0512 Y2.7922
X1.0459 Y2.795
X1.0405 Y2.7976
X1.0349 Y2.7998
X1.0293 Y2.8017
X1.0235 Y2.8033
X1.0176 Y2.8046
X1.0117 Y2.8054
X1.0057 Y2.806
X0.9997 Y2.8062
X0.9937 Y2.8061
X0.9877 Y2.8056
X0.9818 Y2.8047
X0.9759 Y2.8036
X0.9701 Y2.8021
X0.9644 Y2.8003
X0.9587 Y2.7981
X0.9533 Y2.7956
X0.948 Y2.7929
X0.9428 Y2.7898
X0.9378 Y2.7865
X0.933 Y2.7828
X0.9285 Y2.7789
X0.9241 Y2.7748
X0.92 Y2.7704
X0.9162 Y2.7658
X0.9126 Y2.761
X0.9093 Y2.756
X0.9063 Y2.7508
X0.9036 Y2.7454
X0.9012 Y2.7399
X0.8991 Y2.7343
X0.8973 Y2.7286
X0.8959 Y2.7228
X0.8948 Y2.7169
X0.894 Y2.7109
X0.8935 Y2.7049
X0.8934 Y2.6989
X0.8936 Y2.6929
X0.8942 Y2.687
X0.8951 Y2.681
X0.8963 Y2.6752
X0.8979 Y2.6694
X0.8998 Y2.6637
X0.902 Y2.6581
X0.9045 Y2.6526
X0.9073 Y2.6473
X0.9104 Y2.6422
X0.9138 Y2.6373
X0.9175 Y2.6325
X0.9214 Y2.628
X0.9256 Y2.6237
X0.93 Y2.6196
X0.9346 Y2.6158
X0.9395 Y2.6122
X0.9445 Y2.609
X0.9497 Y2.606
X0.9551 Y2.6033
X0.9606 Y2.6009
X0.9662 Y2.5989
X0.972 Y2.5971
X0.9778 Y2.5957
X0.9837 Y2.5946
X0.9896 Y2.5939
X0.9956 Y2.5935
X1.0016 Y2.5934
X1.0076 Y2.5936
X1.0136 Y2.5942
X1.0195 Y2.5952
X1.0254 Y2.5965
X1.0312 Y2.598
X1.0369 Y2.6
X1.0424 Y2.6022
X1.0479 Y2.6047
X1.0531 Y2.6076
X1.0583 Y2.6107
X1.0632 Y2.6141
X1.0679 Y2.6178
X1.0725 Y2.6217
X1.0768 Y2.6259
X1.0809 Y2.6303
X1.0847 Y2.6349
X1.0883 Y2.6397
X1.0917 Y2.6447
X1.0948 Y2.6498
X1.0976 Y2.6551
X1.1001 Y2.6606
X1.1023 Y2.6661
X1.1043 Y2.6718
X1.1059 Y2.6776
X1.1072 Y2.6834
X1.1083 Y2.6893
X1.109 Y2.6953
X1.1094 Y2.7013
Y2.7073
X1.1091 Y2.7133
X1.1086 Y2.7192
X1.1076 Y2.7252
X1.1064 Y2.731
X1.1048 Y2.7368
X1.1029 Y2.7425
X1.1008 Y2.7481
X1.0983 Y2.7536
X1.0955 Y2.7589
X1.0924 Y2.764
X1.089 Y2.769
X1.0854 Y2.7738
X1.0815 Y2.7783
X1.0774 Y2.7827
X1.073 Y2.7868
X1.0684 Y2.7907
X1.0636 Y2.7943
X1.0586 Y2.7976
X1.0534 Y2.8007
X1.0481 Y2.8034
X1.0427 Y2.8059
X1.0371 Y2.8081
X1.0314 Y2.81
X1.0256 Y2.8116
X1.0197 Y2.8128
X1.0138 Y2.8138
X1.0078 Y2.8144
X1.0018 Y2.8147
X0.9958
X0.9898 Y2.8144
X0.9839 Y2.8137
X0.978 Y2.8127
X0.9721 Y2.8115
X0.9663 Y2.8099
X0.9606 Y2.808
X0.955 Y2.8058
X0.9496 Y2.8034
X0.9442 Y2.8006
X0.939 Y2.7976
X0.934 Y2.7943
X0.9292 Y2.7907
X0.9246 Y2.7869
X0.9201 Y2.7829
X0.9159 Y2.7786
X0.9119 Y2.7741
X0.9082 Y2.7694
X0.9047 Y2.7646
X0.9014 Y2.7595
X0.8985 Y2.7543
X0.8958 Y2.7489
X0.8933 Y2.7435
X0.8912 Y2.7378
X0.8894 Y2.7321
X0.8879 Y2.7263
X0.8866 Y2.7205
X0.8857 Y2.7145
X0.8851 Y2.7086
X0.8848 Y2.7026
X0.8849 Y2.6966
X0.8852 Y2.6906
X0.8858 Y2.6846
X0.8868 Y2.6787
X0.8881 Y2.6728
X0.8896 Y2.667
X0.8915 Y2.6613
X0.8936 Y2.6557
X0.8961 Y2.6502
X0.8988 Y2.6449
X0.9018 Y2.6397
X0.9051 Y2.6347
X0.9086 Y2.6298
X0.9124 Y2.6252
X0.9164 Y2.6207
X0.9207 Y2.6165
X0.9251 Y2.6124
X0.9298 Y2.6087
X0.9346 Y2.6051
X0.9396 Y2.6018
X0.9448 Y2.5988
X0.9502 Y2.5961
X0.9557 Y2.5937
X0.9613 Y2.5915
X0.967 Y2.5896
X0.9727 Y2.5881
X0.9786 Y2.5868
X0.9845 Y2.5858
X0.9905 Y2.5852
X0.9965 Y2.5848
X1.0025
X1.0085 Y2.5851
X1.0145 Y2.5857
X1.0204 Y2.5866
X1.0263 Y2.5878
X1.0321 Y2.5893
X1.0378 Y2.5912
X1.0434 Y2.5933
X1.0489 Y2.5957
X1.0543 Y2.5984
X1.0595 Y2.6013
X1.0645 Y2.6045
X1.0694 Y2.608
X1.0742 Y2.6117
X1.0787 Y2.6157
X1.083 Y2.6198
X1.0871 Y2.6242
X1.091 Y2.6288
X1.0947 Y2.6335
X1.0981 Y2.6384
X1.1012 Y2.6435
X1.1042 Y2.6488
X1.1068 Y2.6542
X1.1092 Y2.6597
X1.1113 Y2.6653
X1.1131 Y2.671
X1.1147 Y2.6768
X1.116 Y2.6827
X1.117 Y2.6886
X1.1176 Y2.6945
X1.118 Y2.7005
X1.1181 Y2.7065
X1.1179 Y2.7125
X1.1174 Y2.7185
X1.1166 Y2.7244
X1.1154 Y2.7303
X1.114 Y2.7362
X1.1123 Y2.7419
X1.1103 Y2.7476
X1.108 Y2.7531
X1.1054 Y2.7585
X1.1026 Y2.7638
X1.0995 Y2.769
X1.0961 Y2.7739
X1.0925 Y2.7787
X1.0887 Y2.7833
X1.0846 Y2.7877
X1.0803 Y2.7919
X1.0757 Y2.7958
X1.071 Y2.7995
X1.0661 Y2.803
X1.0611 Y2.8062
X1.0559 Y2.8092
X1.0505 Y2.8119
X1.045 Y2.8143
X1.0394 Y2.8165
X1.0337 Y2.8184
X1.0279 Y2.8199
X1.0221 Y2.8212
X1.0162 Y2.8222
X1.0102 Y2.8229
X1.0042 Y2.8233
X0.9982 Y2.8235
X0.9922 Y2.8233
X0.9862 Y2.8228
X0.9803 Y2.822
X0.9744 Y2.8209
X0.9685 Y2.8196
X0.9628 Y2.8179
X0.9571 Y2.816
X0.9515 Y2.8138
X0.946 Y2.8114
X0.9407 Y2.8086
X0.9355 Y2.8057
X0.9304 Y2.8024
X0.9255 Y2.7989
X0.9208 Y2.7952
X0.9163 Y2.7913
X0.912 Y2.7871
X0.9078 Y2.7828
X0.9039 Y2.7782
X0.9003 Y2.7735
X0.8968 Y2.7686
X0.8936 Y2.7635
X0.8907 Y2.7583
X0.888 Y2.7529
X0.8855 Y2.7474
X0.8833 Y2.7418
X0.8814 Y2.7361
X0.8798 Y2.7304
X0.8785 Y2.7245
X0.8775 Y2.7186
X0.8767 Y2.7127
X0.8762 Y2.7067
X0.8761 Y2.7007
X0.8762 Y2.6947
X0.8766 Y2.6887
X0.8773 Y2.6827
X0.8782 Y2.6768
X0.8795 Y2.6709
X0.881 Y2.6651
X0.8829 Y2.6594
X0.8849 Y2.6538
X0.8873 Y2.6483
X0.8899 Y2.6429
X0.8928 Y2.6376
X0.896 Y2.6325
X0.8994 Y2.6276
X0.903 Y2.6228
X0.9069 Y2.6182
X0.9109 Y2.6138
X0.9152 Y2.6096
X0.9197 Y2.6056
X0.9243 Y2.6018
X0.9292 Y2.5982
X0.9342 Y2.5949
X0.9393 Y2.5919
X0.9446 Y2.5891
X0.9501 Y2.5865
X0.9556 Y2.5842
X0.9613 Y2.5822
X0.967 Y2.5805
X0.9728 Y2.579
X0.9787 Y2.5779
X0.9846 Y2.577
X0.9906 Y2.5764
X0.9966 Y2.5761
X1.0026
X1.0086 Y2.5763
X1.0146 Y2.5769
X1.0205 Y2.5777
X1.0264 Y2.5789
X1.0322 Y2.5803
X1.038 Y2.582
X1.0437 Y2.584
X1.0492 Y2.5862
X1.0547 Y2.5887
X1.06 Y2.5915
X1.0652 Y2.5945
X1.0702 Y2.5977
X1.0751 Y2.6012
X1.0798 Y2.6049
X1.0843 Y2.6089
X1.0887 Y2.613
X1.0929 Y2.6173
X1.0968 Y2.6219
X1.1005 Y2.6266
X1.104 Y2.6314
X1.1073 Y2.6364
X1.1104 Y2.6416
X1.1132 Y2.6469
X1.1157 Y2.6523
X1.118 Y2.6579
X1.1201 Y2.6635
X1.1219 Y2.6692
X1.1234 Y2.675
X1.1247 Y2.6809
X1.1257 Y2.6868
X1.1264 Y2.6928
X1.1268 Y2.6988
X1.127 Y2.7048
X1.1269 Y2.7108
X1.1265 Y2.7168
X1.1258 Y2.7227
X1.1248 Y2.7286
X1.1236 Y2.7345
X1.122 Y2.7403
X1.1202 Y2.746
X1.1182 Y2.7517
X1.1158 Y2.7572
X1.1133 Y2.7626
X1.1104 Y2.7679
X1.1073 Y2.773
X1.104 Y2.778
X1.1005 Y2.7829
X1.0967 Y2.7875
X1.0927 Y2.792
X1.0884 Y2.7963
X1.084 Y2.8003
X1.0794 Y2.8042
X1.0747 Y2.8078
X1.0697 Y2.8112
X1.0646 Y2.8144
X1.0594 Y2.8173
X1.054 Y2.82
X1.0485 Y2.8224
X1.0429 Y2.8246
X1.0373 Y2.8265
X1.0315 Y2.8282
X1.0257 Y2.8296
X1.0198 Y2.8307
X1.0138 Y2.8315
X1.0078 Y2.832
X1.0018 Y2.8323
X0.9958
X0.9898 Y2.832
X0.9839 Y2.8314
X0.9779 Y2.8306
X0.972 Y2.8295
X0.9662 Y2.8281
X0.9604 Y2.8265
X0.9547 Y2.8246
X0.9491 Y2.8225
X0.9436 Y2.8201
X0.9382 Y2.8174
X0.933 Y2.8145
X0.9279 Y2.8114
X0.9229 Y2.808
X0.9181 Y2.8045
X0.9134 Y2.8007
X0.909 Y2.7966
X0.9047 Y2.7924
X0.9006 Y2.788
X0.8967 Y2.7835
X0.8931 Y2.7787
X0.8896 Y2.7738
X0.8864 Y2.7688
X0.8834 Y2.7636
X0.8806 Y2.7582
X0.8781 Y2.7528
X0.8758 Y2.7472
X0.8738 Y2.7416
X0.8721 Y2.7358
X0.8706 Y2.73
X0.8694 Y2.7242
X0.8684 Y2.7182
X0.8677 Y2.7123
X0.8673 Y2.7063
X0.8671 Y2.7003
X0.8673 Y2.6943
X0.8677 Y2.6883
X0.8683 Y2.6823
X0.8692 Y2.6764
X0.8704 Y2.6705
X0.8719 Y2.6647
X0.8736 Y2.659
X0.8756 Y2.6533
X0.8778 Y2.6477
X0.8803 Y2.6423
X0.883 Y2.6369
X0.886 Y2.6317
X0.8892 Y2.6266
X0.8926 Y2.6217
X0.8963 Y2.6169
X0.9001 Y2.6123
X0.9042 Y2.6079
X0.9084 Y2.6037
X0.9129 Y2.5996
X0.9175 Y2.5958
X0.9223 Y2.5922
X0.9272 Y2.5888
X0.9323 Y2.5856
X0.9375 Y2.5827
X0.9429 Y2.58
X0.9484 Y2.5775
X0.9539 Y2.5753
X0.9596 Y2.5734
X0.9654 Y2.5717
X0.9712 Y2.5703
X0.9771 Y2.5691
X0.983 Y2.5682
X0.989 Y2.5676
X0.995 Y2.5672
X1.001 Y2.5671
X1.007 Y2.5673
X1.013 Y2.5677
X1.0189 Y2.5684
X1.0248 Y2.5694
X1.0307 Y2.5707
X1.0365 Y2.5722
X1.0422 Y2.574
X1.0479 Y2.576
X1.0534 Y2.5783
X1.0589 Y2.5808
X1.0642 Y2.5836
X1.0694 Y2.5866
X1.0745 Y2.5898
X1.0794 Y2.5932
X1.0841 Y2.5969
X1.0887 Y2.6007
X1.0932 Y2.6048
X1.0974 Y2.609
X1.1015 Y2.6135
X1.1053 Y2.6181
X1.109 Y2.6228
X1.1124 Y2.6277
X1.1156 Y2.6328
X1.1187 Y2.638
X1.1214 Y2.6433
X1.124 Y2.6487
X1.1263 Y2.6543
X1.1284 Y2.6599
X1.1302 Y2.6656
X1.1318 Y2.6714
X1.1332 Y2.6772
X1.1342 Y2.6831
X1.1351 Y2.6891
X1.1356 Y2.695
X1.1359 Y2.701
X1.136 Y2.707
X1.1358 Y2.713
X1.1353 Y2.719
X1.1345 Y2.725
X1.1335 Y2.7309
X1.1322 Y2.7367
X1.1307 Y2.7426
X1.1289 Y2.7483
X1.1269 Y2.7539
X1.1246 Y2.7595
X1.1221 Y2.7649
X1.1194 Y2.7703
X1.1164 Y2.7755
X1.1132 Y2.7805
X1.1097 Y2.7854
X1.1061 Y2.7902
X1.1022 Y2.7948
X1.0982 Y2.7992
X1.0939 Y2.8034
X1.0895 Y2.8075
X1.0849 Y2.8113
X1.0801 Y2.815
X1.0752 Y2.8184
X1.0701 Y2.8216
X1.0649 Y2.8246
X1.0595 Y2.8273
X1.0541 Y2.8299
X1.0486 Y2.8321
X1.0429 Y2.8342
X1.0372 Y2.836
X1.0314 Y2.8375
X1.0255 Y2.8388
X1.0196 Y2.8398
X1.0137 Y2.8405
X1.0077 Y2.841
X1.0017 Y2.8413
X0.9957
X0.9897 Y2.841
X0.9837 Y2.8405
X0.9778 Y2.8397
X0.9718 Y2.8387
X0.966 Y2.8374
X0.9602 Y2.8359
X0.9545 Y2.8341
X0.9488 Y2.8321
X0.9432 Y2.8298
X0.9378 Y2.8273
X0.9324 Y2.8246
X0.9272 Y2.8216
X0.9221 Y2.8185
X0.9172 Y2.8151
X0.9124 Y2.8115
X0.9077 Y2.8077
X0.9033 Y2.8037
X0.899 Y2.7995
X0.8948 Y2.7951
X0.8909 Y2.7906
X0.8871 Y2.7859
X0.8836 Y2.7811
X0.8803 Y2.7761
X0.8771 Y2.771
X0.8742 Y2.7657
X0.8716 Y2.7604
X0.8691 Y2.7549
X0.8669 Y2.7493
X0.865 Y2.7436
X0.8632 Y2.7379
X0.8618 Y2.7321
X0.8605 Y2.7262
X0.8595 Y2.7203
X0.8588 Y2.7143
X0.8583 Y2.7083
X0.8581 Y2.7023
Y2.6963
X0.8584 Y2.6903
X0.8589 Y2.6844
X0.8597 Y2.6784
X0.8607 Y2.6725
X0.862 Y2.6666
X0.8636 Y2.6608
X0.8653 Y2.6551
X0.8674 Y2.6495
X0.8696 Y2.6439
X0.8721 Y2.6384
X0.8748 Y2.6331
X0.8778 Y2.6279
X0.8809 Y2.6228
X0.8843 Y2.6178
X0.8878 Y2.613
X0.8916 Y2.6083
X0.8956 Y2.6038
X0.8997 Y2.5995
X0.9041 Y2.5953
X0.9086 Y2.5914
X0.9133 Y2.5876
X0.9181 Y2.584
X0.9231 Y2.5807
X0.9282 Y2.5775
X0.9334 Y2.5746
X0.9388 Y2.5719
X0.9442 Y2.5695
X0.9498 Y2.5672
X0.9555 Y2.5652
X0.9612 Y2.5634
X0.967 Y2.5619
X0.9729 Y2.5607
X0.9788 Y2.5596
X0.9847 Y2.5589
X0.9907 Y2.5583
X0.9967 Y2.5581
X1.0027
X1.0087 Y2.5583
X1.0147 Y2.5588
X1.0206 Y2.5595
X1.0265 Y2.5605
X1.0324 Y2.5618
X1.0382 Y2.5633
X1.044 Y2.565
X1.0496 Y2.567
X1.0552 Y2.5692
X1.0607 Y2.5716
X1.0661 Y2.5743
X1.0713 Y2.5772
X1.0765 Y2.5802
X1.0815 Y2.5836
X1.0864 Y2.5871
X1.0911 Y2.5908
X1.0956 Y2.5947
X1.1 Y2.5988
X1.1043 Y2.603
X1.1083 Y2.6074
X1.1122 Y2.612
X1.1158 Y2.6168
X1.1193 Y2.6217
X1.1226 Y2.6267
X1.1257 Y2.6318
X1.1286 Y2.6371
X1.1312 Y2.6425
X1.1336 Y2.648
X1.1359 Y2.6535
X1.1378 Y2.6592
X1.1396 Y2.6649
X1.1411 Y2.6707
X1.1424 Y2.6766
X1.1434 Y2.6825
X1.1442 Y2.6885
X1.1447 Y2.6944
X1.1451 Y2.7004
Y2.7064
X1.1449 Y2.7124
X1.1445 Y2.7184
X1.1438 Y2.7244
X1.1429 Y2.7303
X1.1417 Y2.7362
X1.1403 Y2.742
X1.1387 Y2.7478
X1.1368 Y2.7535
X1.1347 Y2.7591
X1.1323 Y2.7646
X1.1298 Y2.7701
X1.127 Y2.7754
X1.1239 Y2.7805
X1.1207 Y2.7856
X1.1173 Y2.7905
X1.1136 Y2.7953
X1.1098 Y2.7999
X1.1058 Y2.8044
X1.1016 Y2.8087
X1.0972 Y2.8128
X1.0927 Y2.8167
X1.088 Y2.8204
X1.0832 Y2.824
X1.0782 Y2.8273
X1.0731 Y2.8304
X1.0678 Y2.8334
X1.0625 Y2.8361
X1.057 Y2.8385
X1.0514 Y2.8408
X1.0458 Y2.8428
X1.0401 Y2.8446
X1.0343 Y2.8462
X1.0284 Y2.8475
X1.0225 Y2.8486
X1.0166 Y2.8494
X1.0106 Y2.85
X1.0046 Y2.8504
X0.9986 Y2.8505
X0.9926 Y2.8504
X0.9866 Y2.85
X0.9807 Y2.8494
X0.9747 Y2.8485
X0.9688 Y2.8474
X0.963 Y2.8461
X0.9572 Y2.8445
X0.9514 Y2.8428
X0.9458 Y2.8407
X0.9402 Y2.8385
X0.9348 Y2.836
X0.9294 Y2.8333
X0.9241 Y2.8304
X0.919 Y2.8273
X0.914 Y2.824
X0.9091 Y2.8205
X0.9044 Y2.8168
X0.8998 Y2.813
X0.8954 Y2.8089
X0.8911 Y2.8047
X0.8871 Y2.8003
X0.8832 Y2.7957
X0.8795 Y2.791
X0.8759 Y2.7861
X0.8726 Y2.7811
X0.8695 Y2.776
X0.8665 Y2.7708
X0.8638 Y2.7654
X0.8613 Y2.76
X0.8591 Y2.7544
X0.857 Y2.7488
X0.8552 Y2.7431
X0.8536 Y2.7373
X0.8522 Y2.7315
X0.8511 Y2.7256
X0.8502 Y2.7196
X0.8495 Y2.7137
X0.8491 Y2.7077
X0.8489 Y2.7017
Y2.6957
X0.8492 Y2.6897
X0.8498 Y2.6837
X0.8505 Y2.6778
X0.8515 Y2.6718
X0.8527 Y2.666
X0.8542 Y2.6602
X0.8559 Y2.6544
X0.8578 Y2.6487
X0.86 Y2.6431
X0.8623 Y2.6376
X0.8649 Y2.6322
X0.8677 Y2.6269
X0.8707 Y2.6217
X0.8739 Y2.6166
X0.8773 Y2.6117
X0.8809 Y2.6069
X0.8847 Y2.6022
X0.8887 Y2.5977
X0.8928 Y2.5934
X0.8972 Y2.5892
X0.9016 Y2.5852
X0.9063 Y2.5814
X0.911 Y2.5778
X0.916 Y2.5743
X0.921 Y2.5711
X0.9262 Y2.5681
X0.9315 Y2.5653
X0.9369 Y2.5626
X0.9424 Y2.5602
X0.948 Y2.5581
X0.9537 Y2.5561
X0.9594 Y2.5544
X0.9652 Y2.5529
X0.9711 Y2.5516
X0.977 Y2.5506
X0.9829 Y2.5498
X0.9889 Y2.5493
X0.9949 Y2.5489
X1.0009 Y2.5488
X1.0069 Y2.549
X1.0129 Y2.5494
X1.0189 Y2.55
X1.0248 Y2.5509
X1.0307 Y2.552
X1.0365 Y2.5533
X1.0423 Y2.5549
X1.0481 Y2.5567
X1.0537 Y2.5587
X1.0593 Y2.5609
X1.0648 Y2.5633
X1.0701 Y2.566
X1.0754 Y2.5689
X1.0806 Y2.5719
X1.0856 Y2.5752
X1.0905 Y2.5787
X1.0953 Y2.5823
X1.0999 Y2.5861
X1.1044 Y2.5901
X1.1087 Y2.5943
X1.1128 Y2.5986
X1.1168 Y2.6031
X1.1206 Y2.6078
X1.1242 Y2.6125
X1.1277 Y2.6175
X1.1309 Y2.6225
X1.134 Y2.6277
X1.1368 Y2.6329
X1.1395 Y2.6383
X1.1419 Y2.6438
X1.1442 Y2.6494
X1.1462 Y2.655
X1.148 Y2.6607
X1.1496 Y2.6665
X1.151 Y2.6724
X1.1521 Y2.6783
X1.153 Y2.6842
X1.1537 Y2.6901
X1.1541 Y2.6961
X1.1544 Y2.7021
Y2.7081
X1.1541 Y2.7141
X1.1536 Y2.7201
X1.1529 Y2.7261
X1.152 Y2.732
X1.1508 Y2.7379
X1.1494 Y2.7437
X1.1478 Y2.7495
X1.146 Y2.7552
X1.1439 Y2.7608
X1.1417 Y2.7664
X1.1392 Y2.7718
X1.1365 Y2.7772
X1.1336 Y2.7825
X1.1305 Y2.7876
X1.1271 Y2.7926
X1.1236 Y2.7975
X1.12 Y2.8022
X1.1161 Y2.8068
X1.112 Y2.8112
X1.1078 Y2.8155
X1.1035 Y2.8196
X1.0989 Y2.8235
X1.0942 Y2.8273
X1.0894 Y2.8309
X1.0845 Y2.8342
X1.0794 Y2.8374
X1.0742 Y2.8404
X1.0689 Y2.8432
X1.0635 Y2.8458
X1.058 Y2.8482
X1.0524 Y2.8503
X1.0467 Y2.8523
X1.0409 Y2.854
X1.0351 Y2.8555
X1.0293 Y2.8568
X1.0234 Y2.8578
X1.0174 Y2.8586
X1.0114 Y2.8592
X1.0054 Y2.8596
X0.9995 Y2.8597
X0.9935
X0.9875 Y2.8593
X0.9815 Y2.8588
X0.9755 Y2.858
X0.9696 Y2.8571
X0.9637 Y2.8558
X0.9579 Y2.8544
X0.9521 Y2.8527
X0.9464 Y2.8509
X0.9408 Y2.8488
X0.9353 Y2.8465
X0.9298 Y2.844
X0.9245 Y2.8413
X0.9192 Y2.8383
X0.9141 Y2.8352
X0.9091 Y2.8319
X0.9042 Y2.8285
X0.8995 Y2.8248
X0.8948 Y2.821
X0.8904 Y2.8169
X0.8861 Y2.8128
X0.8819 Y2.8084
X0.8779 Y2.804
X0.8741 Y2.7993
X0.8705 Y2.7945
X0.867 Y2.7896
X0.8638 Y2.7846
X0.8607 Y2.7795
X0.8578 Y2.7742
X0.8551 Y2.7688
X0.8527 Y2.7634
X0.8504 Y2.7578
X0.8483 Y2.7522
X0.8465 Y2.7465
X0.8448 Y2.7407
X0.8434 Y2.7349
X0.8422 Y2.729
X0.8412 Y2.7231
X0.8405 Y2.7171
X0.84 Y2.7111
X0.8396 Y2.7051
Y2.6991
X0.8397 Y2.6931
X0.8401 Y2.6872
X0.8407 Y2.6812
X0.8415 Y2.6752
X0.8425 Y2.6693
X0.8438 Y2.6635
X0.8452 Y2.6576
X0.8469 Y2.6519
X0.8488 Y2.6462
X0.851 Y2.6406
X0.8533 Y2.6351
X0.8558 Y2.6296
X0.8585 Y2.6243
X0.8615 Y2.619
X0.8646 Y2.6139
X0.8679 Y2.6089
X0.8714 Y2.604
X0.8751 Y2.5993
X0.8789 Y2.5947
X0.8829 Y2.5902
X0.8871 Y2.5859
X0.8915 Y2.5818
X0.896 Y2.5778
X0.9006 Y2.574
X0.9054 Y2.5704
X0.9103 Y2.5669
X0.9153 Y2.5637
X0.9205 Y2.5606
X0.9258 Y2.5577
X0.9311 Y2.5551
X0.9366 Y2.5526
X0.9421 Y2.5503
X0.9478 Y2.5483
X0.9535 Y2.5464
X0.9593 Y2.5448
X0.9651 Y2.5434
X0.971 Y2.5422
X0.9769 Y2.5412
X0.9828 Y2.5404
X0.9888 Y2.5399
X0.9948 Y2.5396
X1.0008 Y2.5395
X1.0068 Y2.5397
X1.0128 Y2.54
X1.0188 Y2.5406
X1.0247 Y2.5414
X1.0306 Y2.5425
X1.0365 Y2.5437
X1.0423 Y2.5452
X1.0481 Y2.5469
X1.0538 Y2.5487
X1.0594 Y2.5508
X1.0649 Y2.5531
X1.0704 Y2.5557
X1.0757 Y2.5584
X1.081 Y2.5613
X1.0861 Y2.5644
X1.0911 Y2.5676
X1.096 Y2.5711
X1.1008 Y2.5747
X1.1055 Y2.5786
X1.11 Y2.5825
X1.1143 Y2.5867
X1.1185 Y2.591
X1.1225 Y2.5954
X1.1264 Y2.6
X1.1301 Y2.6047
X1.1336 Y2.6095
X1.137 Y2.6145
X1.1402 Y2.6196
X1.1432 Y2.6248
X1.146 Y2.6301
X1.1486 Y2.6355
X1.151 Y2.641
X1.1532 Y2.6466
X1.1552 Y2.6523
X1.157 Y2.658
X1.1586 Y2.6638
X1.16 Y2.6696
X1.1611 Y2.6755
X1.1621 Y2.6814
X1.1628 Y2.6874
X1.1634 Y2.6933
X1.1637 Y2.6993
X1.1638 Y2.7053
X1.1636 Y2.7113
X1.1633 Y2.7173
X1.1627 Y2.7233
X1.1619 Y2.7292
X1.1609 Y2.7352
X1.1597 Y2.741
X1.1583 Y2.7469
X1.1567 Y2.7526
X1.1548 Y2.7583
X1.1528 Y2.764
X1.1505 Y2.7695
X1.148 Y2.775
X1.1454 Y2.7804
X1.1425 Y2.7857
X1.1395 Y2.7908
X1.1362 Y2.7959
X1.1328 Y2.8008
X1.1292 Y2.8056
X1.1254 Y2.8103
X1.1215 Y2.8148
X1.1174 Y2.8192
X1.1131 Y2.8234
X1.1087 Y2.8275
X1.1042 Y2.8314
X1.0995 Y2.8351
X1.0946 Y2.8387
X1.0897 Y2.842
X1.0846 Y2.8452
X1.0794 Y2.8482
X1.0741 Y2.8511
X1.0687 Y2.8537
X1.0632 Y2.8561
X1.0577 Y2.8584
X1.052 Y2.8604
X1.0463 Y2.8622
X1.0405 Y2.8638
X1.0347 Y2.8652
X1.0288 Y2.8664
X1.0229 Y2.8674
X1.0169 Y2.8682
X1.011 Y2.8687
X1.005 Y2.869
X0.999 Y2.8691
X0.993 Y2.869
X0.987 Y2.8687
X0.981 Y2.8682
X0.975 Y2.8675
X0.9691 Y2.8665
X0.9632 Y2.8653
X0.9574 Y2.864
X0.9516 Y2.8624
X0.9459 Y2.8606
X0.9402 Y2.8586
X0.9346 Y2.8564
X0.9291 Y2.854
X0.9237 Y2.8515
X0.9184 Y2.8487
X0.9132 Y2.8457
X0.9081 Y2.8426
X0.9031 Y2.8392
X0.8982 Y2.8357
X0.8935 Y2.8321
X0.8888 Y2.8282
X0.8844 Y2.8242
X0.88 Y2.8201
X0.8759 Y2.8158
X0.8718 Y2.8113
X0.868 Y2.8067
X0.8643 Y2.802
X0.8608 Y2.7971
X0.8574 Y2.7922
X0.8542 Y2.7871
X0.8512 Y2.7819
X0.8484 Y2.7766
X0.8458 Y2.7712
X0.8434 Y2.7657
X0.8412 Y2.7601
X0.8391 Y2.7545
X0.8373 Y2.7487
X0.8357 Y2.743
X0.8343 Y2.7371
X0.8331 Y2.7313
X0.8321 Y2.7253
X0.8313 Y2.7194
X0.8307 Y2.7134
X0.8303 Y2.7074
X0.8301 Y2.7014
X0.8302 Y2.6954
X0.8305 Y2.6894
X0.8309 Y2.6835
X0.8316 Y2.6775
X0.8325 Y2.6716
X0.8336 Y2.6657
X0.8349 Y2.6598
X0.8365 Y2.654
X0.8382 Y2.6483
X0.8401 Y2.6426
X0.8422 Y2.637
X0.8446 Y2.6314
X0.8471 Y2.626
X0.8498 Y2.6206
X0.8527 Y2.6154
X0.8558 Y2.6102
X0.859 Y2.6052
X0.8624 Y2.6003
X0.8661 Y2.5955
X0.8698 Y2.5908
X0.8738 Y2.5863
X0.8779 Y2.5819
X0.8821 Y2.5777
X0.8865 Y2.5736
X0.891 Y2.5696
X0.8957 Y2.5659
X0.9005 Y2.5623
X0.9054 Y2.5589
X0.9105 Y2.5556
X0.9156 Y2.5525
X0.9209 Y2.5496
X0.9262 Y2.5469
X0.9317 Y2.5444
X0.9372 Y2.5421
X0.9428 Y2.54
X0.9485 Y2.5381
X0.9543 Y2.5364
X0.9601 Y2.5348
X0.9659 Y2.5335
X0.9718 Y2.5324
X0.9778 Y2.5315
X0.9837 Y2.5309
X0.9897 Y2.5304
X0.9957 Y2.5301
X1.0017
X1.0077 Y2.5303
X1.0137 Y2.5306
X1.0197 Y2.5312
X1.0256 Y2.532
X1.0315 Y2.533
X1.0374 Y2.5342
X1.0432 Y2.5357
X1.049 Y2.5373
X1.0547 Y2.5391
X1.0604 Y2.5411
X1.066 Y2.5433
X1.0715 Y2.5457
X1.0769 Y2.5483
X1.0822 Y2.5511
X1.0874 Y2.5541
X1.0925 Y2.5572
X1.0975 Y2.5605
X1.1024 Y2.564
X1.1071 Y2.5677
X1.1118 Y2.5715
X1.1163 Y2.5755
X1.1206 Y2.5796
X1.1248 Y2.5839
X1.1289 Y2.5883
X1.1328 Y2.5928
X1.1366 Y2.5975
X1.1401 Y2.6023
X1.1436 Y2.6072
X1.1468 Y2.6123
X1.1499 Y2.6174
X1.1528 Y2.6227
X1.1555 Y2.628
X1.1581 Y2.6335
X1.1604 Y2.639
X1.1626 Y2.6446
X1.1645 Y2.6503
X1.1663 Y2.656
X1.1679 Y2.6618
X1.1692 Y2.6676
X1.1704 Y2.6735
X1.1714 Y2.6794
X1.1722 Y2.6854
X1.1727 Y2.6914
X1.1731 Y2.6973
X1.1732 Y2.7033
Y2.7093
X1.1729 Y2.7153
X1.1725 Y2.7213
X1.1718 Y2.7273
X1.1709 Y2.7332
X1.1698 Y2.7391
X1.1685 Y2.745
X1.1671 Y2.7508
X1.1654 Y2.7565
X1.1635 Y2.7622
X1.1614 Y2.7679
X1.1591 Y2.7734
X1.1567 Y2.7789
X1.154 Y2.7843
X1.1512 Y2.7896
X1.1481 Y2.7947
X1.145 Y2.7998
X1.1416 Y2.8048
X1.138 Y2.8096
X1.1343 Y2.8143
X1.1305 Y2.8189
X1.1265 Y2.8234
X1.1223 Y2.8277
X1.118 Y2.8319
X1.1135 Y2.8359
X1.1089 Y2.8397
X1.1042 Y2.8434
X1.0993 Y2.847
X1.0943 Y2.8503
X1.0893 Y2.8535
X1.0841 Y2.8565
X1.0788 Y2.8593
X1.0734 Y2.862
X1.0679 Y2.8644
X1.0624 Y2.8667
X1.0567 Y2.8688
X1.051 Y2.8707
X1.0453 Y2.8724
X1.0395 Y2.8739
X1.0336 Y2.8751
X1.0277 Y2.8762
X1.0218 Y2.8771
X1.0158 Y2.8778
X1.0098 Y2.8783
X1.0038 Y2.8786
X0.9978 Y2.8787
X0.9918 Y2.8785
X0.9859 Y2.8782
X0.9799 Y2.8777
X0.9739 Y2.8769
X0.968 Y2.876
X0.9621 Y2.8748
X0.9563 Y2.8735
X0.9505 Y2.872
X0.9447 Y2.8702
X0.939 Y2.8683
X0.9334 Y2.8662
X0.9279 Y2.8639
X0.9224 Y2.8614
X0.917 Y2.8587
X0.9118 Y2.8559
X0.9066 Y2.8529
X0.9015 Y2.8497
X0.8965 Y2.8463
X0.8917 Y2.8428
X0.887 Y2.8391
X0.8824 Y2.8352
X0.8779 Y2.8312
X0.8736 Y2.8271
X0.8694 Y2.8228
X0.8653 Y2.8183
X0.8614 Y2.8138
X0.8577 Y2.8091
X0.8541 Y2.8042
X0.8507 Y2.7993
X0.8475 Y2.7943
X0.8444 Y2.7891
X0.8415 Y2.7839
X0.8388 Y2.7785
X0.8362 Y2.7731
X0.8339 Y2.7676
X0.8317 Y2.762
X0.8297 Y2.7563
X0.8279 Y2.7506
X0.8263 Y2.7448
X0.8249 Y2.739
X0.8237 Y2.7331
X0.8227 Y2.7272
X0.8219 Y2.7212
X0.8213 Y2.7153
X0.8209 Y2.7093
X0.8206 Y2.7033
Y2.6973
X0.8208 Y2.6913
X0.8212 Y2.6853
X0.8218 Y2.6793
X0.8226 Y2.6734
X0.8236 Y2.6675
X0.8247 Y2.6616
X0.8261 Y2.6557
X0.8277 Y2.6499
X0.8295 Y2.6442
X0.8314 Y2.6385
X0.8336 Y2.6329
X0.8359 Y2.6274
X0.8384 Y2.622
X0.8411 Y2.6166
X0.844 Y2.6113
X0.8471 Y2.6062
X0.8503 Y2.6011
X0.8537 Y2.5962
X0.8572 Y2.5913
X0.8609 Y2.5866
X0.8648 Y2.582
X0.8688 Y2.5776
X0.873 Y2.5733
X0.8773 Y2.5691
X0.8817 Y2.565
X0.8863 Y2.5612
X0.891 Y2.5574
X0.8958 Y2.5539
X0.9008 Y2.5505
X0.9058 Y2.5472
X0.911 Y2.5442
X0.9163 Y2.5413
X0.9216 Y2.5386
X0.9271 Y2.5361
X0.9326 Y2.5337
X0.9382 Y2.5316
X0.9438 Y2.5296
X0.9496 Y2.5278
X0.9554 Y2.5262
X0.9612 Y2.5248
X0.9671 Y2.5236
X0.973 Y2.5226
X0.9789 Y2.5218
X0.9849 Y2.5212
X0.9909 Y2.5208
X0.9969 Y2.5206
X1.0029
X1.0089 Y2.5208
X1.0149 Y2.5212
X1.0208 Y2.5218
X1.0268 Y2.5225
X1.0327 Y2.5235
X1.0386 Y2.5247
X1.0444 Y2.5261
X1.0502 Y2.5277
X1.056 Y2.5294
X1.0616 Y2.5314
X1.0672 Y2.5335
X1.0728 Y2.5358
X1.0782 Y2.5383
X1.0836 Y2.541
X1.0889 Y2.5439
X1.0941 Y2.5469
X1.0991 Y2.5501
X1.1041 Y2.5534
X1.109 Y2.557
X1.1137 Y2.5606
X1.1183 Y2.5645
X1.1228 Y2.5685
X1.1272 Y2.5726
X1.1314 Y2.5768
X1.1355 Y2.5812
X1.1394 Y2.5858
X1.1432 Y2.5904
X1.1468 Y2.5952
X1.1503 Y2.6001
X1.1536 Y2.6051
X1.1568 Y2.6102
X1.1598 Y2.6154
X1.1626 Y2.6207
X1.1652 Y2.6261
X1.1677 Y2.6315
X1.17 Y2.6371
X1.1721 Y2.6427
X1.174 Y2.6484
X1.1758 Y2.6541
X1.1773 Y2.6599
X1.1787 Y2.6658
X1.1798 Y2.6717
X1.1808 Y2.6776
X1.1816 Y2.6835
X1.1822 Y2.6895
X1.1826 Y2.6955
X1.1828 Y2.7015
Y2.7075
X1.1826 Y2.7135
X1.1822 Y2.7195
X1.1817 Y2.7254
X1.1809 Y2.7314
X1.1799 Y2.7373
X1.1788 Y2.7432
X1.1774 Y2.749
X1.1759 Y2.7548
X1.1741 Y2.7606
X1.1722 Y2.7663
X1.1701 Y2.7719
X1.1678 Y2.7774
X1.1654 Y2.7829
X1.1627 Y2.7883
X1.1599 Y2.7936
X1.1569 Y2.7988
X1.1537 Y2.8039
X1.1504 Y2.8089
X1.1469 Y2.8138
X1.1433 Y2.8185
X1.1395 Y2.8232
X1.1355 Y2.8277
X1.1314 Y2.8321
X1.1272 Y2.8363
X1.1228 Y2.8404
X1.1183 Y2.8444
X1.1137 Y2.8482
X1.1089 Y2.8518
X1.104 Y2.8553
X1.099 Y2.8587
X1.094 Y2.8619
X1.0888 Y2.8649
X1.0835 Y2.8677
X1.0781 Y2.8704
X1.0726 Y2.8728
X1.0671 Y2.8751
X1.0615 Y2.8773
X1.0558 Y2.8792
X1.0501 Y2.881
X1.0443 Y2.8825
X1.0384 Y2.8839
X1.0326 Y2.8851
X1.0266 Y2.8861
X1.0207 Y2.8869
X1.0147 Y2.8876
X1.0087 Y2.888
X1.0027 Y2.8882
X0.9967 Y2.8883
X0.9908 Y2.8881
X0.9848 Y2.8877
X0.9788 Y2.8872
X0.9728 Y2.8865
X0.9669 Y2.8855
X0.961 Y2.8844
X0.9552 Y2.8831
X0.9493 Y2.8816
X0.9436 Y2.8799
X0.9379 Y2.8781
X0.9322 Y2.876
X0.9267 Y2.8738
X0.9212 Y2.8714
X0.9157 Y2.8689
X0.9104 Y2.8661
X0.9052 Y2.8632
X0.9 Y2.8601
X0.895 Y2.8569
X0.89 Y2.8535
X0.8852 Y2.8499
X0.8805 Y2.8462
X0.8759 Y2.8423
X0.8714 Y2.8383
X0.8671 Y2.8342
X0.8629 Y2.8299
X0.8588 Y2.8255
X0.8549 Y2.8209
X0.8511 Y2.8163
X0.8475 Y2.8115
X0.844 Y2.8066
X0.8407 Y2.8016
X0.8376 Y2.7965
X0.8346 Y2.7913
X0.8317 Y2.786
X0.8291 Y2.7806
X0.8266 Y2.7752
X0.8243 Y2.7696
X0.8222 Y2.764
X0.8202 Y2.7583
X0.8185 Y2.7526
X0.8169 Y2.7468
X0.8155 Y2.741
X0.8143 Y2.7351
X0.8133 Y2.7292
X0.8124 Y2.7232
X0.8118 Y2.7173
X0.8113 Y2.7113
X0.8111 Y2.7053
X0.811 Y2.6993
X0.8111 Y2.6933
X0.8114 Y2.6873
X0.8119 Y2.6813
X0.8126 Y2.6754
X0.8134 Y2.6694
X0.8145 Y2.6635
X0.8157 Y2.6577
X0.8172 Y2.6518
X0.8188 Y2.6461
X0.8206 Y2.6403
X0.8226 Y2.6347
X0.8248 Y2.6291
X0.8271 Y2.6235
X0.8296 Y2.6181
X0.8323 Y2.6127
X0.8351 Y2.6075
X0.8382 Y2.6023
X0.8414 Y2.5972
X0.8447 Y2.5922
X0.8482 Y2.5873
X0.8518 Y2.5826
X0.8556 Y2.5779
X0.8596 Y2.5734
X0.8637 Y2.569
X0.8679 Y2.5647
X0.8722 Y2.5606
X0.8767 Y2.5566
X0.8813 Y2.5528
X0.8861 Y2.5491
X0.8909 Y2.5456
X0.8959 Y2.5422
X0.9009 Y2.539
X0.9061 Y2.5359
X0.9114 Y2.533
X0.9167 Y2.5303
X0.9221 Y2.5277
X0.9276 Y2.5253
X0.9332 Y2.5231
X0.9389 Y2.5211
X0.9446 Y2.5192
X0.9503 Y2.5176
X0.9562 Y2.5161
X0.962 Y2.5148
X0.9679 Y2.5137
X0.9738 Y2.5127
X0.9798 Y2.512
X0.9858 Y2.5114
X0.9918 Y2.5111
X0.9977 Y2.5109
X1.0037
X1.0097 Y2.5112
X1.0157 Y2.5116
X1.0217 Y2.5122
X1.0277 Y2.5129
X1.0337 Y2.5139
X1.0396 Y2.5151
X1.0455 Y2.5164
X1.0513 Y2.518
X1.0572 Y2.5197
X1.0629 Y2.5216
X1.0686 Y2.5237
X1.0742 Y2.526
X1.0798 Y2.5284
X1.0853 Y2.531
X1.0906 Y2.5338
X1.096 Y2.5368
X1.1012 Y2.5399
X1.1063 Y2.5432
X1.1113 Y2.5467
X1.1162 Y2.5503
X1.121 Y2.5541
X1.1256 Y2.558
X1.1302 Y2.5621
X1.1346 Y2.5663
X1.1389 Y2.5707
X1.1431 Y2.5752
X1.1471 Y2.5799
X1.151 Y2.5846
X1.1547 Y2.5895
X1.1583 Y2.5946
X1.1617 Y2.5997
X1.1649 Y2.6049
X1.168 Y2.6102
X1.1709 Y2.6157
X1.1736 Y2.6212
X1.1762 Y2.6267
X1.1786 Y2.6324
X1.1807 Y2.6381
X1.1828 Y2.6439
X1.1846 Y2.6498
X1.1862 Y2.6557
X1.1877 Y2.6617
X1.189 Y2.6677
X1.19 Y2.6738
X1.1909 Y2.6799
X1.1916 Y2.686
X1.1921 Y2.6921
X1.1924 Y2.6983
X1.1925 Y2.7044
X1.1924 Y2.7106
X1.1922 Y2.7167
X1.1917 Y2.7228
X1.191 Y2.7289
X1.1902 Y2.7349
X1.1891 Y2.7409
X1.1879 Y2.7468
X1.1865 Y2.7527
X1.1849 Y2.7586
X1.1831 Y2.7644
X1.1811 Y2.7701
X1.179 Y2.7758
X1.1766 Y2.7814
X1.1741 Y2.787
X1.1714 Y2.7925
X1.1686 Y2.7979
X1.1655 Y2.8032
X1.1623 Y2.8084
X1.159 Y2.8135
X1.1554 Y2.8185
X1.1518 Y2.8234
X1.1479 Y2.8281
X1.144 Y2.8327
X1.1398 Y2.8372
X1.1356 Y2.8416
X1.1312 Y2.8458
X1.1267 Y2.8499
X1.122 Y2.8539
X1.1172 Y2.8577
X1.1123 Y2.8613
X1.1073 Y2.8648
X1.1022 Y2.8682
X1.0969 Y2.8713
X1.0916 Y2.8744
X1.0862 Y2.8772
X1.0806 Y2.8799
X1.075 Y2.8824
X1.0693 Y2.8847
X1.0636 Y2.8868
X1.0577 Y2.8888
X1.0518 Y2.8906
X1.0459 Y2.8921
X1.0399 Y2.8935
X1.0339 Y2.8948
X1.0278 Y2.8958
X1.0217 Y2.8966
X1.0156 Y2.8972
X1.0094 Y2.8977
X1.0032 Y2.8979
X0.9971 Y2.898
X0.9909 Y2.8978
X0.9847 Y2.8975
X0.9785 Y2.8969
X0.9723 Y2.8962
X0.9662 Y2.8953
X0.9601 Y2.8941
X0.954 Y2.8928
X0.9479 Y2.8913
X0.9419 Y2.8896
X0.936 Y2.8877
X0.9301 Y2.8856
X0.9243 Y2.8834
X0.9186 Y2.8809
X0.9129 Y2.8783
X0.9073 Y2.8755
X0.9019 Y2.8725
X0.8965 Y2.8694
X0.8912 Y2.8661
X0.8861 Y2.8626
X0.881 Y2.8589
X0.8761 Y2.8551
X0.8712 Y2.8511
X0.8665 Y2.847
X0.8619 Y2.8428
X0.8575 Y2.8383
X0.8532 Y2.8338
X0.849 Y2.8291
X0.845 Y2.8243
X0.8412 Y2.8193
X0.8375 Y2.8142
X0.8339 Y2.809
X0.8306 Y2.8038
X0.8274 Y2.7984
X0.8244 Y2.7929
X0.8215 Y2.7873
X0.8188 Y2.7817
X0.8164 Y2.7759
X0.8141 Y2.7701
X0.8119 Y2.7642
X0.81 Y2.7583
X0.8083 Y2.7522
X0.8067 Y2.7462
X0.8053 Y2.74
X0.8042 Y2.7339
X0.8032 Y2.7277
X0.8024 Y2.7214
X0.8018 Y2.7151
X0.8014 Y2.7089
X0.8013 Y2.7026
Y2.6963
X0.8015 Y2.69
X0.8019 Y2.6837
X0.8025 Y2.6775
X0.8033 Y2.6713
X0.8043 Y2.6651
X0.8055 Y2.6589
X0.8069 Y2.6528
X0.8085 Y2.6468
X0.8102 Y2.6407
X0.8122 Y2.6348
X0.8143 Y2.6289
X0.8167 Y2.6231
X0.8192 Y2.6173
X0.8219 Y2.6116
X0.8248 Y2.606
X0.8279 Y2.6005
X0.8311 Y2.5951
X0.8345 Y2.5898
X0.8381 Y2.5846
X0.8418 Y2.5796
X0.8457 Y2.5746
X0.8497 Y2.5698
X0.8539 Y2.5651
X0.8582 Y2.5606
X0.8627 Y2.5562
X0.8673 Y2.5519
X0.872 Y2.5478
X0.8769 Y2.5439
X0.8819 Y2.5401
X0.887 Y2.5364
X0.8922 Y2.5329
X0.8975 Y2.5296
X0.903 Y2.5264
X0.9085 Y2.5235
X0.9142 Y2.5207
X0.9199 Y2.518
X0.9257 Y2.5156
X0.9316 Y2.5133
X0.9375 Y2.5112
X0.9435 Y2.5094
X0.9496 Y2.5077
X0.9557 Y2.5062
X0.9619 Y2.5049
X0.968 Y2.5037
X0.9743 Y2.5028
X0.9805 Y2.5021
X0.9868 Y2.5016
X0.993 Y2.5013
X0.9993 Y2.5011
X1.0056 Y2.5012
X1.0119 Y2.5015
X1.0182 Y2.502
X1.0245 Y2.5027
X1.0308 Y2.5035
X1.0371 Y2.5046
X1.0433 Y2.5059
X1.0495 Y2.5073
X1.0556 Y2.509
X1.0617 Y2.5109
X1.0677 Y2.5129
X1.0737 Y2.5152
X1.0796 Y2.5176
X1.0854 Y2.5202
X1.0911 Y2.523
X1.0967 Y2.526
X1.1023 Y2.5292
X1.1077 Y2.5325
X1.1131 Y2.536
X1.1183 Y2.5397
X1.1234 Y2.5435
X1.1285 Y2.5475
X1.1333 Y2.5517
X1.1381 Y2.5561
X1.1427 Y2.5605
X1.1472 Y2.5652
X1.1515 Y2.5699
X1.1557 Y2.5749
X1.1597 Y2.5799
X1.1636 Y2.5851
X1.1673 Y2.5904
X1.1708 Y2.5958
X1.1742 Y2.6013
X1.1774 Y2.6069
X1.1804 Y2.6126
X1.1832 Y2.6184
X1.1858 Y2.6243
X1.1883 Y2.6303
X1.1905 Y2.6363
X1.1926 Y2.6425
X1.1945 Y2.6486
X1.1961 Y2.6549
X1.1976 Y2.6612
X1.1989 Y2.6675
X1.2 Y2.6739
X1.2009 Y2.6803
X1.2015 Y2.6867
X1.202 Y2.6931
X1.2023 Y2.6996
Y2.706
X1.2022 Y2.7124
X1.2018 Y2.7188
X1.2013 Y2.7252
X1.2005 Y2.7316
X1.1996 Y2.7379
X1.1985 Y2.7442
X1.1971 Y2.7505
X1.1956 Y2.7567
X1.1938 Y2.7628
X1.1919 Y2.7689
X1.1898 Y2.775
X1.1875 Y2.781
X1.185 Y2.7869
X1.1823 Y2.7927
X1.1794 Y2.7984
X1.1763 Y2.8041
X1.1731 Y2.8096
X1.1697 Y2.815
X1.1661 Y2.8204
X1.1624 Y2.8256
X1.1585 Y2.8307
X1.1544 Y2.8356
X1.1502 Y2.8405
X1.1458 Y2.8452
X1.1413 Y2.8497
X1.1367 Y2.8541
X1.1319 Y2.8584
X1.1269 Y2.8625
X1.1219 Y2.8665
X1.1167 Y2.8703
X1.1114 Y2.8739
X1.106 Y2.8774
X1.1004 Y2.8806
X1.0948 Y2.8838
X1.0891 Y2.8867
X1.0832 Y2.8895
X1.0773 Y2.892
X1.0713 Y2.8944
X1.0653 Y2.8966
X1.0591 Y2.8986
X1.0529 Y2.9005
X1.0467 Y2.9021
X1.0403 Y2.9035
X1.034 Y2.9047
X1.0276 Y2.9057
X1.0212 Y2.9065
X1.0147 Y2.9071
X1.0083 Y2.9076
X1.0018 Y2.9078
X0.9953
X0.9888 Y2.9075
X0.9823 Y2.9071
X0.9758 Y2.9065
X0.9693 Y2.9057
X0.9629 Y2.9047
X0.9564 Y2.9034
X0.9501 Y2.902
X0.9437 Y2.9004
X0.9375 Y2.8985
X0.9312 Y2.8965
X0.9251 Y2.8943
X0.919 Y2.8918
X0.913 Y2.8892
X0.9071 Y2.8864
X0.9013 Y2.8834
X0.8956 Y2.8803
X0.89 Y2.8769
X0.8845 Y2.8734
X0.8791 Y2.8697
X0.8738 Y2.8658
X0.8686 Y2.8618
X0.8636 Y2.8575
X0.8587 Y2.8532
X0.8539 Y2.8487
X0.8493 Y2.844
X0.8448 Y2.8392
X0.8405 Y2.8342
X0.8363 Y2.8291
X0.8323 Y2.8239
X0.8285 Y2.8185
X0.8248 Y2.8131
X0.8213 Y2.8075
X0.818 Y2.8018
X0.8149 Y2.796
X0.8119 Y2.7902
X0.8092 Y2.7842
X0.8066 Y2.7781
X0.8043 Y2.772
X0.8021 Y2.7658
X0.8001 Y2.7595
X0.7983 Y2.7532
X0.7967 Y2.7468
X0.7953 Y2.7404
X0.7942 Y2.7339
X0.7932 Y2.7273
X0.7924 Y2.7208
X0.7919 Y2.7142
X0.7915 Y2.7076
X0.7914 Y2.701
Y2.6944
X0.7917 Y2.6879
X0.7922 Y2.6813
X0.7929 Y2.6747
X0.7938 Y2.6682
X0.7949 Y2.6617
X0.7962 Y2.6553
X0.7977 Y2.6489
X0.7994 Y2.6425
X0.8013 Y2.6362
X0.8035 Y2.63
X0.8058 Y2.6238
X0.8083 Y2.6177
X0.811 Y2.6117
X0.8139 Y2.6057
X0.8169 Y2.5999
X0.8202 Y2.5941
X0.8236 Y2.5885
X0.8272 Y2.583
X0.831 Y2.5776
X0.835 Y2.5723
X0.8391 Y2.5671
X0.8434 Y2.5621
X0.8478 Y2.5572
X0.8524 Y2.5525
X0.8571 Y2.5479
X0.862 Y2.5435
X0.867 Y2.5392
X0.8721 Y2.5351
X0.8774 Y2.5311
X0.8828 Y2.5273
X0.8883 Y2.5237
X0.8939 Y2.5203
X0.8997 Y2.517
X0.9055 Y2.5139
X0.9115 Y2.511
X0.9175 Y2.5083
X0.9236 Y2.5058
X0.9298 Y2.5035
X0.936 Y2.5014
X0.9423 Y2.4994
X0.9487 Y2.4977
X0.9551 Y2.4962
X0.9616 Y2.4949
X0.9681 Y2.4938
X0.9746 Y2.4928
X0.9812 Y2.4921
X0.9878 Y2.4917
X0.9944 Y2.4914
X1.001 Y2.4913
X1.0076 Y2.4914
X1.0143 Y2.4918
X1.0209 Y2.4923
X1.0275 Y2.4931
X1.0341 Y2.4941
X1.0406 Y2.4952
X1.0471 Y2.4966
X1.0536 Y2.4982
X1.06 Y2.5
X1.0664 Y2.502
X1.0727 Y2.5042
X1.0789 Y2.5066
X1.0851 Y2.5092
X1.0911 Y2.512
X1.0971 Y2.515
X1.103 Y2.5182
X1.1088 Y2.5215
X1.1145 Y2.5251
X1.1201 Y2.5288
X1.1256 Y2.5327
X1.1309 Y2.5368
X1.1361 Y2.5411
X1.1412 Y2.5455
X1.1462 Y2.5501
X1.151 Y2.5548
X1.1556 Y2.5597
X1.1601 Y2.5647
X1.1645 Y2.5699
X1.1686 Y2.5752
X1.1726 Y2.5807
X1.1765 Y2.5863
X1.1801 Y2.592
X1.1836 Y2.5978
X1.1869 Y2.6037
X1.19 Y2.6097
X1.1929 Y2.6158
X1.1956 Y2.622
X1.1981 Y2.6283
X1.2004 Y2.6347
X1.2025 Y2.6411
X1.2045 Y2.6476
X1.2062 Y2.6541
X1.2077 Y2.6607
X1.2089 Y2.6674
X1.21 Y2.6741
X1.2109 Y2.6808
X1.2115 Y2.6875
X1.212 Y2.6942
X1.2122 Y2.701
Y2.7077
X1.212 Y2.7145
X1.2116 Y2.7212
X1.211 Y2.7279
X1.2101 Y2.7346
X1.2091 Y2.7412
X1.2078 Y2.7478
X1.2064 Y2.7543
X1.2047 Y2.7609
X1.2028 Y2.7673
X1.2007 Y2.7737
X1.1985 Y2.78
X1.196 Y2.7863
X1.1933 Y2.7924
X1.1904 Y2.7985
X1.1874 Y2.8045
X1.1841 Y2.8104
X1.1807 Y2.8162
X1.1771 Y2.8219
X1.1733 Y2.8274
X1.1693 Y2.8328
X1.1652 Y2.8381
X1.1609 Y2.8433
X1.1564 Y2.8483
X1.1518 Y2.8532
X1.147 Y2.858
X1.1421 Y2.8626
X1.137 Y2.867
X1.1318 Y2.8713
X1.1265 Y2.8754
X1.121 Y2.8793
X1.1154 Y2.8831
X1.1097 Y2.8867
X1.1038 Y2.8901
X1.0979 Y2.8933
X1.0919 Y2.8964
X1.0857 Y2.8992
X1.0795 Y2.9019
X1.0732 Y2.9043
X1.0668 Y2.9066
X1.0604 Y2.9086
X1.0539 Y2.9105
X1.0473 Y2.9121
X1.0407 Y2.9135
X1.034 Y2.9148
X1.0273 Y2.9158
X1.0205 Y2.9166
X1.0137 Y2.9172
X1.0069 Y2.9175
X1.0001 Y2.9177
X0.9933 Y2.9176
X0.9865 Y2.9174
X0.9797 Y2.9169
X0.9729 Y2.9162
X0.9661 Y2.9152
X0.9594 Y2.9141
X0.9527 Y2.9128
X0.946 Y2.9112
X0.9394 Y2.9094
X0.9328 Y2.9075
X0.9264 Y2.9053
X0.9199 Y2.9029
X0.9136 Y2.9003
X0.9073 Y2.8975
X0.9012 Y2.8945
X0.8951 Y2.8914
X0.8891 Y2.888
X0.8833 Y2.8844
X0.8775 Y2.8807
X0.8719 Y2.8767
X0.8664 Y2.8726
X0.861 Y2.8683
X0.8557 Y2.8639
X0.8506 Y2.8593
X0.8457 Y2.8545
X0.8409 Y2.8496
X0.8362 Y2.8445
X0.8317 Y2.8393
X0.8274 Y2.8339
X0.8233 Y2.8284
X0.8193 Y2.8228
X0.8155 Y2.817
X0.8119 Y2.8111
X0.8085 Y2.8052
X0.8053 Y2.7991
X0.8022 Y2.7929
X0.7994 Y2.7866
X0.7968 Y2.7802
X0.7943 Y2.7738
X0.7921 Y2.7673
X0.7901 Y2.7607
X0.7883 Y2.754
X0.7866 Y2.7473
X0.7853 Y2.7405
X0.7841 Y2.7337
X0.7831 Y2.7269
X0.7824 Y2.72
X0.7818 Y2.7131
X0.7815 Y2.7062
X0.7814 Y2.6993
X0.7816 Y2.6924
X0.7819 Y2.6855
X0.7825 Y2.6787
X0.7832 Y2.6718
X0.7842 Y2.665
X0.7855 Y2.6582
X0.7869 Y2.6514
X0.7885 Y2.6447
X0.7904 Y2.6381
X0.7924 Y2.6315
X0.7947 Y2.625
X0.7972 Y2.6185
X0.7998 Y2.6121
X0.8027 Y2.6058
X0.8058 Y2.5996
X0.8091 Y2.5936
X0.8125 Y2.5876
X0.8162 Y2.5817
X0.82 Y2.5759
X0.824 Y2.5703
X0.8282 Y2.5648
X0.8325 Y2.5595
X0.8371 Y2.5542
X0.8417 Y2.5492
X0.8466 Y2.5443
X0.8516 Y2.5395
X0.8567 Y2.5349
X0.862 Y2.5304
X0.8674 Y2.5262
X0.873 Y2.5221
X0.8787 Y2.5181
X0.8845 Y2.5144
X0.8904 Y2.5108
X0.8965 Y2.5074
X0.9026 Y2.5043
X0.9088 Y2.5013
X0.9152 Y2.4985
X0.9216 Y2.4959
X0.9281 Y2.4935
X0.9347 Y2.4914
X0.9413 Y2.4894
X0.948 Y2.4876
X0.9547 Y2.4861
X0.9615 Y2.4848
X0.9683 Y2.4837
X0.9752 Y2.4828
X0.9821 Y2.4821
X0.989 Y2.4816
X0.9959 Y2.4814
X1.0029
X1.0098 Y2.4816
X1.0167 Y2.482
X1.0237 Y2.4826
X1.0306 Y2.4835
X1.0375 Y2.4845
X1.0443 Y2.4858
X1.0511 Y2.4873
X1.0579 Y2.4891
X1.0646 Y2.491
X1.0712 Y2.4931
X1.0778 Y2.4955
X1.0843 Y2.4981
X1.0907 Y2.5008
X1.0971 Y2.5038
X1.1033 Y2.507
X1.1095 Y2.5104
X1.1155 Y2.5139
X1.1215 Y2.5177
X1.1273 Y2.5217
X1.133 Y2.5258
X1.1385 Y2.5301
X1.144 Y2.5346
X1.1492 Y2.5393
X1.1544 Y2.5441
X1.1594 Y2.5491
X1.1642 Y2.5543
X1.1689 Y2.5596
X1.1734 Y2.5651
X1.1777 Y2.5707
X1.1818 Y2.5764
X1.1858 Y2.5823
X1.1896 Y2.5882
X1.1931 Y2.5944
X1.1965 Y2.6006
X1.1997 Y2.6069
X1.2027 Y2.6133
X1.2055 Y2.6198
X1.2081 Y2.6264
X1.2105 Y2.6331
X1.2126 Y2.6398
X1.2146 Y2.6467
X1.2163 Y2.6535
X1.2178 Y2.6604
X1.2191 Y2.6674
X1.2202 Y2.6744
X1.221 Y2.6814
X1.2216 Y2.6885
X1.222 Y2.6955
X1.2222 Y2.7026
Y2.7096
X1.2219 Y2.7167
X1.2214 Y2.7237
X1.2207 Y2.7307
X1.2198 Y2.7377
X1.2186 Y2.7446
X1.2172 Y2.7515
X1.2156 Y2.7584
X1.2138 Y2.7652
X1.2118 Y2.7719
X1.2096 Y2.7786
X1.2071 Y2.7852
X1.2045 Y2.7917
X1.2016 Y2.7982
X1.1986 Y2.8045
X1.1953 Y2.8108
X1.1919 Y2.8169
X1.1882 Y2.8229
X1.1844 Y2.8288
X1.1804 Y2.8346
X1.1762 Y2.8403
X1.1718 Y2.8458
X1.1673 Y2.8512
X1.1625 Y2.8564
X1.1577 Y2.8615
X1.1526 Y2.8664
X1.1474 Y2.8712
X1.1421 Y2.8758
X1.1366 Y2.8802
X1.131 Y2.8845
X1.1252 Y2.8886
X1.1193 Y2.8925
X1.1133 Y2.8962
X1.1072 Y2.8997
X1.1009 Y2.903
X1.0946 Y2.9061
X1.0881 Y2.9091
X1.0816 Y2.9118
X1.075 Y2.9143
X1.0683 Y2.9166
X1.0615 Y2.9187
X1.0547 Y2.9206
X1.0478 Y2.9222
X1.0408 Y2.9237
X1.0338 Y2.9249
X1.0268 Y2.9259
X1.0197 Y2.9267
X1.0126 Y2.9273
X1.0055 Y2.9276
X0.9984 Y2.9277
X0.9912 Y2.9276
X0.9841 Y2.9272
X0.977 Y2.9267
X0.9699 Y2.9259
X0.9628 Y2.9249
X0.9557 Y2.9236
X0.9487 Y2.9222
X0.9418 Y2.9205
X0.9349 Y2.9186
X0.928 Y2.9164
X0.9213 Y2.9141
X0.9146 Y2.9116
X0.908 Y2.9088
X0.9014 Y2.9058
X0.895 Y2.9026
X0.8887 Y2.8993
X0.8825 Y2.8957
X0.8764 Y2.8919
X0.8704 Y2.8879
X0.8645 Y2.8838
X0.8588 Y2.8794
X0.8532 Y2.8749
X0.8477 Y2.8702
X0.8424 Y2.8653
X0.8373 Y2.8603
X0.8323 Y2.8551
X0.8275 Y2.8497
X0.8229 Y2.8442
X0.8184 Y2.8386
X0.8141 Y2.8328
X0.81 Y2.8269
X0.8061 Y2.8208
X0.8024 Y2.8147
X0.7988 Y2.8084
X0.7955 Y2.802
X0.7924 Y2.7955
X0.7895 Y2.7889
X0.7868 Y2.7822
X0.7843 Y2.7754
X0.782 Y2.7686
X0.7799 Y2.7617
X0.7781 Y2.7547
X0.7765 Y2.7477
X0.7751 Y2.7406
X0.7739 Y2.7335
X0.7729 Y2.7263
X0.7722 Y2.7191
X0.7717 Y2.7119
X0.7715 Y2.7047
X0.7714 Y2.6975
X0.7716 Y2.6903
X0.772 Y2.6831
X0.7727 Y2.6759
X0.7735 Y2.6687
X0.7746 Y2.6616
X0.776 Y2.6545
X0.7775 Y2.6474
X0.7793 Y2.6404
X0.7813 Y2.6335
X0.7835 Y2.6266
X0.7859 Y2.6198
X0.7886 Y2.613
X0.7914 Y2.6064
X0.7945 Y2.5999
X0.7977 Y2.5934
X0.8012 Y2.5871
X0.8049 Y2.5808
X0.8087 Y2.5747
X0.8128 Y2.5688
X0.817 Y2.5629
X0.8214 Y2.5572
X0.826 Y2.5516
X0.8308 Y2.5462
X0.8357 Y2.5409
X0.8409 Y2.5358
X0.8461 Y2.5309
X0.8515 Y2.5261
X0.8571 Y2.5215
X0.8628 Y2.5171
X0.8687 Y2.5128
X0.8747 Y2.5088
X0.8808 Y2.5049
X0.887 Y2.5012
X0.8933 Y2.4977
X0.8998 Y2.4945
X0.9063 Y2.4914
X0.913 Y2.4885
X0.9197 Y2.4859
X0.9265 Y2.4835
X0.9334 Y2.4812
X0.9404 Y2.4792
X0.9474 Y2.4775
X0.9544 Y2.4759
X0.9616 Y2.4746
X0.9687 Y2.4735
X0.9759 Y2.4726
X0.9831 Y2.4719
X0.9904 Y2.4715
X0.9976 Y2.4713
X1.0049 Y2.4714
X1.0121 Y2.4716
X1.0194 Y2.4721
X1.0266 Y2.4728
X1.0338 Y2.4738
X1.041 Y2.475
X1.0482 Y2.4764
X1.0553 Y2.478
X1.0623 Y2.4799
X1.0693 Y2.4819
X1.0763 Y2.4842
X1.0831 Y2.4868
X1.0899 Y2.4895
X1.0966 Y2.4925
X1.1032 Y2.4956
X1.1097 Y2.499
X1.1161 Y2.5026
X1.1224 Y2.5064
X1.1286 Y2.5104
X1.1346 Y2.5145
X1.1405 Y2.5189
X1.1463 Y2.5235
X1.152 Y2.5282
X1.1574 Y2.5332
X1.1628 Y2.5383
X1.1679 Y2.5435
X1.1729 Y2.549
X1.1778 Y2.5545
X1.1824 Y2.5603
X1.1869 Y2.5662
X1.1912 Y2.5722
X1.1953 Y2.5783
X1.1991 Y2.5846
X1.2028 Y2.591
X1.2063 Y2.5976
X1.2096 Y2.6042
X1.2127 Y2.6109
X1.2155 Y2.6178
X1.2182 Y2.6247
X1.2206 Y2.6317
X1.2228 Y2.6387
X1.2248 Y2.6459
X1.2265 Y2.6531
X1.228 Y2.6603
X1.2293 Y2.6676
X1.2304 Y2.6749
X1.2312 Y2.6822
X1.2318 Y2.6896
X1.2322 Y2.697
X1.2323 Y2.7043
X1.2322 Y2.7117
X1.2318 Y2.7191
X1.2313 Y2.7264
X1.2305 Y2.7337
X1.2294 Y2.741
X1.2282 Y2.7483
X1.2267 Y2.7555
X1.225 Y2.7626
X1.223 Y2.7697
X1.2208 Y2.7768
X1.2185 Y2.7837
X1.2159 Y2.7906
X1.213 Y2.7974
X1.21 Y2.8041
X1.2067 Y2.8107
X1.2033 Y2.8172
X1.1996 Y2.8236
X1.1958 Y2.8299
X1.1917 Y2.836
X1.1875 Y2.842
X1.183 Y2.8479
X1.1784 Y2.8536
X1.1736 Y2.8592
X1.1686 Y2.8646
X1.1635 Y2.8699
X1.1582 Y2.875
X1.1527 Y2.88
X1.1471 Y2.8847
X1.1413 Y2.8893
X1.1354 Y2.8937
X1.1293 Y2.8979
X1.1231 Y2.902
X1.1168 Y2.9058
X1.1104 Y2.9094
X1.1038 Y2.9128
X1.0972 Y2.9161
X1.0904 Y2.9191
X1.0835 Y2.9218
X1.0766 Y2.9244
X1.0696 Y2.9268
X1.0625 Y2.9289
X1.0553 Y2.9308
X1.0481 Y2.9325
X1.0408 Y2.9339
X1.0335 Y2.9352
X1.0261 Y2.9362
X1.0187 Y2.9369
X1.0113 Y2.9374
X1.0039 Y2.9377
X0.9964 Y2.9378
X0.989 Y2.9376
X0.9815 Y2.9372
X0.9741 Y2.9365
X0.9667 Y2.9356
X0.9593 Y2.9345
X0.9519 Y2.9332
X0.9446 Y2.9316
X0.9374 Y2.9298
X0.9302 Y2.9277
X0.9231 Y2.9254
X0.916 Y2.9229
X0.909 Y2.9202
X0.9022 Y2.9173
X0.8954 Y2.9141
X0.8887 Y2.9107
X0.8821 Y2.9072
X0.8756 Y2.9034
X0.8693 Y2.8994
X0.8631 Y2.8952
X0.857 Y2.8908
X0.851 Y2.8862
X0.8452 Y2.8814
X0.8396 Y2.8765
X0.8341 Y2.8713
X0.8287 Y2.866
X0.8236 Y2.8606
X0.8186 Y2.8549
X0.8138 Y2.8491
X0.8092 Y2.8432
X0.8048 Y2.8371
X0.8005 Y2.8309
X0.7965 Y2.8246
X0.7927 Y2.8181
X0.789 Y2.8115
X0.7856 Y2.8048
X0.7824 Y2.798
X0.7794 Y2.7911
X0.7766 Y2.7841
X0.7741 Y2.777
X0.7718 Y2.7698
X0.7697 Y2.7626
X0.7678 Y2.7553
X0.7662 Y2.7479
X0.7648 Y2.7405
X0.7636 Y2.733
X0.7627 Y2.7256
X0.762 Y2.718
X0.7615 Y2.7105
X0.7613 Y2.703
Y2.6954
X0.7616 Y2.6879
X0.7621 Y2.6804
X0.7628 Y2.6729
X0.7638 Y2.6654
X0.765 Y2.658
X0.7664 Y2.6506
X0.7681 Y2.6432
X0.77 Y2.6359
X0.7722 Y2.6287
X0.7745 Y2.6215
X0.7771 Y2.6144
X0.7799 Y2.6074
X0.783 Y2.6005
X0.7862 Y2.5937
X0.7897 Y2.587
X0.7934 Y2.5804
X0.7972 Y2.5739
X0.8013 Y2.5676
X0.8056 Y2.5614
X0.8101 Y2.5553
X0.8147 Y2.5494
X0.8196 Y2.5436
X0.8246 Y2.538
X0.8298 Y2.5325
X0.8352 Y2.5272
X0.8407 Y2.5221
X0.8464 Y2.5172
X0.8523 Y2.5124
X0.8583 Y2.5078
X0.8644 Y2.5034
X0.8707 Y2.4992
X0.8771 Y2.4953
X0.8837 Y2.4915
X0.8903 Y2.4879
X0.8971 Y2.4845
X0.9039 Y2.4814
X0.9109 Y2.4785
X0.918 Y2.4757
X0.9251 Y2.4733
X0.9323 Y2.471
X0.9396 Y2.469
X0.9469 Y2.4672
X0.9543 Y2.4656
X0.9618 Y2.4643
X0.9692 Y2.4632
X0.9768 Y2.4623
X0.9843 Y2.4617
X0.9919 Y2.4613
X0.9995 Y2.4612
X1.007 Y2.4613
X1.0146 Y2.4616
X1.0222 Y2.4622
X1.0297 Y2.463
X1.0373 Y2.4641
X1.0448 Y2.4653
X1.0522 Y2.4669
X1.0596 Y2.4686
X1.067 Y2.4706
X1.0743 Y2.4729
X1.0815 Y2.4753
X1.0886 Y2.478
X1.0957 Y2.4809
X1.1027 Y2.4841
X1.1095 Y2.4874
X1.1163 Y2.491
X1.1229 Y2.4948
X1.1295 Y2.4988
X1.1359 Y2.503
X1.1422 Y2.5075
X1.1483 Y2.5121
X1.1543 Y2.5169
X1.1601 Y2.5219
X1.1658 Y2.5271
X1.1713 Y2.5324
X1.1767 Y2.538
X1.1818 Y2.5437
X1.1868 Y2.5496
X1.1916 Y2.5556
X1.1962 Y2.5618
X1.2007 Y2.5681
X1.2049 Y2.5745
X1.2089 Y2.5811
X1.2127 Y2.5878
X1.2163 Y2.5947
X1.2196 Y2.6016
X1.2228 Y2.6087
X1.2257 Y2.6158
X1.2284 Y2.623
X1.2309 Y2.6304
X1.2331 Y2.6378
X1.2351 Y2.6452
X1.2369 Y2.6527
X1.2384 Y2.6603
X1.2397 Y2.6679
X1.2407 Y2.6755
X1.2415 Y2.6832
X1.2421 Y2.6909
X1.2424 Y2.6986
X1.2425 Y2.7063
X1.2423 Y2.7139
X1.2419 Y2.7216
X1.2412 Y2.7293
X1.2403 Y2.7369
X1.2392 Y2.7445
X1.2378 Y2.7521
X1.2362 Y2.7596
X1.2343 Y2.767
X1.2322 Y2.7744
X1.2299 Y2.7818
X1.2273 Y2.789
X1.2246 Y2.7962
X1.2216 Y2.8032
X1.2183 Y2.8102
X1.2149 Y2.8171
X1.2112 Y2.8238
X1.2074 Y2.8305
X1.2033 Y2.837
X1.199 Y2.8434
X1.1945 Y2.8496
X1.1898 Y2.8557
X1.185 Y2.8616
X1.1799 Y2.8674
X1.1747 Y2.873
X1.1692 Y2.8785
X1.1636 Y2.8838
X1.1579 Y2.8889
X1.152 Y2.8938
X1.1459 Y2.8986
X1.1397 Y2.9031
X1.1333 Y2.9075
X1.1268 Y2.9116
X1.1202 Y2.9156
X1.1135 Y2.9193
X1.1066 Y2.9228
X1.0996 Y2.9261
X1.0925 Y2.9292
X1.0854 Y2.932
X1.0781 Y2.9347
X1.0707 Y2.9371
X1.0633 Y2.9392
X1.0558 Y2.9412
X1.0483 Y2.9429
X1.0407 Y2.9443
X1.033 Y2.9455
X1.0253 Y2.9465
X1.0176 Y2.9472
X1.0098 Y2.9477
X1.0021 Y2.9479
X0.9943
X0.9865 Y2.9477
X0.9788 Y2.9472
X0.971 Y2.9464
X0.9633 Y2.9455
X0.9556 Y2.9442
X0.948 Y2.9427
X0.9404 Y2.941
X0.9328 Y2.9391
X0.9253 Y2.9369
X0.9179 Y2.9344
X0.9106 Y2.9318
X0.9033 Y2.9289
X0.8962 Y2.9258
X0.8891 Y2.9224
X0.8822 Y2.9188
X0.8753 Y2.915
X0.8686 Y2.911
X0.862 Y2.9068
X0.8556 Y2.9024
X0.8493 Y2.8977
X0.8431 Y2.8929
X0.8371 Y2.8879
X0.8312 Y2.8827
X0.8256 Y2.8773
X0.82 Y2.8717
X0.8147 Y2.8659
X0.8096 Y2.86
X0.8046 Y2.854
X0.7998 Y2.8477
X0.7953 Y2.8414
X0.7909 Y2.8348
X0.7867 Y2.8282
X0.7828 Y2.8214
X0.7791 Y2.8145
X0.7756 Y2.8075
X0.7723 Y2.8003
X0.7692 Y2.7931
X0.7664 Y2.7858
X0.7638 Y2.7784
X0.7614 Y2.7709
X0.7593 Y2.7633
X0.7574 Y2.7557
X0.7558 Y2.748
X0.7544 Y2.7402
X0.7532 Y2.7325
X0.7523 Y2.7247
X0.7517 Y2.7168
X0.7512 Y2.709
X0.7511 Y2.7011
X0.7512 Y2.6933
X0.7515 Y2.6854
X0.7521 Y2.6776
X0.7529 Y2.6697
X0.754 Y2.662
X0.7553 Y2.6542
X0.7569 Y2.6465
X0.7587 Y2.6388
X0.7607 Y2.6312
X0.763 Y2.6237
X0.7655 Y2.6163
X0.7683 Y2.6089
X0.7713 Y2.6016
X0.7745 Y2.5944
X0.778 Y2.5874
X0.7816 Y2.5804
X0.7855 Y2.5736
X0.7896 Y2.5669
X0.7939 Y2.5603
X0.7984 Y2.5538
X0.8032 Y2.5475
X0.8081 Y2.5414
X0.8132 Y2.5354
X0.8185 Y2.5296
X0.824 Y2.5239
X0.8296 Y2.5185
X0.8354 Y2.5132
X0.8414 Y2.508
X0.8476 Y2.5031
X0.8539 Y2.4984
X0.8603 Y2.4939
X0.8669 Y2.4896
X0.8736 Y2.4855
X0.8805 Y2.4816
X0.8874 Y2.4779
X0.8945 Y2.4745
X0.9017 Y2.4712
X0.909 Y2.4682
X0.9163 Y2.4655
X0.9238 Y2.4629
X0.9313 Y2.4606
X0.9389 Y2.4586
X0.9466 Y2.4568
X0.9543 Y2.4552
X0.9621 Y2.4539
X0.9699 Y2.4528
X0.9778 Y2.452
X0.9857 Y2.4514
X0.9936 Y2.451
X1.0015
X1.0094 Y2.4511
X1.0173 Y2.4515
X1.0252 Y2.4522
X1.033 Y2.4531
X1.0409 Y2.4543
X1.0487 Y2.4557
X1.0564 Y2.4573
X1.0641 Y2.4592
X1.0718 Y2.4614
X1.0794 Y2.4638
X1.0869 Y2.4664
X1.0943 Y2.4693
X1.1016 Y2.4724
X1.1089 Y2.4757
X1.116 Y2.4793
X1.123 Y2.4831
X1.1299 Y2.4871
X1.1367 Y2.4913
X1.1434 Y2.4958
X1.1499 Y2.5004
X1.1562 Y2.5053
X1.1624 Y2.5103
X1.1685 Y2.5156
X1.1743 Y2.521
X1.18 Y2.5267
X1.1856 Y2.5325
X1.1909 Y2.5385
X1.1961 Y2.5446
X1.201 Y2.551
X1.2058 Y2.5574
X1.2103 Y2.5641
X1.2147 Y2.5708
X1.2188 Y2.5777
X1.2227 Y2.5847
X1.2264 Y2.5919
X1.2298 Y2.5992
X1.233 Y2.6065
X1.236 Y2.614
X1.2388 Y2.6216
X1.2413 Y2.6292
X1.2435 Y2.6369
X1.2455 Y2.6447
X1.2473 Y2.6525
X1.2488 Y2.6604
X1.2501 Y2.6683
X1.2511 Y2.6763
X1.2519 Y2.6843
X1.2524 Y2.6923
X1.2527 Y2.7003
Y2.7083
X1.2524 Y2.7164
X1.2519 Y2.7244
X1.2512 Y2.7323
X1.2502 Y2.7403
X1.2489 Y2.7482
X1.2474 Y2.7561
X1.2457 Y2.7639
X1.2437 Y2.7716
X1.2415 Y2.7793
X1.239 Y2.7869
X1.2362 Y2.7945
X1.2333 Y2.8019
X1.2301 Y2.8093
X1.2267 Y2.8165
X1.223 Y2.8236
X1.2192 Y2.8306
X1.2151 Y2.8375
X1.2108 Y2.8443
X1.2062 Y2.8509
X1.2015 Y2.8573
X1.1966 Y2.8637
X1.1914 Y2.8698
X1.1861 Y2.8758
X1.1806 Y2.8816
X1.1749 Y2.8873
X1.1691 Y2.8927
X1.163 Y2.898
X1.1568 Y2.9031
X1.1504 Y2.908
X1.1439 Y2.9127
X1.1373 Y2.9172
X1.1305 Y2.9214
X1.1235 Y2.9255
X1.1165 Y2.9293
X1.1093 Y2.9329
X1.102 Y2.9363
X1.0946 Y2.9394
X1.0871 Y2.9424
X1.0795 Y2.945
X1.0718 Y2.9475
X1.064 Y2.9497
X1.0562 Y2.9516
X1.0483 Y2.9533
X1.0404 Y2.9548
X1.0324 Y2.956
X1.0244 Y2.9569
X1.0163 Y2.9576
X1.0082 Y2.9581
X1.0001 Y2.9582
X0.992
X0.9839 Y2.9578
X0.9759 Y2.9573
X0.9678 Y2.9564
X0.9598 Y2.9553
X0.9518 Y2.954
X0.9438 Y2.9524
X0.9359 Y2.9505
X0.9281 Y2.9484
X0.9203 Y2.9461
X0.9126 Y2.9435
X0.905 Y2.9406
X0.8974 Y2.9375
X0.89 Y2.9342
X0.8827 Y2.9307
X0.8755 Y2.9269
X0.8684 Y2.9229
X0.8614 Y2.9187
X0.8546 Y2.9142
X0.8479 Y2.9095
X0.8414 Y2.9047
X0.835 Y2.8996
X0.8288 Y2.8943
X0.8227 Y2.8888
X0.8169 Y2.8831
X0.8112 Y2.8773
X0.8057 Y2.8713
X0.8003 Y2.8651
X0.7952 Y2.8587
X0.7903 Y2.8522
X0.7856 Y2.8455
X0.7811 Y2.8387
X0.7769 Y2.8317
X0.7728 Y2.8246
X0.769 Y2.8174
X0.7654 Y2.81
X0.762 Y2.8026
X0.7589 Y2.795
X0.756 Y2.7874
X0.7534 Y2.7796
X0.751 Y2.7718
X0.7488 Y2.7639
X0.7469 Y2.7559
X0.7453 Y2.7479
X0.7439 Y2.7399
X0.7427 Y2.7317
X0.7419 Y2.7236
X0.7412 Y2.7154
X0.7409 Y2.7073
X0.7408 Y2.6991
X0.7409 Y2.6909
X0.7413 Y2.6827
X0.742 Y2.6746
X0.7429 Y2.6664
X0.7441 Y2.6583
X0.7456 Y2.6503
X0.7473 Y2.6422
X0.7492 Y2.6343
X0.7514 Y2.6264
X0.7539 Y2.6186
X0.7566 Y2.6108
X0.7595 Y2.6032
X0.7627 Y2.5956
X0.7661 Y2.5882
X0.7697 Y2.5809
X0.7736 Y2.5736
X0.7777 Y2.5665
X0.782 Y2.5596
X0.7866 Y2.5528
X0.7913 Y2.5461
X0.7963 Y2.5396
X0.8015 Y2.5332
X0.8068 Y2.527
X0.8124 Y2.521
X0.8181 Y2.5152
X0.8241 Y2.5095
X0.8302 Y2.5041
X0.8365 Y2.4988
X0.8429 Y2.4937
X0.8495 Y2.4888
X0.8563 Y2.4842
X0.8631 Y2.4798
X0.8702 Y2.4755
X0.8773 Y2.4715
X0.8846 Y2.4678
X0.892 Y2.4642
X0.8995 Y2.4609
X0.9071 Y2.4579
X0.9149 Y2.4551
X0.9226 Y2.4525
X0.9305 Y2.4502
X0.9385 Y2.4481
X0.9465 Y2.4463
X0.9545 Y2.4447
X0.9626 Y2.4434
X0.9708 Y2.4423
X0.979 Y2.4415
X0.9872 Y2.441
X0.9954 Y2.4407
X1.0036
X1.0119 Y2.4409
X1.0201 Y2.4414
X1.0283 Y2.4422
X1.0365 Y2.4432
X1.0447 Y2.4444
X1.0528 Y2.446
X1.0608 Y2.4478
X1.0688 Y2.4498
X1.0768 Y2.4521
X1.0847 Y2.4547
X1.0925 Y2.4575
X1.1002 Y2.4605
X1.1078 Y2.4638
X1.1153 Y2.4673
X1.1227 Y2.4711
X1.13 Y2.4751
X1.1371 Y2.4793
X1.1441 Y2.4838
X1.151 Y2.4885
X1.1577 Y2.4934
X1.1643 Y2.4985
X1.1707 Y2.5038
X1.177 Y2.5093
X1.183 Y2.5151
X1.1889 Y2.521
X1.1946 Y2.5271
X1.2001 Y2.5334
X1.2054 Y2.5398
X1.2105 Y2.5464
X1.2154 Y2.5532
X1.2201 Y2.5601
X1.2246 Y2.5672
X1.2288 Y2.5744
X1.2328 Y2.5818
X1.2366 Y2.5892
X1.2401 Y2.5968
X1.2434 Y2.6045
X1.2464 Y2.6123
X1.2492 Y2.6202
X1.2518 Y2.6282
X1.2541 Y2.6362
X1.2561 Y2.6443
X1.2579 Y2.6525
X1.2594 Y2.6607
X1.2606 Y2.669
X1.2616 Y2.6773
X1.2624 Y2.6856
X1.2628 Y2.6939
X1.2631 Y2.7023
X1.263 Y2.7106
X1.2627 Y2.7189
X1.2621 Y2.7273
X1.2612 Y2.7356
X1.2601 Y2.7438
X1.2588 Y2.7521
X1.2571 Y2.7602
X1.2552 Y2.7684
X1.2531 Y2.7764
X1.2507 Y2.7844
X1.2481 Y2.7923
X1.2452 Y2.8001
X1.242 Y2.8078
X1.2386 Y2.8155
X1.235 Y2.823
X1.2312 Y2.8303
X1.2271 Y2.8376
X1.2227 Y2.8447
X1.2182 Y2.8517
X1.2134 Y2.8586
X1.2085 Y2.8653
X1.2033 Y2.8718
X1.1979 Y2.8782
X1.1923 Y2.8844
X1.1865 Y2.8904
X1.1805 Y2.8962
X1.1744 Y2.9018
X1.1681 Y2.9073
X1.1616 Y2.9125
X1.1549 Y2.9176
X1.1481 Y2.9224
X1.1411 Y2.927
X1.134 Y2.9314
X1.1267 Y2.9355
X1.1193 Y2.9395
X1.1118 Y2.9432
X1.1042 Y2.9466
X1.0965 Y2.9498
X1.0886 Y2.9528
X1.0807 Y2.9555
X1.0727 Y2.958
X1.0646 Y2.9602
X1.0564 Y2.9622
X1.0482 Y2.9639
X1.0399 Y2.9653
X1.0316 Y2.9665
X1.0233 Y2.9674
X1.0149 Y2.9681
X1.0065 Y2.9685
X0.998 Y2.9686
X0.9896 Y2.9685
X0.9812 Y2.968
X0.9728 Y2.9674
X0.9644 Y2.9664
X0.9561 Y2.9652
X0.9477 Y2.9638
X0.9395 Y2.962
X0.9313 Y2.96
X0.9231 Y2.9578
X0.9151 Y2.9553
X0.9071 Y2.9525
X0.8992 Y2.9495
X0.8914 Y2.9462
X0.8837 Y2.9427
X0.8761 Y2.9389
X0.8686 Y2.935
X0.8613 Y2.9307
X0.8541 Y2.9263
X0.847 Y2.9216
X0.8401 Y2.9167
X0.8333 Y2.9115
X0.8267 Y2.9062
X0.8203 Y2.9006
X0.8141 Y2.8949
X0.808 Y2.889
X0.8021 Y2.8828
X0.7965 Y2.8765
X0.791 Y2.87
X0.7857 Y2.8633
X0.7807 Y2.8565
X0.7758 Y2.8495
X0.7712 Y2.8424
X0.7668 Y2.8351
X0.7627 Y2.8277
X0.7588 Y2.8201
X0.7551 Y2.8125
X0.7516 Y2.8047
X0.7485 Y2.7968
X0.7455 Y2.7888
X0.7428 Y2.7807
X0.7404 Y2.7726
X0.7382 Y2.7644
X0.7363 Y2.7561
X0.7347 Y2.7477
X0.7333 Y2.7393
X0.7322 Y2.7309
X0.7313 Y2.7224
X0.7308 Y2.7139
X0.7305 Y2.7054
X0.7304 Y2.6969
X0.7306 Y2.6884
X0.7311 Y2.6799
X0.7319 Y2.6714
X0.7329 Y2.6629
X0.7342 Y2.6545
X0.7358 Y2.6461
X0.7376 Y2.6378
X0.7397 Y2.6296
X0.7421 Y2.6214
X0.7447 Y2.6133
X0.7476 Y2.6052
X0.7507 Y2.5973
X0.754 Y2.5895
X0.7577 Y2.5818
X0.7615 Y2.5742
X0.7656 Y2.5667
X0.7699 Y2.5593
X0.7745 Y2.5521
X0.7793 Y2.5451
X0.7843 Y2.5382
X0.7895 Y2.5315
X0.7949 Y2.5249
X0.8006 Y2.5185
X0.8064 Y2.5123
X0.8124 Y2.5063
X0.8186 Y2.5004
X0.825 Y2.4948
X0.8316 Y2.4894
X0.8384 Y2.4841
X0.8453 Y2.4791
X0.8523 Y2.4744
X0.8595 Y2.4698
X0.8669 Y2.4655
X0.8743 Y2.4614
X0.882 Y2.4575
X0.8897 Y2.4539
X0.8975 Y2.4505
X0.9055 Y2.4474
X0.9135 Y2.4446
X0.9216 Y2.4419
X0.9298 Y2.4396
X0.9381 Y2.4375
X0.9465 Y2.4357
X0.9549 Y2.4341
X0.9633 Y2.4328
X0.9718 Y2.4318
X0.9803 Y2.431
X0.9889 Y2.4305
X0.9974 Y2.4303
X1.006
X1.0145 Y2.4306
X1.0231 Y2.4312
X1.0316 Y2.4321
X1.0401 Y2.4332
X1.0486 Y2.4346
X1.057 Y2.4363
X1.0654 Y2.4382
X1.0737 Y2.4404
X1.082 Y2.4428
X1.0901 Y2.4456
X1.0982 Y2.4485
X1.1062 Y2.4518
X1.1141 Y2.4553
X1.1219 Y2.459
X1.1295 Y2.463
X1.137 Y2.4672
X1.1444 Y2.4717
X1.1517 Y2.4763
X1.1588 Y2.4813
X1.1658 Y2.4864
X1.1726 Y2.4918
X1.1792 Y2.4974
X1.1856 Y2.5032
X1.1919 Y2.5092
X1.198 Y2.5154
X1.2038 Y2.5217
X1.2095 Y2.5283
X1.215 Y2.5351
X1.2202 Y2.542
X1.2252 Y2.5491
X1.23 Y2.5563
X1.2346 Y2.5637
X1.2389 Y2.5712
X1.243 Y2.5789
X1.2469 Y2.5867
X1.2505 Y2.5946
X1.2539 Y2.6026
X1.257 Y2.6107
X1.2598 Y2.619
X1.2624 Y2.6273
X1.2647 Y2.6356
X1.2667 Y2.6441
X1.2685 Y2.6526
X1.27 Y2.6611
X1.2713 Y2.6697
X1.2722 Y2.6784
X1.2729 Y2.687
X1.2733 Y2.6957
X1.2735 Y2.7044
X1.2733 Y2.713
X1.2729 Y2.7217
X1.2723 Y2.7303
X1.2713 Y2.739
X1.2701 Y2.7476
X1.2686 Y2.7561
X1.2668 Y2.7646
X1.2648 Y2.773
X1.2625 Y2.7814
X1.2599 Y2.7896
X1.2571 Y2.7978
X1.254 Y2.8059
X1.2507 Y2.8139
X1.2471 Y2.8218
X1.2433 Y2.8296
X1.2392 Y2.8372
X1.2349 Y2.8448
X1.2304 Y2.8521
X1.2256 Y2.8594
X1.2206 Y2.8664
X1.2154 Y2.8734
X1.2099 Y2.8801
X1.2043 Y2.8867
X1.1984 Y2.8931
X1.1923 Y2.8993
X1.1861 Y2.9053
X1.1796 Y2.9111
X1.173 Y2.9167
X1.1662 Y2.9221
X1.1592 Y2.9273
X1.1521 Y2.9322
X1.1448 Y2.937
X1.1374 Y2.9415
X1.1298 Y2.9457
X1.1221 Y2.9497
X1.1143 Y2.9535
X1.1063 Y2.9571
X1.0982 Y2.9603
X1.0901 Y2.9634
X1.0818 Y2.9661
X1.0734 Y2.9686
X1.065 Y2.9709
X1.0565 Y2.9728
X1.048 Y2.9745
X1.0393 Y2.976
X1.0307 Y2.9771
X1.022 Y2.978
X1.0133 Y2.9786
X1.0045 Y2.9789
X0.9958 Y2.979
X0.987 Y2.9788
X0.9783 Y2.9783
X0.9696 Y2.9775
X0.9609 Y2.9765
X0.9522 Y2.9752
X0.9436 Y2.9736
X0.935 Y2.9717
X0.9265 Y2.9695
X0.918 Y2.9671
X0.9097 Y2.9645
X0.9014 Y2.9615
X0.8932 Y2.9583
X0.8851 Y2.9549
X0.8772 Y2.9511
X0.8693 Y2.9472
X0.8616 Y2.943
X0.854 Y2.9385
X0.8465 Y2.9338
X0.8392 Y2.9289
X0.8321 Y2.9237
X0.8251 Y2.9183
X0.8183 Y2.9127
X0.8117 Y2.9069
X0.8053 Y2.9009
X0.799 Y2.8947
X0.793 Y2.8883
X0.7871 Y2.8816
X0.7815 Y2.8749
X0.7761 Y2.8679
X0.7709 Y2.8607
X0.7659 Y2.8534
X0.7612 Y2.846
X0.7567 Y2.8384
X0.7524 Y2.8307
X0.7484 Y2.8228
X0.7447 Y2.8148
X0.7412 Y2.8067
X0.7379 Y2.7985
X0.7349 Y2.7901
X0.7322 Y2.7817
X0.7298 Y2.7732
X0.7276 Y2.7647
X0.7257 Y2.756
X0.724 Y2.7473
X0.7227 Y2.7386
X0.7216 Y2.7298
X0.7208 Y2.721
X0.7202 Y2.7122
X0.72 Y2.7034
Y2.6945
X0.7203 Y2.6857
X0.7209 Y2.6768
X0.7218 Y2.668
X0.7229 Y2.6593
X0.7243 Y2.6505
X0.726 Y2.6418
X0.728 Y2.6332
X0.7303 Y2.6247
X0.7328 Y2.6162
X0.7355 Y2.6078
X0.7386 Y2.5995
X0.7419 Y2.5913
X0.7455 Y2.5831
X0.7493 Y2.5752
X0.7533 Y2.5673
X0.7577 Y2.5596
X0.7622 Y2.552
X0.767 Y2.5445
X0.772 Y2.5373
X0.7773 Y2.5301
X0.7828 Y2.5232
X0.7885 Y2.5164
X0.7944 Y2.5098
X0.8005 Y2.5034
X0.8068 Y2.4972
X0.8133 Y2.4912
X0.82 Y2.4854
X0.8269 Y2.4798
X0.8339 Y2.4744
X0.8411 Y2.4693
X0.8485 Y2.4644
X0.856 Y2.4597
X0.8637 Y2.4553
X0.8715 Y2.4511
X0.8794 Y2.4472
X0.8875 Y2.4435
X0.8956 Y2.44
X0.9039 Y2.4369
X0.9123 Y2.434
X0.9208 Y2.4313
X0.9293 Y2.4289
X0.9379 Y2.4268
X0.9466 Y2.425
X0.9553 Y2.4234
X0.9641 Y2.4222
X0.973 Y2.4211
X0.9818 Y2.4204
X0.9907 Y2.42
X0.9996 Y2.4198
X1.0085 Y2.4199
X1.0174 Y2.4203
X1.0262 Y2.421
X1.0351 Y2.422
X1.0439 Y2.4232
X1.0527 Y2.4247
X1.0615 Y2.4265
X1.0701 Y2.4286
X1.0787 Y2.431
X1.0873 Y2.4336
X1.0957 Y2.4365
X1.1041 Y2.4396
X1.1124 Y2.443
X1.1205 Y2.4467
X1.1286 Y2.4507
X1.1365 Y2.4549
X1.1443 Y2.4593
X1.1519 Y2.464
X1.1594 Y2.469
X1.1668 Y2.4741
X1.174 Y2.4795
X1.181 Y2.4852
X1.1878 Y2.491
X1.1944 Y2.4971
X1.2009 Y2.5034
X1.2071 Y2.5098
X1.2132 Y2.5165
X1.219 Y2.5234
X1.2246 Y2.5304
X1.23 Y2.5377
X1.2352 Y2.5451
X1.2401 Y2.5526
X1.2448 Y2.5603
X1.2492 Y2.5682
X1.2534 Y2.5762
X1.2573 Y2.5843
X1.261 Y2.5925
X1.2644 Y2.6009
X1.2676 Y2.6093
X1.2704 Y2.6179
X1.273 Y2.6265
X1.2754 Y2.6352
X1.2774 Y2.644
X1.2792 Y2.6529
X1.2807 Y2.6617
X1.2819 Y2.6707
X1.2828 Y2.6796
X1.2835 Y2.6886
X1.2838 Y2.6976
X1.2839 Y2.7066
X1.2837 Y2.7156
X1.2832 Y2.7246
X1.2824 Y2.7336
X1.2814 Y2.7425
X1.28 Y2.7514
X1.2784 Y2.7603
X1.2765 Y2.7691
X1.2743 Y2.7778
X1.2719 Y2.7865
X1.2692 Y2.7951
X1.2662 Y2.8035
X1.2629 Y2.8119
X1.2594 Y2.8202
X1.2556 Y2.8284
X1.2516 Y2.8364
X1.2473 Y2.8443
X1.2427 Y2.8521
X1.238 Y2.8597
X1.2329 Y2.8672
X1.2277 Y2.8745
X1.2222 Y2.8816
X1.2165 Y2.8886
X1.2106 Y2.8953
X1.2044 Y2.9019
X1.1981 Y2.9083
X1.1915 Y2.9145
X1.1848 Y2.9205
X1.1779 Y2.9262
X1.1707 Y2.9318
X1.1635 Y2.9371
X1.156 Y2.9422
X1.1484 Y2.947
X1.1407 Y2.9517
X1.1328 Y2.956
X1.1247 Y2.9601
X1.1165 Y2.964
X1.1083 Y2.9676
X1.0999 Y2.9709
X1.0913 Y2.974
X1.0827 Y2.9768
X1.0741 Y2.9793
X1.0653 Y2.9816
X1.0565 Y2.9835
X1.0476 Y2.9852
X1.0386 Y2.9867
X1.0296 Y2.9878
X1.0206 Y2.9886
X1.0115 Y2.9892
X1.0024 Y2.9895
X0.9934 Y2.9894
X0.9843 Y2.9891
X0.9752 Y2.9886
X0.9662 Y2.9877
X0.9571 Y2.9865
X0.9481 Y2.9851
X0.9392 Y2.9834
X0.9303 Y2.9813
X0.9215 Y2.979
X0.9128 Y2.9765
X0.9041 Y2.9736
X0.8955 Y2.9705
X0.8871 Y2.9671
X0.8787 Y2.9635
X0.8705 Y2.9595
X0.8624 Y2.9554
X0.8544 Y2.9509
X0.8465 Y2.9462
X0.8388 Y2.9413
X0.8313 Y2.9361
X0.824 Y2.9307
X0.8168 Y2.9251
X0.8097 Y2.9192
X0.8029 Y2.9131
X0.7963 Y2.9068
X0.7899 Y2.9003
X0.7836 Y2.8936
X0.7776 Y2.8867
X0.7718 Y2.8796
X0.7663 Y2.8723
X0.761 Y2.8649
X0.7559 Y2.8572
X0.751 Y2.8495
X0.7464 Y2.8416
X0.7421 Y2.8335
X0.738 Y2.8253
X0.7341 Y2.817
X0.7306 Y2.8085
X0.7273 Y2.8
X0.7243 Y2.7913
X0.7215 Y2.7826
X0.719 Y2.7737
X0.7168 Y2.7648
X0.7149 Y2.7558
X0.7133 Y2.7468
X0.712 Y2.7377
X0.7109 Y2.7286
X0.7101 Y2.7195
X0.7097 Y2.7103
X0.7095 Y2.7011
X0.7096 Y2.692
X0.71 Y2.6828
X0.7107 Y2.6736
X0.7116 Y2.6645
X0.7129 Y2.6554
X0.7144 Y2.6464
X0.7163 Y2.6374
X0.7184 Y2.6285
X0.7208 Y2.6196
X0.7235 Y2.6108
X0.7264 Y2.6021
X0.7296 Y2.5935
X0.7331 Y2.585
X0.7369 Y2.5767
X0.7409 Y2.5684
X0.7452 Y2.5603
X0.7498 Y2.5523
X0.7545 Y2.5445
X0.7596 Y2.5368
X0.7649 Y2.5293
X0.7704 Y2.5219
X0.7761 Y2.5148
X0.7821 Y2.5078
X0.7883 Y2.501
X0.7947 Y2.4944
X0.8013 Y2.488
X0.8081 Y2.4818
X0.815 Y2.4759
X0.8222 Y2.4701
X0.8296 Y2.4646
X0.8371 Y2.4593
X0.8448 Y2.4543
X0.8526 Y2.4495
X0.8606 Y2.445
X0.8688 Y2.4407
X0.877 Y2.4367
X0.8854 Y2.4329
X0.8939 Y2.4294
X0.9025 Y2.4262
X0.9112 Y2.4233
X0.92 Y2.4206
X0.9289 Y2.4182
X0.9379 Y2.4161
X0.9469 Y2.4142
X0.956 Y2.4127
X0.9651 Y2.4114
X0.9743 Y2.4105
X0.9835 Y2.4098
X0.9927 Y2.4094
X1.0019 Y2.4093
X1.0111 Y2.4095
X1.0204 Y2.41
X1.0296 Y2.4108
X1.0388 Y2.4119
X1.0479 Y2.4132
X1.057 Y2.4149
X1.066 Y2.4168
X1.075 Y2.419
X1.084 Y2.4215
X1.0928 Y2.4243
X1.1015 Y2.4274
X1.1102 Y2.4307
X1.1187 Y2.4344
X1.1272 Y2.4383
X1.1355 Y2.4424
X1.1437 Y2.4468
X1.1517 Y2.4515
X1.1596 Y2.4564
X1.1673 Y2.4616
X1.1749 Y2.467
X1.1823 Y2.4727
X1.1895 Y2.4786
X1.1965 Y2.4847
X1.2034 Y2.4911
X1.21 Y2.4977
X1.2164 Y2.5044
X1.2226 Y2.5114
X1.2286 Y2.5186
X1.2344 Y2.5259
X1.2399 Y2.5335
X1.2452 Y2.5412
X1.2503 Y2.549
X1.255 Y2.5571
X1.2596 Y2.5653
X1.2639 Y2.5736
X1.2679 Y2.582
X1.2716 Y2.5906
X1.2751 Y2.5993
X1.2783 Y2.6081
X1.2812 Y2.617
X1.2838 Y2.6259
X1.2861 Y2.635
X1.2882 Y2.6441
X1.29 Y2.6533
X1.2914 Y2.6625
X1.2926 Y2.6718
X1.2935 Y2.6811
X1.2941 Y2.6904
X1.2944 Y2.6997
Y2.7091
X1.2941 Y2.7184
X1.2935 Y2.7277
X1.2927 Y2.737
X1.2915 Y2.7463
X1.29 Y2.7555
X1.2883 Y2.7647
X1.2862 Y2.7738
X1.2839 Y2.7828
X1.2813 Y2.7918
X1.2784 Y2.8006
X1.2752 Y2.8094
X1.2717 Y2.8181
X1.268 Y2.8266
X1.264 Y2.8351
X1.2598 Y2.8434
X1.2553 Y2.8515
X1.2505 Y2.8595
X1.2455 Y2.8674
X1.2402 Y2.8751
X1.2347 Y2.8826
X1.2289 Y2.89
X1.223 Y2.8972
X1.2168 Y2.9041
X1.2103 Y2.9109
X1.2037 Y2.9175
X1.1969 Y2.9239
X1.1898 Y2.93
X1.1826 Y2.9359
X1.1752 Y2.9416
X1.1676 Y2.9471
X1.1598 Y2.9523
X1.1519 Y2.9572
X1.1438 Y2.962
X1.1356 Y2.9664
X1.1272 Y2.9706
X1.1187 Y2.9745
X1.1101 Y2.9782
X1.1013 Y2.9816
X1.0925 Y2.9847
X1.0835 Y2.9875
X1.0745 Y2.9901
X1.0654 Y2.9924
X1.0562 Y2.9943
X1.047 Y2.996
X1.0377 Y2.9974
X1.0283 Y2.9985
X1.019 Y2.9993
X1.0096 Y2.9998
X1.0002 Y3
X0.9908 Y2.9999
X0.9813 Y2.9995
X0.9719 Y2.9989
X0.9626 Y2.9979
X0.9532 Y2.9966
X0.9439 Y2.995
X0.9347 Y2.9932
X0.9255 Y2.991
X0.9164 Y2.9885
X0.9073 Y2.9858
X0.8984 Y2.9828
X0.8895 Y2.9795
X0.8808 Y2.9759
X0.8721 Y2.972
X0.8636 Y2.9679
X0.8553 Y2.9635
X0.847 Y2.9588
X0.8389 Y2.9539
X0.831 Y2.9487
X0.8232 Y2.9433
X0.8157 Y2.9376
X0.8082 Y2.9317
X0.801 Y2.9256
X0.794 Y2.9192
X0.7872 Y2.9126
X0.7806 Y2.9058
X0.7742 Y2.8988
X0.768 Y2.8916
X0.7621 Y2.8842
X0.7564 Y2.8766
X0.7509 Y2.8689
X0.7457 Y2.8609
X0.7407 Y2.8528
X0.736 Y2.8446
X0.7316 Y2.8362
X0.7274 Y2.8277
X0.7235 Y2.819
X0.7199 Y2.8102
X0.7166 Y2.8013
X0.7135 Y2.7923
X0.7107 Y2.7832
X0.7082 Y2.7741
X0.706 Y2.7648
X0.7041 Y2.7555
X0.7025 Y2.7461
X0.7012 Y2.7367
X0.7002 Y2.7273
X0.6995 Y2.7178
X0.699 Y2.7083
X0.6989 Y2.6988
X0.6991 Y2.6893
X0.6996 Y2.6798
X0.7004 Y2.6703
X0.7015 Y2.6608
X0.7028 Y2.6514
X0.7045 Y2.6421
X0.7065 Y2.6328
X0.7088 Y2.6235
X0.7113 Y2.6143
X0.7142 Y2.6053
X0.7173 Y2.5963
X0.7207 Y2.5874
X0.7244 Y2.5786
X0.7284 Y2.57
X0.7326 Y2.5615
X0.7371 Y2.5531
X0.7419 Y2.5449
X0.7469 Y2.5368
X0.7522 Y2.5289
X0.7578 Y2.5211
X0.7635 Y2.5136
X0.7695 Y2.5062
X0.7758 Y2.499
X0.7822 Y2.492
X0.7889 Y2.4852
X0.7958 Y2.4787
X0.8029 Y2.4723
X0.8102 Y2.4662
X0.8177 Y2.4603
X0.8254 Y2.4547
X0.8332 Y2.4493
X0.8412 Y2.4441
X0.8494 Y2.4392
X0.8577 Y2.4346
X0.8662 Y2.4302
X0.8748 Y2.4261
X0.8835 Y2.4223
X0.8923 Y2.4187
X0.9013 Y2.4155
X0.9103 Y2.4125
X0.9195 Y2.4098
X0.9287 Y2.4074
X0.938 Y2.4053
X0.9474 Y2.4034
X0.9568 Y2.4019
X0.9663 Y2.4007
X0.9758 Y2.3998
X0.9853 Y2.3991
X0.9949 Y2.3988
X1.0044
X1.014 Y2.3991
X1.0235 Y2.3997
X1.0331 Y2.4005
X1.0426 Y2.4017
X1.052 Y2.4032
X1.0615 Y2.405
X1.0708 Y2.4071
X1.0801 Y2.4095
X1.0893 Y2.4121
X1.0985 Y2.4151
X1.1075 Y2.4184
X1.1164 Y2.4219
X1.1253 Y2.4257
X1.134 Y2.4298
X1.1426 Y2.4342
X1.151 Y2.4388
X1.1593 Y2.4438
X1.1674 Y2.4489
X1.1754 Y2.4544
X1.1832 Y2.46
X1.1908 Y2.466
X1.1982 Y2.4721
X1.2054 Y2.4785
X1.2125 Y2.4852
X1.2193 Y2.492
X1.2259 Y2.4991
X1.2323 Y2.5064
X1.2384 Y2.5139
X1.2443 Y2.5215
X1.25 Y2.5294
X1.2554 Y2.5374
X1.2605 Y2.5456
X1.2654 Y2.5539
X1.2701 Y2.5625
X1.2744 Y2.5711
X1.2785 Y2.5799
X1.2823 Y2.5888
X1.2858 Y2.5978
X1.2891 Y2.607
X1.292 Y2.6162
X1.2946 Y2.6255
X1.297 Y2.6349
X1.299 Y2.6444
X1.3008 Y2.6539
X1.3022 Y2.6634
X1.3034 Y2.6731
X1.3042 Y2.6827
X1.3048 Y2.6924
X1.305 Y2.702
X1.3049 Y2.7117
X1.3046 Y2.7214
X1.3039 Y2.731
X1.3029 Y2.7406
X1.3016 Y2.7502
X1.3 Y2.7598
X1.2981 Y2.7692
X1.2959 Y2.7786
X1.2934 Y2.788
X1.2906 Y2.7972
X1.2876 Y2.8064
X1.2842 Y2.8155
X1.2806 Y2.8244
X1.2766 Y2.8332
X1.2724 Y2.8419
X1.2679 Y2.8505
X1.2632 Y2.8589
X1.2582 Y2.8672
X1.2529 Y2.8753
X1.2474 Y2.8832
X1.2416 Y2.891
X1.2356 Y2.8985
X1.2293 Y2.9059
X1.2229 Y2.9131
X1.2162 Y2.9201
X1.2092 Y2.9268
X1.2021 Y2.9334
X1.1947 Y2.9397
X1.1872 Y2.9457
X1.1795 Y2.9516
X1.1716 Y2.9572
X1.1635 Y2.9625
X1.1552 Y2.9676
X1.1468 Y2.9724
X1.1382 Y2.9769
X1.1295 Y2.9812
X1.1207 Y2.9852
X1.1117 Y2.9889
X1.1027 Y2.9924
X1.0935 Y2.9955
X1.0842 Y2.9984
X1.0748 Y3.0009
X1.0654 Y3.0032
X1.0558 Y3.0052
X1.0462 Y3.0068
X1.0366 Y3.0082
X1.0269 Y3.0093
X1.0172 Y3.01
X1.0075 Y3.0105
X0.9977 Y3.0106
X0.988 Y3.0104
X0.9782 Y3.0099
X0.9685 Y3.0092
X0.9588 Y3.0081
X0.9492 Y3.0067
X0.9395 Y3.005
X0.93 Y3.003
X0.9205 Y3.0006
X0.9111 Y2.998
X0.9017 Y2.9951
X0.8925 Y2.9919
X0.8833 Y2.9884
X0.8743 Y2.9846
X0.8654 Y2.9806
X0.8566 Y2.9762
X0.848 Y2.9716
X0.8395 Y2.9667
X0.8312 Y2.9615
X0.823 Y2.9561
X0.815 Y2.9504
X0.8072 Y2.9445
X0.7996 Y2.9383
X0.7922 Y2.9319
X0.7849 Y2.9252
X0.7779 Y2.9184
X0.7712 Y2.9113
X0.7646 Y2.9039
X0.7583 Y2.8964
X0.7522 Y2.8887
X0.7463 Y2.8808
X0.7408 Y2.8727
X0.7354 Y2.8645
X0.7304 Y2.8561
X0.7256 Y2.8475
X0.721 Y2.8387
X0.7168 Y2.8299
X0.7128 Y2.8209
X0.7091 Y2.8118
X0.7057 Y2.8025
X0.7026 Y2.7932
X0.6998 Y2.7838
X0.6973 Y2.7742
X0.6951 Y2.7646
X0.6933 Y2.755
X0.6917 Y2.7453
X0.6904 Y2.7355
X0.6894 Y2.7257
X0.6887 Y2.7159
X0.6884 Y2.7061
X0.6883 Y2.6962
X0.6886 Y2.6864
X0.6892 Y2.6766
X0.6901 Y2.6667
X0.6913 Y2.657
X0.6928 Y2.6472
X0.6946 Y2.6376
X0.6967 Y2.6279
X0.6992 Y2.6184
X0.7019 Y2.6089
X0.7049 Y2.5996
X0.7082 Y2.5903
X0.7118 Y2.5811
X0.7157 Y2.5721
X0.7199 Y2.5632
X0.7244 Y2.5544
X0.7291 Y2.5457
X0.7341 Y2.5373
X0.7394 Y2.5289
X0.7449 Y2.5208
X0.7507 Y2.5128
X0.7568 Y2.505
X0.763 Y2.4974
X0.7696 Y2.49
X0.7763 Y2.4829
X0.7833 Y2.4759
X0.7905 Y2.4692
X0.7979 Y2.4627
X0.8055 Y2.4564
X0.8133 Y2.4504
X0.8213 Y2.4446
X0.8294 Y2.4391
X0.8378 Y2.4338
X0.8463 Y2.4288
X0.8549 Y2.4241
X0.8637 Y2.4196
X0.8726 Y2.4154
X0.8817 Y2.4115
X0.8909 Y2.4079
X0.9002 Y2.4046
X0.9096 Y2.4016
X0.9191 Y2.3989
X0.9287 Y2.3965
X0.9383 Y2.3944
X0.948 Y2.3926
X0.9578 Y2.3911
X0.9676 Y2.3899
X0.9774 Y2.389
X0.9873 Y2.3884
X0.9972 Y2.3882
X1.0071
X1.017 Y2.3886
X1.0269 Y2.3893
X1.0367 Y2.3903
X1.0466 Y2.3916
X1.0564 Y2.3932
X1.0661 Y2.3951
X1.0758 Y2.3974
X1.0854 Y2.3999
X1.0949 Y2.4028
X1.1043 Y2.4059
X1.1136 Y2.4093
X1.1229 Y2.4131
X1.132 Y2.4171
X1.1409 Y2.4214
X1.1498 Y2.426
X1.1585 Y2.4309
X1.167 Y2.4361
X1.1754 Y2.4415
X1.1836 Y2.4472
X1.1916 Y2.4531
X1.1994 Y2.4593
X1.2071 Y2.4658
X1.2145 Y2.4724
X1.2217 Y2.4794
X1.2287 Y2.4865
X1.2355 Y2.4939
X1.242 Y2.5015
X1.2483 Y2.5092
X1.2544 Y2.5172
X1.2601 Y2.5254
X1.2657 Y2.5337
X1.2709 Y2.5423
X1.2759 Y2.551
X1.2807 Y2.5598
X1.2851 Y2.5688
X1.2892 Y2.5779
X1.2931 Y2.5872
X1.2967 Y2.5965
X1.2999 Y2.606
X1.3029 Y2.6156
X1.3056 Y2.6252
X1.3079 Y2.635
X1.31 Y2.6448
X1.3117 Y2.6546
X1.3131 Y2.6645
X1.3142 Y2.6745
X1.315 Y2.6845
X1.3155 Y2.6945
X1.3156 Y2.7045
X1.3155 Y2.7145
X1.315 Y2.7245
X1.3142 Y2.7345
X1.3131 Y2.7444
X1.3117 Y2.7543
X1.31 Y2.7642
X1.3079 Y2.774
X1.3056 Y2.7837
X1.3029 Y2.7933
X1.3 Y2.8029
X1.2967 Y2.8123
X1.2932 Y2.8217
X1.2893 Y2.8309
X1.2852 Y2.84
X1.2808 Y2.849
X1.276 Y2.8578
X1.2711 Y2.8665
X1.2658 Y2.875
X1.2603 Y2.8833
X1.2545 Y2.8915
X1.2485 Y2.8995
X1.2422 Y2.9073
X1.2357 Y2.9148
X1.2289 Y2.9222
X1.2219 Y2.9294
X1.2147 Y2.9363
X1.2072 Y2.943
X1.1996 Y2.9495
X1.1917 Y2.9557
X1.1837 Y2.9617
X1.1754 Y2.9674
X1.167 Y2.9728
X1.1584 Y2.978
X1.1497 Y2.9829
X1.1408 Y2.9876
X1.1318 Y2.9919
X1.1226 Y2.996
X1.1133 Y2.9998
X1.1038 Y3.0032
X1.0943 Y3.0064
X1.0847 Y3.0093
X1.075 Y3.0119
X1.0652 Y3.0141
X1.0553 Y3.0161
X1.0454 Y3.0177
X1.0354 Y3.0191
X1.0253 Y3.0201
X1.0153 Y3.0208
X1.0052 Y3.0212
X0.9951
X0.9851 Y3.021
X0.975 Y3.0204
X0.9649 Y3.0195
X0.9549 Y3.0183
X0.9449 Y3.0167
X0.935 Y3.0149
X0.9251 Y3.0127
X0.9153 Y3.0103
X0.9056 Y3.0075
X0.8959 Y3.0044
X0.8864 Y3.001
X0.877 Y2.9973
X0.8677 Y2.9933
X0.8585 Y2.989
X0.8494 Y2.9845
X0.8406 Y2.9796
X0.8318 Y2.9745
X0.8232 Y2.9691
X0.8148 Y2.9634
X0.8066 Y2.9574
X0.7986 Y2.9512
X0.7908 Y2.9448
X0.7831 Y2.9381
X0.7757 Y2.9311
X0.7685 Y2.924
X0.7616 Y2.9166
X0.7549 Y2.909
X0.7484 Y2.9011
X0.7422 Y2.8931
X0.7362 Y2.8849
X0.7305 Y2.8765
X0.725 Y2.8679
X0.7199 Y2.8591
X0.715 Y2.8502
X0.7104 Y2.8412
X0.706 Y2.832
X0.702 Y2.8226
X0.6983 Y2.8132
X0.6948 Y2.8036
X0.6917 Y2.7939
X0.6889 Y2.7841
X0.6864 Y2.7743
X0.6842 Y2.7643
X0.6823 Y2.7543
X0.6808 Y2.7443
X0.6795 Y2.7342
X0.6786 Y2.724
X0.678 Y2.7139
X0.6777 Y2.7037
Y2.6935
X0.6781 Y2.6833
X0.6788 Y2.6732
X0.6798 Y2.663
X0.6811 Y2.6529
X0.6828 Y2.6429
X0.6847 Y2.6329
X0.687 Y2.623
X0.6896 Y2.6131
X0.6925 Y2.6033
X0.6957 Y2.5937
X0.6992 Y2.5841
X0.703 Y2.5747
X0.7071 Y2.5653
X0.7115 Y2.5562
X0.7162 Y2.5471
X0.7212 Y2.5382
X0.7264 Y2.5295
X0.7319 Y2.5209
X0.7377 Y2.5125
X0.7438 Y2.5043
X0.7501 Y2.4963
X0.7566 Y2.4885
X0.7634 Y2.481
X0.7705 Y2.4736
X0.7778 Y2.4664
X0.7852 Y2.4595
X0.793 Y2.4529
X0.8009 Y2.4464
X0.809 Y2.4403
X0.8173 Y2.4344
X0.8258 Y2.4287
X0.8344 Y2.4233
X0.8433 Y2.4182
X0.8523 Y2.4134
X0.8614 Y2.4089
X0.8707 Y2.4047
X0.8801 Y2.4007
X0.8896 Y2.3971
X0.8993 Y2.3937
X0.909 Y2.3907
X0.9188 Y2.3879
X0.9288 Y2.3855
X0.9388 Y2.3834
X0.9488 Y2.3816
X0.9589 Y2.3802
X0.9691 Y2.379
X0.9793 Y2.3782
X0.9895 Y2.3777
X0.9997 Y2.3775
X1.01 Y2.3776
X1.0202 Y2.3781
X1.0304 Y2.3789
X1.0406 Y2.38
X1.0507 Y2.3814
X1.0609 Y2.3832
X1.0709 Y2.3853
X1.0809 Y2.3877
X1.0908 Y2.3904
X1.1006 Y2.3934
X1.1103 Y2.3967
X1.12 Y2.4004
X1.1295 Y2.4043
X1.1388 Y2.4085
X1.1481 Y2.4131
X1.1572 Y2.4179
X1.1661 Y2.423
X1.1749 Y2.4284
X1.1835 Y2.4341
X1.192 Y2.44
X1.2002 Y2.4463
X1.2082 Y2.4527
X1.2161 Y2.4595
X1.2237 Y2.4664
X1.2311 Y2.4737
X1.2383 Y2.4811
X1.2452 Y2.4888
X1.2519 Y2.4967
X1.2583 Y2.5048
X1.2645 Y2.5131
X1.2704 Y2.5216
X1.2761 Y2.5302
X1.2815 Y2.5391
X1.2865 Y2.5481
X1.2914 Y2.5573
X1.2959 Y2.5666
X1.3001 Y2.5761
X1.304 Y2.5857
X1.3076 Y2.5954
X1.3109 Y2.6052
X1.3139 Y2.6151
X1.3165 Y2.6251
X1.3189 Y2.6352
X1.3209 Y2.6453
X1.3226 Y2.6555
X1.324 Y2.6658
X1.3251 Y2.6761
X1.3258 Y2.6864
X1.3262 Y2.6968
X1.3263 Y2.7071
X1.3261 Y2.7175
X1.3255 Y2.7278
X1.3246 Y2.7381
X1.3234 Y2.7484
X1.3218 Y2.7586
X1.32 Y2.7688
X1.3178 Y2.7789
X1.3153 Y2.7889
X1.3124 Y2.7988
X1.3093 Y2.8087
X1.3059 Y2.8184
X1.3021 Y2.8281
X1.298 Y2.8376
X1.2937 Y2.847
X1.289 Y2.8562
X1.2841 Y2.8653
X1.2789 Y2.8742
X1.2734 Y2.883
X1.2676 Y2.8915
X1.2616 Y2.8999
X1.2552 Y2.9081
X1.2487 Y2.9161
X1.2419 Y2.9239
X1.2348 Y2.9315
X1.2275 Y2.9388
X1.22 Y2.9459
X1.2122 Y2.9528
X1.2043 Y2.9594
X1.1961 Y2.9658
X1.1877 Y2.9719
X1.1792 Y2.9777
X1.1704 Y2.9833
X1.1615 Y2.9886
X1.1524 Y2.9936
X1.1432 Y2.9983
X1.1338 Y3.0027
X1.1243 Y3.0068
X1.1146 Y3.0107
X1.1049 Y3.0142
X1.095 Y3.0174
X1.085 Y3.0203
X1.0749 Y3.0229
X1.0648 Y3.0251
X1.0546 Y3.0271
X1.0443 Y3.0287
X1.034 Y3.03
X1.0236 Y3.031
X1.0132 Y3.0316
X1.0028 Y3.0319
X0.9924
X0.9819 Y3.0315
X0.9715 Y3.0308
X0.9611 Y3.0298
X0.9508 Y3.0285
X0.9405 Y3.0268
X0.9302 Y3.0248
X0.92 Y3.0225
X0.9099 Y3.0199
X0.8999 Y3.0169
X0.89 Y3.0137
X0.8802 Y3.0101
X0.8704 Y3.0062
X0.8609 Y3.002
X0.8514 Y2.9975
X0.8421 Y2.9927
X0.833 Y2.9876
X0.824 Y2.9822
X0.8151 Y2.9766
X0.8065 Y2.9706
X0.7981 Y2.9644
X0.7898 Y2.9579
X0.7818 Y2.9512
X0.774 Y2.9442
X0.7664 Y2.937
X0.759 Y2.9295
X0.7519 Y2.9218
X0.745 Y2.9139
X0.7384 Y2.9057
X0.732 Y2.8974
X0.7259 Y2.8888
X0.7201 Y2.8801
X0.7145 Y2.8712
X0.7092 Y2.8621
X0.7043 Y2.8529
X0.6996 Y2.8435
X0.6952 Y2.8339
X0.6911 Y2.8242
X0.6873 Y2.8144
X0.6839 Y2.8045
X0.6807 Y2.7945
X0.6779 Y2.7843
X0.6754 Y2.7741
X0.6732 Y2.7638
X0.6713 Y2.7535
X0.6698 Y2.7431
X0.6686 Y2.7326
X0.6677 Y2.7222
X0.6672 Y2.7116
X0.667 Y2.7011
X0.6671 Y2.6906
X0.6676 Y2.6801
X0.6683 Y2.6696
X0.6695 Y2.6591
X0.6709 Y2.6487
X0.6727 Y2.6384
X0.6748 Y2.628
X0.6772 Y2.6178
X0.68 Y2.6076
X0.6831 Y2.5976
X0.6865 Y2.5876
X0.6902 Y2.5778
X0.6942 Y2.568
X0.6985 Y2.5584
X0.7031 Y2.549
X0.708 Y2.5397
X0.7132 Y2.5305
X0.7187 Y2.5216
X0.7245 Y2.5128
X0.7306 Y2.5041
X0.7369 Y2.4957
X0.7435 Y2.4875
X0.7503 Y2.4795
X0.7574 Y2.4717
X0.7648 Y2.4642
X0.7723 Y2.4568
X0.7801 Y2.4498
X0.7881 Y2.4429
X0.7964 Y2.4364
X0.8048 Y2.4301
X0.8134 Y2.424
X0.8223 Y2.4183
X0.8312 Y2.4128
X0.8404 Y2.4076
X0.8497 Y2.4027
X0.8592 Y2.3981
X0.8688 Y2.3938
X0.8786 Y2.3898
X0.8885 Y2.3861
X0.8985 Y2.3827
X0.9086 Y2.3797
X0.9187 Y2.3769
X0.929 Y2.3745
X0.9394 Y2.3724
X0.9498 Y2.3706
X0.9602 Y2.3692
X0.9707 Y2.3681
X0.9813 Y2.3673
X0.9918 Y2.3669
X1.0024 Y2.3668
X1.013 Y2.367
X1.0236 Y2.3676
X1.0341 Y2.3685
X1.0446 Y2.3697
X1.0551 Y2.3713
X1.0655 Y2.3732
X1.0759 Y2.3754
X1.0862 Y2.378
X1.0964 Y2.3808
X1.1065 Y2.384
X1.1165 Y2.3876
X1.1264 Y2.3914
X1.1362 Y2.3955
X1.1459 Y2.4
X1.1554 Y2.4048
X1.1647 Y2.4098
X1.1739 Y2.4152
X1.183 Y2.4208
X1.1918 Y2.4268
X1.2005 Y2.433
X1.2089 Y2.4395
X1.2172 Y2.4462
X1.2252 Y2.4533
X1.233 Y2.4605
X1.2406 Y2.468
X1.248 Y2.4758
X1.2551 Y2.4838
X1.2619 Y2.492
X1.2685 Y2.5004
X1.2748 Y2.509
X1.2809 Y2.5178
X1.2866 Y2.5268
X1.2921 Y2.536
X1.2973 Y2.5454
X1.3022 Y2.5549
X1.3067 Y2.5646
X1.311 Y2.5744
X1.315 Y2.5843
X1.3186 Y2.5944
X1.3219 Y2.6045
X1.3249 Y2.6148
X1.3276 Y2.6251
X1.33 Y2.6356
X1.332 Y2.6461
X1.3337 Y2.6566
X1.335 Y2.6672
X1.336 Y2.6779
X1.3367 Y2.6885
X1.337 Y2.6992
Y2.7099
X1.3367 Y2.7206
X1.336 Y2.7313
X1.335 Y2.7419
X1.3336 Y2.7525
X1.332 Y2.763
X1.3299 Y2.7735
X1.3276 Y2.7839
X1.3249 Y2.7943
X1.3219 Y2.8045
X1.3186 Y2.8147
X1.315 Y2.8247
X1.311 Y2.8346
X1.3067 Y2.8444
X1.3022 Y2.8541
X1.2973 Y2.8636
X1.2921 Y2.8729
X1.2866 Y2.8821
X1.2809 Y2.8911
X1.2748 Y2.8999
X1.2685 Y2.9085
X1.2619 Y2.9169
X1.2551 Y2.9251
X1.248 Y2.9331
X1.2406 Y2.9409
X1.233 Y2.9484
X1.2252 Y2.9557
X1.2172 Y2.9627
X1.2089 Y2.9695
X1.2004 Y2.976
X1.1917 Y2.9822
X1.1828 Y2.9882
X1.1737 Y2.9938
X1.1645 Y2.9992
X1.155 Y3.0043
X1.1455 Y3.0091
X1.1357 Y3.0136
X1.1259 Y3.0178
X1.1159 Y3.0217
X1.1057 Y3.0252
X1.0955 Y3.0285
X1.0852 Y3.0314
X1.0748 Y3.0339
X1.0643 Y3.0362
X1.0537 Y3.0381
X1.0431 Y3.0397
X1.0324 Y3.041
X1.0217 Y3.0419
X1.0109 Y3.0424
X1.0002 Y3.0427
X0.9894 Y3.0426
X0.9787 Y3.0421
X0.9679 Y3.0413
X0.9572 Y3.0402
X0.9465 Y3.0387
X0.9359 Y3.0369
X0.9253 Y3.0348
X0.9148 Y3.0323
X0.9044 Y3.0295
X0.8941 Y3.0264
X0.8838 Y3.0229
X0.8737 Y3.0191
X0.8637 Y3.015
X0.8539 Y3.0106
X0.8442 Y3.0059
X0.8346 Y3.0009
X0.8252 Y2.9955
X0.8159 Y2.9899
X0.8069 Y2.984
X0.798 Y2.9778
X0.7894 Y2.9713
X0.7809 Y2.9645
X0.7727 Y2.9575
X0.7646 Y2.9502
X0.7569 Y2.9427
X0.7493 Y2.9349
X0.742 Y2.9269
X0.735 Y2.9187
X0.7282 Y2.9102
X0.7217 Y2.9016
X0.7155 Y2.8927
X0.7095 Y2.8836
X0.7039 Y2.8744
X0.6985 Y2.8649
X0.6934 Y2.8553
X0.6887 Y2.8456
X0.6842 Y2.8357
X0.6801 Y2.8257
X0.6763 Y2.8155
X0.6728 Y2.8052
X0.6696 Y2.7949
X0.6668 Y2.7844
X0.6643 Y2.7738
X0.6621 Y2.7632
X0.6603 Y2.7525
X0.6588 Y2.7417
X0.6576 Y2.7309
X0.6568 Y2.7201
X0.6563 Y2.7093
X0.6562 Y2.6984
X0.6564 Y2.6875
X0.657 Y2.6767
X0.6579 Y2.6659
X0.6591 Y2.6551
X0.6607 Y2.6443
X0.6626 Y2.6336
X0.6649 Y2.623
X0.6675 Y2.6125
X0.6704 Y2.602
X0.6737 Y2.5916
X0.6773 Y2.5814
X0.6812 Y2.5713
X0.6854 Y2.5612
X0.6899 Y2.5514
X0.6948 Y2.5416
X0.6999 Y2.5321
X0.7054 Y2.5227
X0.7111 Y2.5135
X0.7172 Y2.5044
X0.7235 Y2.4956
X0.7301 Y2.4869
X0.737 Y2.4785
X0.7441 Y2.4703
X0.7515 Y2.4623
X0.7591 Y2.4546
X0.767 Y2.4471
X0.7751 Y2.4399
X0.7834 Y2.4329
X0.792 Y2.4262
X0.8007 Y2.4197
X0.8097 Y2.4136
X0.8189 Y2.4077
X0.8282 Y2.4021
X0.8377 Y2.3968
X0.8474 Y2.3918
X0.8572 Y2.3872
X0.8672 Y2.3828
X0.8773 Y2.3787
X0.8875 Y2.375
X0.8978 Y2.3716
X0.9083 Y2.3685
X0.9188 Y2.3658
X0.9294 Y2.3634
X0.9401 Y2.3613
X0.9509 Y2.3596
X0.9617 Y2.3582
X0.9726 Y2.3571
X0.9835 Y2.3564
X0.9944 Y2.3561
X1.0053 Y2.356
X1.0162 Y2.3564
X1.0271 Y2.357
X1.038 Y2.3581
X1.0488 Y2.3594
X1.0596 Y2.3611
X1.0704 Y2.3632
X1.0811 Y2.3656
X1.0917 Y2.3683
X1.1022 Y2.3713
X1.1126 Y2.3747
X1.1229 Y2.3784
X1.1331 Y2.3825
X1.1432 Y2.3868
X1.1531 Y2.3915
X1.1629 Y2.3965
X1.1725 Y2.4018
X1.1819 Y2.4074
X1.1912 Y2.4133
X1.2003 Y2.4195
X1.2092 Y2.426
X1.2178 Y2.4328
X1.2263 Y2.4398
X1.2345 Y2.4471
X1.2425 Y2.4547
X1.2503 Y2.4625
X1.2578 Y2.4706
X1.2651 Y2.4789
X1.2721 Y2.4874
X1.2788 Y2.4961
X1.2852 Y2.5051
X1.2914 Y2.5142
X1.2973 Y2.5236
X1.3028 Y2.5331
X1.3081 Y2.5428
X1.3131 Y2.5526
X1.3177 Y2.5627
X1.322 Y2.5728
X1.326 Y2.5831
X1.3297 Y2.5935
X1.3331 Y2.604
X1.3361 Y2.6146
X1.3387 Y2.6253
X1.3411 Y2.6361
X1.3431 Y2.647
X1.3447 Y2.6579
X1.346 Y2.6688
X1.347 Y2.6798
X1.3476 Y2.6908
X1.3478 Y2.7019
Y2.7129
X1.3473 Y2.7239
X1.3465 Y2.7349
X1.3454 Y2.7459
X1.3439 Y2.7568
X1.3421 Y2.7677
X1.3399 Y2.7785
X1.3374 Y2.7892
X1.3346 Y2.7998
X1.3314 Y2.8104
X1.3279 Y2.8208
X1.324 Y2.8312
X1.3199 Y2.8414
X1.3154 Y2.8514
X1.3106 Y2.8614
X1.3055 Y2.8711
X1.3001 Y2.8807
X1.2943 Y2.8901
X1.2883 Y2.8994
X1.282 Y2.9084
X1.2754 Y2.9173
X1.2686 Y2.9259
X1.2614 Y2.9343
X1.254 Y2.9425
X1.2464 Y2.9504
X1.2385 Y2.9581
X1.2303 Y2.9656
X1.222 Y2.9727
X1.2134 Y2.9797
X1.2045 Y2.9863
X1.1955 Y2.9927
X1.1863 Y2.9988
X1.1769 Y3.0045
X1.1673 Y3.01
X1.1575 Y3.0152
X1.1476 Y3.0201
X1.1375 Y3.0246
X1.1273 Y3.0289
X1.1169 Y3.0328
X1.1065 Y3.0364
X1.0959 Y3.0396
X1.0852 Y3.0425
X1.0744 Y3.0451
X1.0636 Y3.0473
X1.0527 Y3.0492
X1.0417 Y3.0508
X1.0306 Y3.052
X1.0196 Y3.0528
X1.0085 Y3.0533
X0.9974 Y3.0535
X0.9863 Y3.0533
X0.9752 Y3.0527
X0.9641 Y3.0518
X0.9531 Y3.0506
X0.9421 Y3.049
X0.9311 Y3.047
X0.9202 Y3.0447
X0.9094 Y3.0421
X0.8987 Y3.0391
X0.8881 Y3.0358
X0.8775 Y3.0321
X0.8671 Y3.0281
X0.8569 Y3.0238
X0.8467 Y3.0192
X0.8367 Y3.0142
X0.8269 Y3.009
X0.8172 Y3.0034
X0.8078 Y2.9975
X0.7985 Y2.9913
X0.7894 Y2.9848
X0.7805 Y2.9781
X0.7718 Y2.971
X0.7634 Y2.9637
X0.7552 Y2.9562
X0.7472 Y2.9483
X0.7395 Y2.9402
X0.732 Y2.9319
X0.7248 Y2.9234
X0.7179 Y2.9146
X0.7113 Y2.9056
X0.7049 Y2.8964
X0.6989 Y2.887
X0.6931 Y2.8774
X0.6877 Y2.8676
X0.6825 Y2.8577
X0.6777 Y2.8476
X0.6732 Y2.8374
X0.669 Y2.827
X0.6651 Y2.8165
X0.6616 Y2.8058
X0.6584 Y2.7951
X0.6556 Y2.7843
X0.6531 Y2.7734
X0.651 Y2.7624
X0.6491 Y2.7513
X0.6477 Y2.7402
X0.6466 Y2.7291
X0.6458 Y2.7179
X0.6455 Y2.7067
X0.6454 Y2.6955
X0.6457 Y2.6843
X0.6464 Y2.6731
X0.6474 Y2.662
X0.6488 Y2.6508
X0.6505 Y2.6398
X0.6526 Y2.6288
X0.655 Y2.6178
X0.6578 Y2.607
X0.6609 Y2.5962
X0.6643 Y2.5855
X0.6681 Y2.575
X0.6722 Y2.5646
X0.6767 Y2.5543
X0.6814 Y2.5441
X0.6865 Y2.5341
X0.6919 Y2.5243
X0.6976 Y2.5147
X0.7036 Y2.5052
X0.7099 Y2.4959
X0.7165 Y2.4869
X0.7234 Y2.478
X0.7305 Y2.4694
X0.738 Y2.461
X0.7456 Y2.4528
X0.7536 Y2.4449
X0.7618 Y2.4372
X0.7702 Y2.4298
X0.7788 Y2.4227
X0.7877 Y2.4158
X0.7968 Y2.4093
X0.8061 Y2.403
X0.8156 Y2.397
X0.8253 Y2.3913
X0.8351 Y2.3859
X0.8451 Y2.3809
X0.8553 Y2.3761
X0.8656 Y2.3717
X0.8761 Y2.3676
X0.8867 Y2.3639
X0.8974 Y2.3604
X0.9082 Y2.3574
X0.919 Y2.3546
X0.93 Y2.3522
X0.9411 Y2.3502
X0.9522 Y2.3485
X0.9634 Y2.3471
X0.9746 Y2.3461
X0.9858 Y2.3455
X0.9971 Y2.3452
X1.0083 Y2.3453
X1.0196 Y2.3457
X1.0308 Y2.3465
X1.042 Y2.3476
X1.0532 Y2.3491
X1.0643 Y2.351
X1.0754 Y2.3532
X1.0864 Y2.3557
X1.0973 Y2.3586
X1.1081 Y2.3618
X1.1188 Y2.3654
X1.1294 Y2.3693
X1.1399 Y2.3736
X1.1503 Y2.3782
X1.1605 Y2.3831
X1.1705 Y2.3883
X1.1804 Y2.3939
X1.1901 Y2.3997
X1.1996 Y2.4059
X1.2089 Y2.4124
X1.218 Y2.4191
X1.2269 Y2.4262
X1.2356 Y2.4335
X1.244 Y2.4411
X1.2522 Y2.449
X1.2601 Y2.4571
X1.2678 Y2.4655
X1.2752 Y2.4741
X1.2824 Y2.4829
X1.2892 Y2.492
X1.2958 Y2.5013
X1.3021 Y2.5108
X1.308 Y2.5204
X1.3137 Y2.5303
X1.3191 Y2.5403
X1.3241 Y2.5505
X1.3288 Y2.5609
X1.3332 Y2.5714
X1.3372 Y2.582
X1.3409 Y2.5928
X1.3443 Y2.6037
X1.3473 Y2.6146
X1.35 Y2.6257
X1.3523 Y2.6368
X1.3542 Y2.648
X1.3558 Y2.6593
X1.3571 Y2.6706
X1.358 Y2.6819
X1.3585 Y2.6933
X1.3587 Y2.7047
X1.3585 Y2.716
X1.358 Y2.7274
X1.3571 Y2.7387
X1.3558 Y2.75
X1.3542 Y2.7613
X1.3522 Y2.7725
X1.3499 Y2.7836
X1.3472 Y2.7946
X1.3442 Y2.8056
X1.3408 Y2.8164
X1.3371 Y2.8272
X1.3331 Y2.8378
X1.3287 Y2.8483
X1.324 Y2.8586
X1.319 Y2.8688
X1.3136 Y2.8788
X1.3079 Y2.8887
X1.302 Y2.8984
X1.2957 Y2.9078
X1.2891 Y2.9171
X1.2822 Y2.9262
X1.2751 Y2.935
X1.2677 Y2.9436
X1.26 Y2.952
X1.252 Y2.9601
X1.2438 Y2.968
X1.2353 Y2.9756
X1.2266 Y2.9829
X1.2177 Y2.99
X1.2086 Y2.9968
X1.1992 Y3.0033
X1.1896 Y3.0095
X1.1799 Y3.0153
X1.17 Y3.0209
X1.1598 Y3.0262
X1.1496 Y3.0311
X1.1391 Y3.0357
X1.1286 Y3.04
X1.1179 Y3.044
X1.107 Y3.0476
X1.0961 Y3.0508
X1.0851 Y3.0537
X1.0739 Y3.0563
X1.0627 Y3.0585
X1.0514 Y3.0604
X1.0401 Y3.0619
X1.0287 Y3.063
X1.0173 Y3.0638
X1.0059 Y3.0643
X0.9944
X0.983 Y3.064
X0.9716 Y3.0634
X0.9601 Y3.0623
X0.9488 Y3.0609
X0.9374 Y3.0592
X0.9262 Y3.0571
X0.915 Y3.0546
X0.9038 Y3.0518
X0.8928 Y3.0487
X0.8819 Y3.0452
X0.8711 Y3.0413
X0.8604 Y3.0371
X0.8498 Y3.0326
X0.8394 Y3.0277
X0.8291 Y3.0225
X0.8191 Y3.017
X0.8091 Y3.0112
X0.7994 Y3.005
X0.7899 Y2.9986
X0.7806 Y2.9918
X0.7715 Y2.9848
X0.7626 Y2.9775
X0.754 Y2.9699
X0.7456 Y2.962
X0.7374 Y2.9538
X0.7295 Y2.9455
X0.7219 Y2.9368
X0.7146 Y2.9279
X0.7075 Y2.9188
X0.7007 Y2.9095
X0.6943 Y2.9
X0.6881 Y2.8902
X0.6822 Y2.8803
X0.6767 Y2.8702
X0.6715 Y2.8599
X0.6666 Y2.8495
X0.662 Y2.8389
X0.6578 Y2.8281
X0.6539 Y2.8173
X0.6504 Y2.8063
X0.6472 Y2.7952
X0.6443 Y2.784
X0.6419 Y2.7727
X0.6397 Y2.7614
X0.638 Y2.75
X0.6366 Y2.7385
X0.6355 Y2.727
X0.6349 Y2.7155
X0.6345 Y2.704
X0.6346 Y2.6924
X0.635 Y2.6809
X0.6358 Y2.6694
X0.6369 Y2.6579
X0.6384 Y2.6464
X0.6403 Y2.635
X0.6425 Y2.6237
X0.6451 Y2.6124
X0.6481 Y2.6013
X0.6514 Y2.5902
X0.655 Y2.5792
X0.659 Y2.5684
X0.6633 Y2.5577
X0.668 Y2.5471
X0.673 Y2.5367
X0.6783 Y2.5265
X0.6839 Y2.5164
X0.6899 Y2.5065
X0.6961 Y2.4968
X0.7027 Y2.4873
X0.7096 Y2.478
X0.7167 Y2.4689
X0.7242 Y2.4601
X0.7319 Y2.4515
X0.7399 Y2.4431
X0.7481 Y2.435
X0.7566 Y2.4272
X0.7654 Y2.4196
X0.7744 Y2.4124
X0.7836 Y2.4054
X0.793 Y2.3987
X0.8026 Y2.3923
X0.8125 Y2.3862
X0.8225 Y2.3804
X0.8327 Y2.375
X0.843 Y2.3698
X0.8536 Y2.365
X0.8642 Y2.3605
X0.875 Y2.3564
X0.886 Y2.3526
X0.897 Y2.3492
X0.9082 Y2.3461
X0.9194 Y2.3434
X0.9308 Y2.341
X0.9422 Y2.339
X0.9537 Y2.3373
X0.9652 Y2.336
X0.9767 Y2.3351
X0.9883 Y2.3345
X0.9999 Y2.3343
X1.0115 Y2.3345
X1.0231 Y2.335
X1.0347 Y2.3359
X1.0462 Y2.3372
X1.0578 Y2.3388
X1.0692 Y2.3408
X1.0806 Y2.3432
X1.0919 Y2.3459
X1.1031 Y2.3489
X1.1143 Y2.3524
X1.1253 Y2.3562
X1.1362 Y2.3603
X1.1469 Y2.3648
X1.1575 Y2.3696
X1.168 Y2.3747
X1.1783 Y2.3802
X1.1884 Y2.386
X1.1984 Y2.3921
X1.2081 Y2.3985
X1.2177 Y2.4053
X1.227 Y2.4123
X1.2361 Y2.4197
X1.245 Y2.4273
X1.2536 Y2.4352
X1.262 Y2.4434
X1.2701 Y2.4518
X1.2779 Y2.4605
X1.2855 Y2.4694
X1.2928 Y2.4786
X1.2998 Y2.488
X1.3065 Y2.4976
X1.3129 Y2.5074
X1.3189 Y2.5174
X1.3247 Y2.5276
X1.3301 Y2.538
X1.3352 Y2.5486
X1.34 Y2.5593
X1.3444 Y2.5701
X1.3485 Y2.5811
X1.3522 Y2.5923
X1.3556 Y2.6035
X1.3586 Y2.6148
X1.3612 Y2.6262
X1.3635 Y2.6377
X1.3655 Y2.6493
X1.367 Y2.6609
X1.3682 Y2.6725
X1.369 Y2.6842
X1.3695 Y2.6959
X1.3696 Y2.7077
X1.3693 Y2.7194
X1.3686 Y2.7311
X1.3676 Y2.7427
X1.3662 Y2.7544
X1.3645 Y2.7659
X1.3623 Y2.7774
X1.3599 Y2.7889
X1.357 Y2.8002
X1.3538 Y2.8115
X1.3503 Y2.8227
X1.3463 Y2.8337
X1.3421 Y2.8446
X1.3375 Y2.8554
X1.3326 Y2.866
X1.3273 Y2.8765
X1.3217 Y2.8867
X1.3158 Y2.8968
X1.3095 Y2.9067
X1.303 Y2.9165
X1.2961 Y2.926
X1.289 Y2.9352
X1.2815 Y2.9443
X1.2738 Y2.9531
X1.2658 Y2.9617
X1.2575 Y2.97
X1.249 Y2.978
X1.2402 Y2.9858
X1.2312 Y2.9933
X1.222 Y3.0005
X1.2125 Y3.0074
X1.2028 Y3.014
X1.1929 Y3.0203
X1.1828 Y3.0263
X1.1725 Y3.0319
X1.162 Y3.0373
X1.1514 Y3.0423
X1.1406 Y3.0469
X1.1297 Y3.0513
X1.1186 Y3.0552
X1.1074 Y3.0589
X1.0962 Y3.0621
X1.0848 Y3.065
X1.0733 Y3.0676
X1.0617 Y3.0698
X1.0501 Y3.0716
X1.0384 Y3.0731
X1.0266 Y3.0742
X1.0149 Y3.0749
X1.0031 Y3.0752
X0.9913
X0.9795 Y3.0748
X0.9677 Y3.074
X0.956 Y3.0729
X0.9443 Y3.0713
X0.9326 Y3.0694
X0.921 Y3.0672
X0.9095 Y3.0646
X0.8981 Y3.0616
X0.8867 Y3.0582
X0.8755 Y3.0545
X0.8644 Y3.0505
X0.8534 Y3.0461
X0.8426 Y3.0413
X0.8319 Y3.0362
X0.8214 Y3.0308
X0.811 Y3.025
X0.8009 Y3.0189
X0.7909 Y3.0125
X0.7812 Y3.0058
X0.7716 Y2.9988
X0.7623 Y2.9914
X0.7532 Y2.9838
X0.7444 Y2.9759
X0.7358 Y2.9677
X0.7275 Y2.9593
X0.7194 Y2.9506
X0.7116 Y2.9416
X0.7042 Y2.9324
X0.697 Y2.923
X0.6901 Y2.9133
X0.6835 Y2.9034
X0.6772 Y2.8933
X0.6713 Y2.8831
X0.6656 Y2.8726
X0.6603 Y2.862
X0.6554 Y2.8512
X0.6508 Y2.8402
X0.6465 Y2.8291
X0.6426 Y2.8179
X0.6391 Y2.8066
X0.6359 Y2.7951
X0.633 Y2.7836
X0.6306 Y2.772
X0.6285 Y2.7603
X0.6267 Y2.7485
X0.6254 Y2.7367
X0.6244 Y2.7248
X0.6238 Y2.713
X0.6236 Y2.7011
X0.6237 Y2.6892
X0.6243 Y2.6773
X0.6252 Y2.6654
X0.6264 Y2.6536
X0.6281 Y2.6418
X0.6301 Y2.6301
X0.6325 Y2.6185
X0.6352 Y2.6069
X0.6384 Y2.5954
X0.6418 Y2.584
X0.6457 Y2.5728
X0.6499 Y2.5616
X0.6544 Y2.5507
X0.6593 Y2.5398
X0.6645 Y2.5291
X0.6701 Y2.5186
X0.676 Y2.5083
X0.6822 Y2.4981
X0.6888 Y2.4882
X0.6956 Y2.4785
X0.7028 Y2.4689
X0.7102 Y2.4597
X0.7179 Y2.4506
X0.726 Y2.4418
X0.7343 Y2.4333
X0.7428 Y2.425
X0.7516 Y2.417
X0.7607 Y2.4093
X0.77 Y2.4019
X0.7796 Y2.3948
X0.7893 Y2.388
X0.7993 Y2.3814
X0.8095 Y2.3753
X0.8198 Y2.3694
X0.8304 Y2.3639
X0.8411 Y2.3587
X0.852 Y2.3538
X0.863 Y2.3493
X0.8742 Y2.3451
X0.8855 Y2.3413
X0.8969 Y2.3379
X0.9084 Y2.3348
X0.92 Y2.332
X0.9317 Y2.3297
X0.9435 Y2.3277
X0.9553 Y2.3261
X0.9672 Y2.3248
X0.9791 Y2.324
X0.991 Y2.3235
X1.003 Y2.3234
X1.0149 Y2.3236
X1.0268 Y2.3243
X1.0388 Y2.3253
X1.0506 Y2.3267
X1.0625 Y2.3285
X1.0743 Y2.3306
X1.086 Y2.3332
X1.0976 Y2.336
X1.1091 Y2.3393
X1.1206 Y2.3429
X1.1319 Y2.3469
X1.1431 Y2.3513
X1.1541 Y2.3559
X1.165 Y2.361
X1.1757 Y2.3664
X1.1863 Y2.3721
X1.1967 Y2.3782
X1.2069 Y2.3845
X1.2168 Y2.3912
X1.2266 Y2.3983
X1.2362 Y2.4056
X1.2455 Y2.4132
X1.2545 Y2.4211
X1.2634 Y2.4293
X1.2719 Y2.4378
X1.2802 Y2.4466
X1.2882 Y2.4556
X1.2959 Y2.4649
X1.3033 Y2.4744
X1.3105 Y2.4841
X1.3173 Y2.494
X1.3238 Y2.5042
X1.3299 Y2.5146
X1.3358 Y2.5251
X1.3413 Y2.5359
X1.3464 Y2.5468
X1.3512 Y2.5578
X1.3557 Y2.569
X1.3598 Y2.5804
X1.3635 Y2.5919
X1.3669 Y2.6035
X1.3699 Y2.6151
X1.3726 Y2.6269
X1.3748 Y2.6388
X1.3767 Y2.6507
X1.3782 Y2.6626
X1.3794 Y2.6747
X1.3801 Y2.6867
X1.3805 Y2.6987
Y2.7108
X1.3801 Y2.7229
X1.3793 Y2.7349
X1.3782 Y2.7469
X1.3767 Y2.7589
X1.3748 Y2.7708
X1.3725 Y2.7826
X1.3698 Y2.7944
X1.3668 Y2.806
X1.3634 Y2.8176
X1.3596 Y2.8291
X1.3555 Y2.8404
X1.3511 Y2.8516
X1.3462 Y2.8626
X1.3411 Y2.8735
X1.3355 Y2.8842
X1.3297 Y2.8948
X1.3235 Y2.9051
X1.317 Y2.9153
X1.3102 Y2.9252
X1.3031 Y2.935
X1.2956 Y2.9445
X1.2879 Y2.9537
X1.2799 Y2.9627
X1.2715 Y2.9715
X1.263 Y2.98
X1.2541 Y2.9882
X1.245 Y2.9961
X1.2357 Y3.0037
X1.2261 Y3.0111
