%
(Case_Back)
(T2  D=0.125 CR=0 - ZMIN=-0.0668 - flat end mill)
(T4  D=0.08 CR=0 - ZMIN=-0.1713 - thread mill)
G90
G17
G20
G28 G91 Z0
G90

(Contour Center Clearing 2)
T2 M6
S10000 M3
G54
M7
G0 X1.7952 Y0.7497
Z0.6
Z0.2
G1 Z0.1 F6
G2 X1.1432 Y0.777 Z0.0648 I-0.2952 J0.7504 F8
G1 Y0.5762 Z0.0543
G2 X1.0706 Y0.5145 Z0.0486 I-0.0625 J0
G1 X1.0687 Y0.5148 Z0.0485
X1.0667 Y0.5151 Z0.0484
X1.0628 Y0.5158 Z0.0482
X1.0609 Y0.5161 Z0.0481
X1.059 Y0.5164 Z0.048
X1.0571 Y0.5167 Z0.0479
X1.057
X1.055 Y0.5171 Z0.0478
X1.0531 Y0.5174 Z0.0477
X1.0512 Y0.5177 Z0.0476
X1.0493 Y0.518 Z0.0475
X1.0492
X1.0472 Y0.5183 Z0.0474
X1.0453 Y0.5186 Z0.0472
X1.0435 Y0.5189 Z0.0471
X1.0434 Y0.519
X1.0415 Y0.5193 Z0.047
X1.0396 Y0.5196 Z0.0469
X1.0395
X1.0376 Y0.5199 Z0.0468
X1.0357 Y0.5202 Z0.0467
X1.0355
X1.0337 Y0.5205 Z0.0466
X1.0318 Y0.5208 Z0.0465
X1.0299 Y0.5212 Z0.0464
X1.0297
X1.0278 Y0.5215 Z0.0463
X1.024 Y0.5221 Z0.0461
G2 X0.9928 Y0.5368 Z0.0443 I0.01 J0.0617
G1 X0.9923 Y0.5372
X0.9913 Y0.5381 Z0.0442
X0.9909 Y0.5385
X0.9905 Y0.5388 Z0.0441
X0.9901 Y0.5392
X0.9897 Y0.5395
X0.9893 Y0.5399 Z0.044
X0.9891 Y0.54
X0.9881 Y0.5409
X0.9875 Y0.5414 Z0.0439
X0.987 Y0.5419
X0.9865 Y0.5423 Z0.0438
X0.9861 Y0.5427
X0.9857 Y0.543
X0.9853 Y0.5434
X0.985 Y0.5437 Z0.0437
X0.9845 Y0.544
X0.9843 Y0.5442
X0.9838 Y0.5447
X0.9836 Y0.5448 Z0.0436
X0.9833 Y0.5451
X0.9829 Y0.5454
X0.9827 Y0.5456
X0.9817 Y0.5465 Z0.0435
X0.9811 Y0.547
X0.9801 Y0.5479 Z0.0434
G2 X0.962 Y0.575 Z0.0417 I0.0411 J0.0471
G1 X0.953 Y0.6015 Z0.0402
X0.944 Y0.6282 Z0.0387
X0.935 Y0.6549 Z0.0373
X0.9259 Y0.6817 Z0.0358
X0.9169 Y0.7086 Z0.0343
X0.9078 Y0.7356 Z0.0328
X0.8986 Y0.7626 Z0.0313
X0.8895 Y0.7896 Z0.0298
X0.8804 Y0.8166 Z0.0283
X0.8713 Y0.8436 Z0.0268
X0.8621 Y0.8706 Z0.0253
X0.853 Y0.8976 Z0.0238
X0.8439 Y0.9246 Z0.0223
X0.8349 Y0.9514 Z0.0209
X0.8258 Y0.9782 Z0.0194
X0.8168 Y1.0049 Z0.0179
X0.8078 Y1.0315 Z0.0164
X0.7989 Y1.0579 Z0.015
X0.79 Y1.0843 Z0.0135
X0.7812 Y1.1104 Z0.0121
X0.7724 Y1.1364 Z0.0106
X0.7637 Y1.1622 Z0.0092
X0.755 Y1.1879 Z0.0078
X0.7469 Y1.212 Z0.0064
G2 X0.6937 Y1.5 Z-0.009 I0.7531 J0.2881
X0.7474 Y1.7895 I0.8063 J0.0001 F18
G1 X0.7555 Y1.8135
X0.7642 Y1.8391
X0.7729 Y1.8649
X0.7816 Y1.8908
X0.7904 Y1.9169
X0.7993 Y1.9432
X0.8082 Y1.9696
X0.8172 Y1.9961
X0.8262 Y2.0227
X0.8352 Y2.0494
X0.8442 Y2.0762
X0.8533 Y2.1031
X0.8624 Y2.13
X0.8715 Y2.1569
X0.8806 Y2.1839
X0.8897 Y2.2109
X0.8988 Y2.2378
X0.9079 Y2.2647
X0.917 Y2.2916
X0.926 Y2.3184
X0.9351 Y2.3452
X0.9441 Y2.3719
X0.953 Y2.3985
X0.962 Y2.4249
G2 X0.9799 Y2.4518 I0.0592 J-0.02
G1 X0.9804 Y2.4523
X0.9808 Y2.4526
X0.9812 Y2.453
X0.9822 Y2.4538
X0.9827 Y2.4543
X0.9833 Y2.4548
X0.9838 Y2.4552
X0.984 Y2.4554
X0.9843 Y2.4557
X0.9847 Y2.456
X0.9849 Y2.4562
X0.9854 Y2.4566
X0.9856 Y2.4568
X0.986 Y2.4572
X0.9865 Y2.4576
X0.987 Y2.458
X0.9875 Y2.4585
X0.9881 Y2.459
X0.9886 Y2.4594
X0.9888 Y2.4596
X0.9891 Y2.4599
X0.9895 Y2.4602
X0.9897 Y2.4604
X0.9902 Y2.4608
X0.9904 Y2.461
X0.9908 Y2.4614
X0.9912 Y2.4617
X0.9916 Y2.4621
X0.992 Y2.4624
X0.9924 Y2.4628
X0.9929 Y2.4632
G2 X1.024 Y2.4778 I0.0411 J-0.0471
G1 X1.0259 Y2.4781
X1.0278 Y2.4784
X1.0279
X1.0298 Y2.4787
X1.0317 Y2.479
X1.0336 Y2.4794
X1.0337
X1.0356 Y2.4797
X1.0375 Y2.48
X1.0376
X1.0395 Y2.4803
X1.0414 Y2.4806
X1.0415
X1.0434 Y2.481
X1.0453 Y2.4813
X1.0454
X1.0473 Y2.4816
X1.0492 Y2.4819
X1.0511 Y2.4822
X1.0513
X1.0531 Y2.4825
X1.055 Y2.4828
X1.057 Y2.4832
X1.0589 Y2.4835
X1.059
X1.0609 Y2.4838
X1.0628 Y2.4841
X1.0648 Y2.4844
X1.0667 Y2.4848
X1.0686 Y2.4851
X1.0706 Y2.4854
G2 X1.1432 Y2.4237 I0.0101 J-0.0617
G1 Y2.2306
Y2.2231 F4.5
G2 X1.8345 Y2.2337 I0.3568 J-0.723 F18
X1.8571 Y2.223 I-0.3345 J-0.7336 F4.5
G1 Y2.4238 F18
G2 X1.9297 Y2.4855 I0.0625 J0
G1 X1.9317 Y2.4852
X1.9336 Y2.4849
X1.9356 Y2.4845
X1.9375 Y2.4842
X1.9395 Y2.4839
X1.9414 Y2.4836
X1.9432 Y2.4833
X1.9434
X1.9453 Y2.483
X1.9472 Y2.4826
X1.9491 Y2.4823
X1.9492
X1.9511 Y2.482
X1.953 Y2.4817
X1.9549 Y2.4814
X1.9551
X1.9569 Y2.4811
X1.9588 Y2.4808
X1.9589 Y2.4807
X1.9608 Y2.4804
X1.9627 Y2.4801
X1.9628
X1.9647 Y2.4798
X1.9666 Y2.4795
X1.9667
X1.9686 Y2.4792
X1.9705 Y2.4788
X1.9706
X1.9725 Y2.4785
X1.9744 Y2.4782
X1.9763 Y2.4779
G2 X2.0075 Y2.4632 I-0.01 J-0.0617
G1 X2.008 Y2.4628
X2.0082 Y2.4626
X2.0086 Y2.4623
X2.0089 Y2.462
X2.0091 Y2.4619
X2.0096 Y2.4614
X2.0101 Y2.461
X2.0105 Y2.4606
X2.0109 Y2.4603
X2.0113 Y2.4599
X2.0117 Y2.4596
X2.0121 Y2.4592
X2.0123 Y2.4591
X2.0128 Y2.4586
X2.013 Y2.4584
X2.0133 Y2.4581
X2.0137 Y2.4578
X2.0139 Y2.4577
X2.0144 Y2.4572
X2.0148 Y2.4568
X2.0153 Y2.4564
X2.0157 Y2.4561
X2.0161 Y2.4557
X2.0164 Y2.4554
X2.0169 Y2.455
X2.0171 Y2.4549
X2.0176 Y2.4544
X2.0178 Y2.4542
X2.0181 Y2.4539
X2.0185 Y2.4536
X2.0187 Y2.4535
X2.0191 Y2.4531
X2.0196 Y2.4527
X2.0199 Y2.4524
X2.0205 Y2.4519
G2 X2.0384 Y2.425 I-0.0414 J-0.0469
G1 X2.0474 Y2.3982
X2.0565 Y2.3712
X2.0657 Y2.3441
X2.0748 Y2.317
X2.084 Y2.2898
X2.0932 Y2.2625
X2.1025 Y2.2351
X2.1117 Y2.2078
X2.1209 Y2.1804
X2.1302 Y2.1531
X2.1394 Y2.1258
X2.1486 Y2.0985
X2.1578 Y2.0712
X2.167 Y2.044
X2.1761 Y2.0169
X2.1853 Y1.9899
X2.1943 Y1.9631
X2.2034 Y1.9363
X2.2124 Y1.9097
X2.2213 Y1.8833
X2.2302 Y1.857
X2.239 Y1.8309
X2.2477 Y1.8051
X2.256 Y1.7803
G2 X2.2638 Y1.2419 I-0.756 J-0.2802
G1 X2.255 Y1.2155
X2.246 Y1.1889
X2.2369 Y1.1621
X2.2278 Y1.1351
X2.2186 Y1.1078
X2.2093 Y1.0804
X2.2 Y1.0528
X2.1907 Y1.0251
X2.1812 Y0.9972
X2.1718 Y0.9692
X2.1623 Y0.9411
X2.1528 Y0.9129
X2.1433 Y0.8847
X2.1337 Y0.8564
X2.1242 Y0.8281
X2.1146 Y0.7998
X2.105 Y0.7715
X2.0955 Y0.7432
X2.086 Y0.715
X2.0764 Y0.6868
X2.067 Y0.6587
X2.0575 Y0.6307
X2.0481 Y0.6028
X2.0387 Y0.575
G2 X2.0204 Y0.5478 I-0.0592 J0.02
G1 X2.02 Y0.5474
X2.019 Y0.5465
X2.0185 Y0.5461
X2.0179 Y0.5456
X2.0174 Y0.5451
X2.0172 Y0.545
X2.0169 Y0.5447
X2.0165 Y0.5444
X2.0162 Y0.544
X2.0157 Y0.5436
X2.0153 Y0.5433
X2.0147 Y0.5428
X2.0142 Y0.5423
X2.0137 Y0.5419
X2.0131 Y0.5414
X2.0126 Y0.5409
X2.0124 Y0.5408
X2.0121 Y0.5405
X2.0117 Y0.5402
X2.0115 Y0.54
X2.011 Y0.5395
X2.0108 Y0.5394
X2.0104 Y0.539
X2.0099 Y0.5386
X2.0094 Y0.5381
X2.0089 Y0.5377
X2.0083 Y0.5372
X2.0078 Y0.5367
G2 X1.9767 Y0.5221 I-0.0411 J0.0471
G1 X1.9748 Y0.5218
X1.9729 Y0.5215
X1.9728
X1.9708 Y0.5212
X1.9689 Y0.5208
X1.9671 Y0.5205
X1.9669
X1.965 Y0.5202
X1.9632 Y0.5199
X1.963
X1.9612 Y0.5196
X1.9593 Y0.5193
X1.9591 Y0.5192
X1.9573 Y0.5189
X1.9554 Y0.5186
X1.9552
X1.9534 Y0.5183
X1.9495 Y0.5177
X1.9494
X1.9475 Y0.5174
X1.9457 Y0.517
X1.9437 Y0.5167
X1.9436
X1.9417 Y0.5164
X1.9398 Y0.5161
X1.9379 Y0.5158
X1.9359 Y0.5155
X1.934 Y0.5151
X1.932 Y0.5148
X1.9301 Y0.5145
G2 X1.8575 Y0.5762 I-0.0101 J0.0617
G1 Y0.7697
Y0.7773 F4.5
G2 X1.1658 Y0.7662 I-0.3575 J0.7228 F18
X1.1432 Y0.7769 I0.3342 J0.7339 F4.5
G1 Y0.5762 F18
G2 X1.0706 Y0.5145 I-0.0625 J0
G1 X1.0687 Y0.5148
X1.0667 Y0.5151
X1.0628 Y0.5158
X1.0609 Y0.5161
X1.059 Y0.5164
X1.0571 Y0.5167
X1.057
X1.055 Y0.5171
X1.0531 Y0.5174
X1.0512 Y0.5177
X1.0493 Y0.518
X1.0492
X1.0472 Y0.5183
X1.0453 Y0.5186
X1.0435 Y0.5189
X1.0434 Y0.519
X1.0415 Y0.5193
X1.0396 Y0.5196
X1.0395
X1.0376 Y0.5199
X1.0357 Y0.5202
X1.0355
X1.0337 Y0.5205
X1.0318 Y0.5208
X1.0299 Y0.5212
X1.0297
X1.0278 Y0.5215
X1.024 Y0.5221
G2 X0.9928 Y0.5368 I0.01 J0.0617
G1 X0.9923 Y0.5372
X0.9918 Y0.5377
X0.9913 Y0.5381
X0.9909 Y0.5385
X0.9905 Y0.5388
X0.9901 Y0.5392
X0.9897 Y0.5395
X0.9893 Y0.5399
X0.9891 Y0.54
X0.9881 Y0.5409
X0.9875 Y0.5414
X0.987 Y0.5419
X0.9865 Y0.5423
X0.9861 Y0.5427
X0.9857 Y0.543
X0.9853 Y0.5434
X0.985 Y0.5437
X0.9845 Y0.544
X0.9843 Y0.5442
X0.9838 Y0.5447
X0.9836 Y0.5448
X0.9833 Y0.5451
X0.9829 Y0.5454
X0.9827 Y0.5456
X0.9822 Y0.5461
X0.9817 Y0.5465
X0.9811 Y0.547
X0.9801 Y0.5479
G2 X0.962 Y0.575 I0.0411 J0.0471
G1 X0.953 Y0.6015
X0.944 Y0.6282
X0.935 Y0.6549
X0.9259 Y0.6817
X0.9169 Y0.7086
X0.9078 Y0.7356
X0.8986 Y0.7626
X0.8895 Y0.7896
X0.8804 Y0.8166
X0.8713 Y0.8436
X0.8621 Y0.8706
X0.853 Y0.8976
X0.8439 Y0.9246
X0.8349 Y0.9514
X0.8258 Y0.9782
X0.8168 Y1.0049
X0.8078 Y1.0315
X0.7989 Y1.0579
X0.79 Y1.0843
X0.7812 Y1.1104
X0.7724 Y1.1364
X0.7637 Y1.1622
X0.755 Y1.1879
X0.7469 Y1.212
G2 X0.6937 Y1.5 I0.7531 J0.2881
X0.7119 Y1.6705 Z-0.018 I0.8063 J0.0001 F8
X0.7474 Y1.7895 I0.7881 J-0.1704 F18
G1 X0.7555 Y1.8135
X0.7642 Y1.8391
X0.7729 Y1.8649
X0.7816 Y1.8908
X0.7904 Y1.9169
X0.7993 Y1.9432
X0.8082 Y1.9696
X0.8172 Y1.9961
X0.8262 Y2.0227
X0.8352 Y2.0494
X0.8442 Y2.0762
X0.8533 Y2.1031
X0.8624 Y2.13
X0.8715 Y2.1569
X0.8806 Y2.1839
X0.8897 Y2.2109
X0.8988 Y2.2378
X0.9079 Y2.2647
X0.917 Y2.2916
X0.926 Y2.3184
X0.9351 Y2.3452
X0.9441 Y2.3719
X0.953 Y2.3985
X0.962 Y2.4249
G2 X0.9799 Y2.4518 I0.0592 J-0.02
G1 X0.9804 Y2.4523
X0.9808 Y2.4526
X0.9812 Y2.453
X0.9822 Y2.4538
X0.9827 Y2.4543
X0.9833 Y2.4548
X0.9838 Y2.4552
X0.984 Y2.4554
X0.9843 Y2.4557
X0.9847 Y2.456
X0.9849 Y2.4562
X0.9854 Y2.4566
X0.9856 Y2.4568
X0.986 Y2.4572
X0.9865 Y2.4576
X0.987 Y2.458
X0.9875 Y2.4585
X0.9881 Y2.459
X0.9886 Y2.4594
X0.9888 Y2.4596
X0.9891 Y2.4599
X0.9895 Y2.4602
X0.9897 Y2.4604
X0.9902 Y2.4608
X0.9904 Y2.461
X0.9908 Y2.4614
X0.9912 Y2.4617
X0.9916 Y2.4621
X0.992 Y2.4624
X0.9924 Y2.4628
X0.9929 Y2.4632
G2 X1.024 Y2.4778 I0.0411 J-0.0471
G1 X1.0259 Y2.4781
X1.0278 Y2.4784
X1.0279
X1.0298 Y2.4787
X1.0317 Y2.479
X1.0336 Y2.4794
X1.0337
X1.0356 Y2.4797
X1.0375 Y2.48
X1.0376
X1.0395 Y2.4803
X1.0414 Y2.4806
X1.0415
X1.0434 Y2.481
X1.0453 Y2.4813
X1.0454
X1.0473 Y2.4816
X1.0492 Y2.4819
X1.0511 Y2.4822
X1.0513
X1.0531 Y2.4825
X1.055 Y2.4828
X1.057 Y2.4832
X1.0589 Y2.4835
X1.059
X1.0609 Y2.4838
X1.0628 Y2.4841
X1.0648 Y2.4844
X1.0667 Y2.4848
X1.0686 Y2.4851
X1.0706 Y2.4854
G2 X1.1432 Y2.4237 I0.0101 J-0.0617
G1 Y2.2306
Y2.2231 F4.5
G2 X1.8345 Y2.2337 I0.3568 J-0.723 F18
X1.8571 Y2.223 I-0.3345 J-0.7336 F4.5
G1 Y2.4238 F18
G2 X1.9297 Y2.4855 I0.0625 J0
G1 X1.9317 Y2.4852
X1.9336 Y2.4849
X1.9356 Y2.4845
X1.9375 Y2.4842
X1.9395 Y2.4839
X1.9414 Y2.4836
X1.9432 Y2.4833
X1.9434
X1.9453 Y2.483
X1.9472 Y2.4826
X1.9491 Y2.4823
X1.9492
X1.9511 Y2.482
X1.953 Y2.4817
X1.9549 Y2.4814
X1.9551
X1.9569 Y2.4811
X1.9588 Y2.4808
X1.9589 Y2.4807
X1.9608 Y2.4804
X1.9627 Y2.4801
X1.9628
X1.9647 Y2.4798
X1.9666 Y2.4795
X1.9667
X1.9686 Y2.4792
X1.9705 Y2.4788
X1.9706
X1.9725 Y2.4785
X1.9744 Y2.4782
X1.9763 Y2.4779
G2 X2.0075 Y2.4632 I-0.01 J-0.0617
G1 X2.008 Y2.4628
X2.0082 Y2.4626
X2.0086 Y2.4623
X2.0089 Y2.462
X2.0091 Y2.4619
X2.0096 Y2.4614
X2.0101 Y2.461
X2.0105 Y2.4606
X2.0109 Y2.4603
X2.0113 Y2.4599
X2.0117 Y2.4596
X2.0121 Y2.4592
X2.0123 Y2.4591
X2.0128 Y2.4586
X2.013 Y2.4584
X2.0133 Y2.4581
X2.0137 Y2.4578
X2.0139 Y2.4577
X2.0144 Y2.4572
X2.0148 Y2.4568
X2.0153 Y2.4564
X2.0157 Y2.4561
X2.0161 Y2.4557
X2.0164 Y2.4554
X2.0169 Y2.455
X2.0171 Y2.4549
X2.0176 Y2.4544
X2.0178 Y2.4542
X2.0181 Y2.4539
X2.0185 Y2.4536
X2.0187 Y2.4535
X2.0191 Y2.4531
X2.0196 Y2.4527
X2.0199 Y2.4524
X2.0205 Y2.4519
G2 X2.0384 Y2.425 I-0.0414 J-0.0469
G1 X2.0474 Y2.3982
X2.0565 Y2.3712
X2.0657 Y2.3441
X2.0748 Y2.317
X2.084 Y2.2898
X2.0932 Y2.2625
X2.1025 Y2.2351
X2.1117 Y2.2078
X2.1209 Y2.1804
X2.1302 Y2.1531
X2.1394 Y2.1258
X2.1486 Y2.0985
X2.1578 Y2.0712
X2.167 Y2.044
X2.1761 Y2.0169
X2.1853 Y1.9899
X2.1943 Y1.9631
X2.2034 Y1.9363
X2.2124 Y1.9097
X2.2213 Y1.8833
X2.2302 Y1.857
X2.239 Y1.8309
X2.2477 Y1.8051
X2.256 Y1.7803
G2 X2.2638 Y1.2419 I-0.756 J-0.2802
G1 X2.255 Y1.2155
X2.246 Y1.1889
X2.2369 Y1.1621
X2.2278 Y1.1351
X2.2186 Y1.1078
X2.2093 Y1.0804
X2.2 Y1.0528
X2.1907 Y1.0251
X2.1812 Y0.9972
X2.1718 Y0.9692
X2.1623 Y0.9411
X2.1528 Y0.9129
X2.1433 Y0.8847
X2.1337 Y0.8564
X2.1242 Y0.8281
X2.1146 Y0.7998
X2.105 Y0.7715
X2.0955 Y0.7432
X2.086 Y0.715
X2.0764 Y0.6868
X2.067 Y0.6587
X2.0575 Y0.6307
X2.0481 Y0.6028
X2.0387 Y0.575
G2 X2.0204 Y0.5478 I-0.0592 J0.02
G1 X2.02 Y0.5474
X2.019 Y0.5465
X2.0185 Y0.5461
X2.0179 Y0.5456
X2.0174 Y0.5451
X2.0172 Y0.545
X2.0169 Y0.5447
X2.0165 Y0.5444
X2.0162 Y0.544
X2.0157 Y0.5436
X2.0153 Y0.5433
X2.0147 Y0.5428
X2.0142 Y0.5423
X2.0137 Y0.5419
X2.0131 Y0.5414
X2.0126 Y0.5409
X2.0124 Y0.5408
X2.0121 Y0.5405
X2.0117 Y0.5402
X2.0115 Y0.54
X2.011 Y0.5395
X2.0108 Y0.5394
X2.0104 Y0.539
X2.0099 Y0.5386
X2.0094 Y0.5381
X2.0089 Y0.5377
X2.0083 Y0.5372
X2.0078 Y0.5367
G2 X1.9767 Y0.5221 I-0.0411 J0.0471
G1 X1.9748 Y0.5218
X1.9729 Y0.5215
X1.9728
X1.9708 Y0.5212
X1.9689 Y0.5208
X1.9671 Y0.5205
X1.9669
X1.965 Y0.5202
X1.9632 Y0.5199
X1.963
X1.9612 Y0.5196
X1.9593 Y0.5193
X1.9591 Y0.5192
X1.9573 Y0.5189
X1.9554 Y0.5186
X1.9552
X1.9534 Y0.5183
X1.9495 Y0.5177
X1.9494
X1.9475 Y0.5174
X1.9457 Y0.517
X1.9437 Y0.5167
X1.9436
X1.9417 Y0.5164
X1.9398 Y0.5161
X1.9379 Y0.5158
X1.9359 Y0.5155
X1.934 Y0.5151
X1.932 Y0.5148
X1.9301 Y0.5145
G2 X1.8575 Y0.5762 I-0.0101 J0.0617
G1 Y0.7697
Y0.7773 F4.5
G2 X1.1658 Y0.7662 I-0.3575 J0.7228 F18
X1.1432 Y0.7769 I0.3342 J0.7339 F4.5
G1 Y0.5762 F18
G2 X1.0706 Y0.5145 I-0.0625 J0
G1 X1.0687 Y0.5148
X1.0667 Y0.5151
X1.0628 Y0.5158
X1.0609 Y0.5161
X1.059 Y0.5164
X1.0571 Y0.5167
X1.057
X1.055 Y0.5171
X1.0531 Y0.5174
X1.0512 Y0.5177
X1.0493 Y0.518
X1.0492
X1.0472 Y0.5183
X1.0453 Y0.5186
X1.0435 Y0.5189
X1.0434 Y0.519
X1.0415 Y0.5193
X1.0396 Y0.5196
X1.0395
X1.0376 Y0.5199
X1.0357 Y0.5202
X1.0355
X1.0337 Y0.5205
X1.0318 Y0.5208
X1.0299 Y0.5212
X1.0297
X1.0278 Y0.5215
X1.024 Y0.5221
G2 X0.9928 Y0.5368 I0.01 J0.0617
G1 X0.9923 Y0.5372
X0.9918 Y0.5377
X0.9913 Y0.5381
X0.9909 Y0.5385
X0.9905 Y0.5388
X0.9901 Y0.5392
X0.9897 Y0.5395
X0.9893 Y0.5399
X0.9891 Y0.54
X0.9881 Y0.5409
X0.9875 Y0.5414
X0.987 Y0.5419
X0.9865 Y0.5423
X0.9861 Y0.5427
X0.9857 Y0.543
X0.9853 Y0.5434
X0.985 Y0.5437
X0.9845 Y0.544
X0.9843 Y0.5442
X0.9838 Y0.5447
X0.9836 Y0.5448
X0.9833 Y0.5451
X0.9829 Y0.5454
X0.9827 Y0.5456
X0.9822 Y0.5461
X0.9817 Y0.5465
X0.9811 Y0.547
X0.9801 Y0.5479
G2 X0.962 Y0.575 I0.0411 J0.0471
G1 X0.953 Y0.6015
X0.944 Y0.6282
X0.935 Y0.6549
X0.9259 Y0.6817
X0.9169 Y0.7086
X0.9078 Y0.7356
X0.8986 Y0.7626
X0.8895 Y0.7896
X0.8804 Y0.8166
X0.8713 Y0.8436
X0.8621 Y0.8706
X0.853 Y0.8976
X0.8439 Y0.9246
X0.8349 Y0.9514
X0.8258 Y0.9782
X0.8168 Y1.0049
X0.8078 Y1.0315
X0.7989 Y1.0579
X0.79 Y1.0843
X0.7812 Y1.1104
X0.7724 Y1.1364
X0.7637 Y1.1622
X0.755 Y1.1879
X0.7469 Y1.212
G2 X0.7119 Y1.6705 I0.7531 J0.2881
X0.7474 Y1.7895 Z-0.0245 I0.7881 J-0.1704 F8
G1 X0.7555 Y1.8135 Z-0.0258
X0.7626 Y1.8344 Z-0.027
X0.7642 Y1.8391 F18
X0.7729 Y1.8649
X0.7816 Y1.8908
X0.7904 Y1.9169
X0.7993 Y1.9432
X0.8082 Y1.9696
X0.8172 Y1.9961
X0.8262 Y2.0227
X0.8352 Y2.0494
X0.8442 Y2.0762
X0.8533 Y2.1031
X0.8624 Y2.13
X0.8715 Y2.1569
X0.8806 Y2.1839
X0.8897 Y2.2109
X0.8988 Y2.2378
X0.9079 Y2.2647
X0.917 Y2.2916
X0.926 Y2.3184
X0.9351 Y2.3452
X0.9441 Y2.3719
X0.953 Y2.3985
X0.962 Y2.4249
G2 X0.9799 Y2.4518 I0.0592 J-0.02
G1 X0.9804 Y2.4523
X0.9808 Y2.4526
X0.9812 Y2.453
X0.9822 Y2.4538
X0.9827 Y2.4543
X0.9833 Y2.4548
X0.9838 Y2.4552
X0.984 Y2.4554
X0.9843 Y2.4557
X0.9847 Y2.456
X0.9849 Y2.4562
X0.9854 Y2.4566
X0.9856 Y2.4568
X0.986 Y2.4572
X0.9865 Y2.4576
X0.987 Y2.458
X0.9875 Y2.4585
X0.9881 Y2.459
X0.9886 Y2.4594
X0.9888 Y2.4596
X0.9891 Y2.4599
X0.9895 Y2.4602
X0.9897 Y2.4604
X0.9902 Y2.4608
X0.9904 Y2.461
X0.9908 Y2.4614
X0.9912 Y2.4617
X0.9916 Y2.4621
X0.992 Y2.4624
X0.9924 Y2.4628
X0.9929 Y2.4632
G2 X1.024 Y2.4778 I0.0411 J-0.0471
G1 X1.0259 Y2.4781
X1.0278 Y2.4784
X1.0279
X1.0298 Y2.4787
X1.0317 Y2.479
X1.0336 Y2.4794
X1.0337
X1.0356 Y2.4797
X1.0375 Y2.48
X1.0376
X1.0395 Y2.4803
X1.0414 Y2.4806
X1.0415
X1.0434 Y2.481
X1.0453 Y2.4813
X1.0454
X1.0473 Y2.4816
X1.0492 Y2.4819
X1.0511 Y2.4822
X1.0513
X1.0531 Y2.4825
X1.055 Y2.4828
X1.057 Y2.4832
X1.0589 Y2.4835
X1.059
X1.0609 Y2.4838
X1.0628 Y2.4841
X1.0648 Y2.4844
X1.0667 Y2.4848
X1.0686 Y2.4851
X1.0706 Y2.4854
G2 X1.1432 Y2.4237 I0.0101 J-0.0617
G1 Y2.2306
Y2.2231 F4.5
G2 X1.8345 Y2.2337 I0.3568 J-0.723 F18
X1.8571 Y2.223 I-0.3345 J-0.7336 F4.5
G1 Y2.4238 F18
G2 X1.9297 Y2.4855 I0.0625 J0
G1 X1.9317 Y2.4852
X1.9336 Y2.4849
X1.9356 Y2.4845
X1.9375 Y2.4842
X1.9395 Y2.4839
X1.9414 Y2.4836
X1.9432 Y2.4833
X1.9434
X1.9453 Y2.483
X1.9472 Y2.4826
X1.9491 Y2.4823
X1.9492
X1.9511 Y2.482
X1.953 Y2.4817
X1.9549 Y2.4814
X1.9551
X1.9569 Y2.4811
X1.9588 Y2.4808
X1.9589 Y2.4807
X1.9608 Y2.4804
X1.9627 Y2.4801
X1.9628
X1.9647 Y2.4798
X1.9666 Y2.4795
X1.9667
X1.9686 Y2.4792
X1.9705 Y2.4788
X1.9706
X1.9725 Y2.4785
X1.9744 Y2.4782
X1.9763 Y2.4779
G2 X2.0075 Y2.4632 I-0.01 J-0.0617
G1 X2.008 Y2.4628
X2.0082 Y2.4626
X2.0086 Y2.4623
X2.0089 Y2.462
X2.0091 Y2.4619
X2.0096 Y2.4614
X2.0101 Y2.461
X2.0105 Y2.4606
X2.0109 Y2.4603
X2.0113 Y2.4599
X2.0117 Y2.4596
X2.0121 Y2.4592
X2.0123 Y2.4591
X2.0128 Y2.4586
X2.013 Y2.4584
X2.0133 Y2.4581
X2.0137 Y2.4578
X2.0139 Y2.4577
X2.0144 Y2.4572
X2.0148 Y2.4568
X2.0153 Y2.4564
X2.0157 Y2.4561
X2.0161 Y2.4557
X2.0164 Y2.4554
X2.0169 Y2.455
X2.0171 Y2.4549
X2.0176 Y2.4544
X2.0178 Y2.4542
X2.0181 Y2.4539
X2.0185 Y2.4536
X2.0187 Y2.4535
X2.0191 Y2.4531
X2.0196 Y2.4527
X2.0199 Y2.4524
X2.0205 Y2.4519
G2 X2.0384 Y2.425 I-0.0414 J-0.0469
G1 X2.0474 Y2.3982
X2.0565 Y2.3712
X2.0657 Y2.3441
X2.0748 Y2.317
X2.084 Y2.2898
X2.0932 Y2.2625
X2.1025 Y2.2351
X2.1117 Y2.2078
X2.1209 Y2.1804
X2.1302 Y2.1531
X2.1394 Y2.1258
X2.1486 Y2.0985
X2.1578 Y2.0712
X2.167 Y2.044
X2.1761 Y2.0169
X2.1853 Y1.9899
X2.1943 Y1.9631
X2.2034 Y1.9363
X2.2124 Y1.9097
X2.2213 Y1.8833
X2.2302 Y1.857
X2.239 Y1.8309
X2.2477 Y1.8051
X2.256 Y1.7803
G2 X2.2638 Y1.2419 I-0.756 J-0.2802
G1 X2.255 Y1.2155
X2.246 Y1.1889
X2.2369 Y1.1621
X2.2278 Y1.1351
X2.2186 Y1.1078
X2.2093 Y1.0804
X2.2 Y1.0528
X2.1907 Y1.0251
X2.1812 Y0.9972
X2.1718 Y0.9692
X2.1623 Y0.9411
X2.1528 Y0.9129
X2.1433 Y0.8847
X2.1337 Y0.8564
X2.1242 Y0.8281
X2.1146 Y0.7998
X2.105 Y0.7715
X2.0955 Y0.7432
X2.086 Y0.715
X2.0764 Y0.6868
X2.067 Y0.6587
X2.0575 Y0.6307
X2.0481 Y0.6028
X2.0387 Y0.575
G2 X2.0204 Y0.5478 I-0.0592 J0.02
G1 X2.02 Y0.5474
X2.019 Y0.5465
X2.0185 Y0.5461
X2.0179 Y0.5456
X2.0174 Y0.5451
X2.0172 Y0.545
X2.0169 Y0.5447
X2.0165 Y0.5444
X2.0162 Y0.544
X2.0157 Y0.5436
X2.0153 Y0.5433
X2.0147 Y0.5428
X2.0142 Y0.5423
X2.0137 Y0.5419
X2.0131 Y0.5414
X2.0126 Y0.5409
X2.0124 Y0.5408
X2.0121 Y0.5405
X2.0117 Y0.5402
X2.0115 Y0.54
X2.011 Y0.5395
X2.0108 Y0.5394
X2.0104 Y0.539
X2.0099 Y0.5386
X2.0094 Y0.5381
X2.0089 Y0.5377
X2.0083 Y0.5372
X2.0078 Y0.5367
G2 X1.9767 Y0.5221 I-0.0411 J0.0471
G1 X1.9748 Y0.5218
X1.9729 Y0.5215
X1.9728
X1.9708 Y0.5212
X1.9689 Y0.5208
X1.9671 Y0.5205
X1.9669
X1.965 Y0.5202
X1.9632 Y0.5199
X1.963
X1.9612 Y0.5196
X1.9593 Y0.5193
X1.9591 Y0.5192
X1.9573 Y0.5189
X1.9554 Y0.5186
X1.9552
X1.9534 Y0.5183
X1.9495 Y0.5177
X1.9494
X1.9475 Y0.5174
X1.9457 Y0.517
X1.9437 Y0.5167
X1.9436
X1.9417 Y0.5164
X1.9398 Y0.5161
X1.9379 Y0.5158
X1.9359 Y0.5155
X1.934 Y0.5151
X1.932 Y0.5148
X1.9301 Y0.5145
G2 X1.8575 Y0.5762 I-0.0101 J0.0617
G1 Y0.7697
Y0.7773 F4.5
G2 X1.1658 Y0.7662 I-0.3575 J0.7228 F18
X1.1432 Y0.7769 I0.3342 J0.7339 F4.5
G1 Y0.5762 F18
G2 X1.0706 Y0.5145 I-0.0625 J0
G1 X1.0687 Y0.5148
X1.0667 Y0.5151
X1.0628 Y0.5158
X1.0609 Y0.5161
X1.059 Y0.5164
X1.0571 Y0.5167
X1.057
X1.055 Y0.5171
X1.0531 Y0.5174
X1.0512 Y0.5177
X1.0493 Y0.518
X1.0492
X1.0472 Y0.5183
X1.0453 Y0.5186
X1.0435 Y0.5189
X1.0434 Y0.519
X1.0415 Y0.5193
X1.0396 Y0.5196
X1.0395
X1.0376 Y0.5199
X1.0357 Y0.5202
X1.0355
X1.0337 Y0.5205
X1.0318 Y0.5208
X1.0299 Y0.5212
X1.0297
X1.0278 Y0.5215
X1.024 Y0.5221
G2 X0.9928 Y0.5368 I0.01 J0.0617
G1 X0.9923 Y0.5372
X0.9918 Y0.5377
X0.9913 Y0.5381
X0.9909 Y0.5385
X0.9905 Y0.5388
X0.9901 Y0.5392
X0.9897 Y0.5395
X0.9893 Y0.5399
X0.9891 Y0.54
X0.9881 Y0.5409
X0.9875 Y0.5414
X0.987 Y0.5419
X0.9865 Y0.5423
X0.9861 Y0.5427
X0.9857 Y0.543
X0.9853 Y0.5434
X0.985 Y0.5437
X0.9845 Y0.544
X0.9843 Y0.5442
X0.9838 Y0.5447
X0.9836 Y0.5448
X0.9833 Y0.5451
X0.9829 Y0.5454
X0.9827 Y0.5456
X0.9822 Y0.5461
X0.9817 Y0.5465
X0.9811 Y0.547
X0.9801 Y0.5479
G2 X0.962 Y0.575 I0.0411 J0.0471
G1 X0.953 Y0.6015
X0.944 Y0.6282
X0.935 Y0.6549
X0.9259 Y0.6817
X0.9169 Y0.7086
X0.9078 Y0.7356
X0.8986 Y0.7626
X0.8895 Y0.7896
X0.8804 Y0.8166
X0.8713 Y0.8436
X0.8621 Y0.8706
X0.853 Y0.8976
X0.8439 Y0.9246
X0.8349 Y0.9514
X0.8258 Y0.9782
X0.8168 Y1.0049
X0.8078 Y1.0315
X0.7989 Y1.0579
X0.79 Y1.0843
X0.7812 Y1.1104
X0.7724 Y1.1364
X0.7637 Y1.1622
X0.755 Y1.1879
X0.7469 Y1.212
G2 X0.7474 Y1.7895 I0.7531 J0.2881
G1 X0.7555 Y1.8135
X0.7626 Y1.8344
X0.7642 Y1.8391 Z-0.0273 F8
X0.7729 Y1.8649 Z-0.0287
X0.7816 Y1.8908 Z-0.0301
X0.7904 Y1.9169 Z-0.0316
X0.7993 Y1.9432 Z-0.033
X0.8082 Y1.9696 Z-0.0345
X0.8172 Y1.9961 Z-0.0359
X0.8175 Y1.9971 Z-0.036
X0.8262 Y2.0227 F18
X0.8352 Y2.0494
X0.8442 Y2.0762
X0.8533 Y2.1031
X0.8624 Y2.13
X0.8715 Y2.1569
X0.8806 Y2.1839
X0.8897 Y2.2109
X0.8988 Y2.2378
X0.9079 Y2.2647
X0.917 Y2.2916
X0.926 Y2.3184
X0.9351 Y2.3452
X0.9441 Y2.3719
X0.953 Y2.3985
X0.962 Y2.4249
G2 X0.9799 Y2.4518 I0.0592 J-0.02
G1 X0.9804 Y2.4523
X0.9808 Y2.4526
X0.9812 Y2.453
X0.9822 Y2.4538
X0.9827 Y2.4543
X0.9833 Y2.4548
X0.9838 Y2.4552
X0.984 Y2.4554
X0.9843 Y2.4557
X0.9847 Y2.456
X0.9849 Y2.4562
X0.9854 Y2.4566
X0.9856 Y2.4568
X0.986 Y2.4572
X0.9865 Y2.4576
X0.987 Y2.458
X0.9875 Y2.4585
X0.9881 Y2.459
X0.9886 Y2.4594
X0.9888 Y2.4596
X0.9891 Y2.4599
X0.9895 Y2.4602
X0.9897 Y2.4604
X0.9902 Y2.4608
X0.9904 Y2.461
X0.9908 Y2.4614
X0.9912 Y2.4617
X0.9916 Y2.4621
X0.992 Y2.4624
X0.9924 Y2.4628
X0.9929 Y2.4632
G2 X1.024 Y2.4778 I0.0411 J-0.0471
G1 X1.0259 Y2.4781
X1.0278 Y2.4784
X1.0279
X1.0298 Y2.4787
X1.0317 Y2.479
X1.0336 Y2.4794
X1.0337
X1.0356 Y2.4797
X1.0375 Y2.48
X1.0376
X1.0395 Y2.4803
X1.0414 Y2.4806
X1.0415
X1.0434 Y2.481
X1.0453 Y2.4813
X1.0454
X1.0473 Y2.4816
X1.0492 Y2.4819
X1.0511 Y2.4822
X1.0513
X1.0531 Y2.4825
X1.055 Y2.4828
X1.057 Y2.4832
X1.0589 Y2.4835
X1.059
X1.0609 Y2.4838
X1.0628 Y2.4841
X1.0648 Y2.4844
X1.0667 Y2.4848
X1.0686 Y2.4851
X1.0706 Y2.4854
G2 X1.1432 Y2.4237 I0.0101 J-0.0617
G1 Y2.2306
Y2.2231 F4.5
G2 X1.8345 Y2.2337 I0.3568 J-0.723 F18
X1.8571 Y2.223 I-0.3345 J-0.7336 F4.5
G1 Y2.4238 F18
G2 X1.9297 Y2.4855 I0.0625 J0
G1 X1.9317 Y2.4852
X1.9336 Y2.4849
X1.9356 Y2.4845
X1.9375 Y2.4842
X1.9395 Y2.4839
X1.9414 Y2.4836
X1.9432 Y2.4833
X1.9434
X1.9453 Y2.483
X1.9472 Y2.4826
X1.9491 Y2.4823
X1.9492
X1.9511 Y2.482
X1.953 Y2.4817
X1.9549 Y2.4814
X1.9551
X1.9569 Y2.4811
X1.9588 Y2.4808
X1.9589 Y2.4807
X1.9608 Y2.4804
X1.9627 Y2.4801
X1.9628
X1.9647 Y2.4798
X1.9666 Y2.4795
X1.9667
X1.9686 Y2.4792
X1.9705 Y2.4788
X1.9706
X1.9725 Y2.4785
X1.9744 Y2.4782
X1.9763 Y2.4779
G2 X2.0075 Y2.4632 I-0.01 J-0.0617
G1 X2.008 Y2.4628
X2.0082 Y2.4626
X2.0086 Y2.4623
X2.0089 Y2.462
X2.0091 Y2.4619
X2.0096 Y2.4614
X2.0101 Y2.461
X2.0105 Y2.4606
X2.0109 Y2.4603
X2.0113 Y2.4599
X2.0117 Y2.4596
X2.0121 Y2.4592
X2.0123 Y2.4591
X2.0128 Y2.4586
X2.013 Y2.4584
X2.0133 Y2.4581
X2.0137 Y2.4578
X2.0139 Y2.4577
X2.0144 Y2.4572
X2.0148 Y2.4568
X2.0153 Y2.4564
X2.0157 Y2.4561
X2.0161 Y2.4557
X2.0164 Y2.4554
X2.0169 Y2.455
X2.0171 Y2.4549
X2.0176 Y2.4544
X2.0178 Y2.4542
X2.0181 Y2.4539
X2.0185 Y2.4536
X2.0187 Y2.4535
X2.0191 Y2.4531
X2.0196 Y2.4527
X2.0199 Y2.4524
X2.0205 Y2.4519
G2 X2.0384 Y2.425 I-0.0414 J-0.0469
G1 X2.0474 Y2.3982
X2.0565 Y2.3712
X2.0657 Y2.3441
X2.0748 Y2.317
X2.084 Y2.2898
X2.0932 Y2.2625
X2.1025 Y2.2351
X2.1117 Y2.2078
X2.1209 Y2.1804
X2.1302 Y2.1531
X2.1394 Y2.1258
X2.1486 Y2.0985
X2.1578 Y2.0712
X2.167 Y2.044
X2.1761 Y2.0169
X2.1853 Y1.9899
X2.1943 Y1.9631
X2.2034 Y1.9363
X2.2124 Y1.9097
X2.2213 Y1.8833
X2.2302 Y1.857
X2.239 Y1.8309
X2.2477 Y1.8051
X2.256 Y1.7803
G2 X2.2638 Y1.2419 I-0.756 J-0.2802
G1 X2.255 Y1.2155
X2.246 Y1.1889
X2.2369 Y1.1621
X2.2278 Y1.1351
X2.2186 Y1.1078
X2.2093 Y1.0804
X2.2 Y1.0528
X2.1907 Y1.0251
X2.1812 Y0.9972
X2.1718 Y0.9692
X2.1623 Y0.9411
X2.1528 Y0.9129
X2.1433 Y0.8847
X2.1337 Y0.8564
X2.1242 Y0.8281
X2.1146 Y0.7998
X2.105 Y0.7715
X2.0955 Y0.7432
X2.086 Y0.715
X2.0764 Y0.6868
X2.067 Y0.6587
X2.0575 Y0.6307
X2.0481 Y0.6028
X2.0387 Y0.575
G2 X2.0204 Y0.5478 I-0.0592 J0.02
G1 X2.02 Y0.5474
X2.019 Y0.5465
X2.0185 Y0.5461
X2.0179 Y0.5456
X2.0174 Y0.5451
X2.0172 Y0.545
X2.0169 Y0.5447
X2.0165 Y0.5444
X2.0162 Y0.544
X2.0157 Y0.5436
X2.0153 Y0.5433
X2.0147 Y0.5428
X2.0142 Y0.5423
X2.0137 Y0.5419
X2.0131 Y0.5414
X2.0126 Y0.5409
X2.0124 Y0.5408
X2.0121 Y0.5405
X2.0117 Y0.5402
X2.0115 Y0.54
X2.011 Y0.5395
X2.0108 Y0.5394
X2.0104 Y0.539
X2.0099 Y0.5386
X2.0094 Y0.5381
X2.0089 Y0.5377
X2.0083 Y0.5372
X2.0078 Y0.5367
G2 X1.9767 Y0.5221 I-0.0411 J0.0471
G1 X1.9748 Y0.5218
X1.9729 Y0.5215
X1.9728
X1.9708 Y0.5212
X1.9689 Y0.5208
X1.9671 Y0.5205
X1.9669
X1.965 Y0.5202
X1.9632 Y0.5199
X1.963
X1.9612 Y0.5196
X1.9593 Y0.5193
X1.9591 Y0.5192
X1.9573 Y0.5189
X1.9554 Y0.5186
X1.9552
X1.9534 Y0.5183
X1.9495 Y0.5177
X1.9494
X1.9475 Y0.5174
X1.9457 Y0.517
X1.9437 Y0.5167
X1.9436
X1.9417 Y0.5164
X1.9398 Y0.5161
X1.9379 Y0.5158
X1.9359 Y0.5155
X1.934 Y0.5151
X1.932 Y0.5148
X1.9301 Y0.5145
G2 X1.8575 Y0.5762 I-0.0101 J0.0617
G1 Y0.7697
Y0.7773 F4.5
G2 X1.1658 Y0.7662 I-0.3575 J0.7228 F18
X1.1432 Y0.7769 I0.3342 J0.7339 F4.5
G1 Y0.5762 F18
G2 X1.0706 Y0.5145 I-0.0625 J0
G1 X1.0687 Y0.5148
X1.0667 Y0.5151
X1.0628 Y0.5158
X1.0609 Y0.5161
X1.059 Y0.5164
X1.0571 Y0.5167
X1.057
X1.055 Y0.5171
X1.0531 Y0.5174
X1.0512 Y0.5177
X1.0493 Y0.518
X1.0492
X1.0472 Y0.5183
X1.0453 Y0.5186
X1.0435 Y0.5189
X1.0434 Y0.519
X1.0415 Y0.5193
X1.0396 Y0.5196
X1.0395
X1.0376 Y0.5199
X1.0357 Y0.5202
X1.0355
X1.0337 Y0.5205
X1.0318 Y0.5208
X1.0299 Y0.5212
X1.0297
X1.0278 Y0.5215
X1.024 Y0.5221
G2 X0.9928 Y0.5368 I0.01 J0.0617
G1 X0.9923 Y0.5372
X0.9918 Y0.5377
X0.9913 Y0.5381
X0.9909 Y0.5385
X0.9905 Y0.5388
X0.9901 Y0.5392
X0.9897 Y0.5395
X0.9893 Y0.5399
X0.9891 Y0.54
X0.9881 Y0.5409
X0.9875 Y0.5414
X0.987 Y0.5419
X0.9865 Y0.5423
X0.9861 Y0.5427
X0.9857 Y0.543
X0.9853 Y0.5434
X0.985 Y0.5437
X0.9845 Y0.544
X0.9843 Y0.5442
X0.9838 Y0.5447
X0.9836 Y0.5448
X0.9833 Y0.5451
X0.9829 Y0.5454
X0.9827 Y0.5456
X0.9822 Y0.5461
X0.9817 Y0.5465
X0.9811 Y0.547
X0.9801 Y0.5479
G2 X0.962 Y0.575 I0.0411 J0.0471
G1 X0.953 Y0.6015
X0.944 Y0.6282
X0.935 Y0.6549
X0.9259 Y0.6817
X0.9169 Y0.7086
X0.9078 Y0.7356
X0.8986 Y0.7626
X0.8895 Y0.7896
X0.8804 Y0.8166
X0.8713 Y0.8436
X0.8621 Y0.8706
X0.853 Y0.8976
X0.8439 Y0.9246
X0.8349 Y0.9514
X0.8258 Y0.9782
X0.8168 Y1.0049
X0.8078 Y1.0315
X0.7989 Y1.0579
X0.79 Y1.0843
X0.7812 Y1.1104
X0.7724 Y1.1364
X0.7637 Y1.1622
X0.755 Y1.1879
X0.7469 Y1.212
G2 X0.7474 Y1.7895 I0.7531 J0.2881
G1 X0.7555 Y1.8135
X0.7626 Y1.8344
X0.7642 Y1.8391
X0.7729 Y1.8649
X0.7816 Y1.8908
X0.7904 Y1.9169
X0.7993 Y1.9432
X0.8082 Y1.9696
X0.8172 Y1.9961
X0.8175 Y1.9971
X0.8262 Y2.0227 Z-0.0374 F8
X0.8352 Y2.0494 Z-0.0389
X0.8442 Y2.0762 Z-0.0404
X0.8533 Y2.1031 Z-0.0419
X0.8624 Y2.13 Z-0.0434
X0.8715 Y2.1569 Z-0.0448
X0.8725 Y2.1598 Z-0.045
X0.8806 Y2.1839 F18
X0.8897 Y2.2109
X0.8988 Y2.2378
X0.9079 Y2.2647
X0.917 Y2.2916
X0.926 Y2.3184
X0.9351 Y2.3452
X0.9441 Y2.3719
X0.953 Y2.3985
X0.962 Y2.4249
G2 X0.9799 Y2.4518 I0.0592 J-0.02
G1 X0.9804 Y2.4523
X0.9808 Y2.4526
X0.9812 Y2.453
X0.9822 Y2.4538
X0.9827 Y2.4543
X0.9833 Y2.4548
X0.9838 Y2.4552
X0.984 Y2.4554
X0.9843 Y2.4557
X0.9847 Y2.456
X0.9849 Y2.4562
X0.9854 Y2.4566
X0.9856 Y2.4568
X0.986 Y2.4572
X0.9865 Y2.4576
X0.987 Y2.458
X0.9875 Y2.4585
X0.9881 Y2.459
X0.9886 Y2.4594
X0.9888 Y2.4596
X0.9891 Y2.4599
X0.9895 Y2.4602
X0.9897 Y2.4604
X0.9902 Y2.4608
X0.9904 Y2.461
X0.9908 Y2.4614
X0.9912 Y2.4617
X0.9916 Y2.4621
X0.992 Y2.4624
X0.9924 Y2.4628
X0.9929 Y2.4632
G2 X1.024 Y2.4778 I0.0411 J-0.0471
G1 X1.0259 Y2.4781
X1.0278 Y2.4784
X1.0279
X1.0298 Y2.4787
X1.0317 Y2.479
X1.0336 Y2.4794
X1.0337
X1.0356 Y2.4797
X1.0375 Y2.48
X1.0376
X1.0395 Y2.4803
X1.0414 Y2.4806
X1.0415
X1.0434 Y2.481
X1.0453 Y2.4813
X1.0454
X1.0473 Y2.4816
X1.0492 Y2.4819
X1.0511 Y2.4822
X1.0513
X1.0531 Y2.4825
X1.055 Y2.4828
X1.057 Y2.4832
X1.0589 Y2.4835
X1.059
X1.0609 Y2.4838
X1.0628 Y2.4841
X1.0648 Y2.4844
X1.0667 Y2.4848
X1.0686 Y2.4851
X1.0706 Y2.4854
G2 X1.1432 Y2.4237 I0.0101 J-0.0617
G1 Y2.2306
Y2.2231 F4.5
G2 X1.8345 Y2.2337 I0.3568 J-0.723 F18
X1.8571 Y2.223 I-0.3345 J-0.7336 F4.5
G1 Y2.4238 F18
G2 X1.9297 Y2.4855 I0.0625 J0
G1 X1.9317 Y2.4852
X1.9336 Y2.4849
X1.9356 Y2.4845
X1.9375 Y2.4842
X1.9395 Y2.4839
X1.9414 Y2.4836
X1.9432 Y2.4833
X1.9434
X1.9453 Y2.483
X1.9472 Y2.4826
X1.9491 Y2.4823
X1.9492
X1.9511 Y2.482
X1.953 Y2.4817
X1.9549 Y2.4814
X1.9551
X1.9569 Y2.4811
X1.9588 Y2.4808
X1.9589 Y2.4807
X1.9608 Y2.4804
X1.9627 Y2.4801
X1.9628
X1.9647 Y2.4798
X1.9666 Y2.4795
X1.9667
X1.9686 Y2.4792
X1.9705 Y2.4788
X1.9706
X1.9725 Y2.4785
X1.9744 Y2.4782
X1.9763 Y2.4779
G2 X2.0075 Y2.4632 I-0.01 J-0.0617
G1 X2.008 Y2.4628
X2.0082 Y2.4626
X2.0086 Y2.4623
X2.0089 Y2.462
X2.0091 Y2.4619
X2.0096 Y2.4614
X2.0101 Y2.461
X2.0105 Y2.4606
X2.0109 Y2.4603
X2.0113 Y2.4599
X2.0117 Y2.4596
X2.0121 Y2.4592
X2.0123 Y2.4591
X2.0128 Y2.4586
X2.013 Y2.4584
X2.0133 Y2.4581
X2.0137 Y2.4578
X2.0139 Y2.4577
X2.0144 Y2.4572
X2.0148 Y2.4568
X2.0153 Y2.4564
X2.0157 Y2.4561
X2.0161 Y2.4557
X2.0164 Y2.4554
X2.0169 Y2.455
X2.0171 Y2.4549
X2.0176 Y2.4544
X2.0178 Y2.4542
X2.0181 Y2.4539
X2.0185 Y2.4536
X2.0187 Y2.4535
X2.0191 Y2.4531
X2.0196 Y2.4527
X2.0199 Y2.4524
X2.0205 Y2.4519
G2 X2.0384 Y2.425 I-0.0414 J-0.0469
G1 X2.0474 Y2.3982
X2.0565 Y2.3712
X2.0657 Y2.3441
X2.0748 Y2.317
X2.084 Y2.2898
X2.0932 Y2.2625
X2.1025 Y2.2351
X2.1117 Y2.2078
X2.1209 Y2.1804
X2.1302 Y2.1531
X2.1394 Y2.1258
X2.1486 Y2.0985
X2.1578 Y2.0712
X2.167 Y2.044
X2.1761 Y2.0169
X2.1853 Y1.9899
X2.1943 Y1.9631
X2.2034 Y1.9363
X2.2124 Y1.9097
X2.2213 Y1.8833
X2.2302 Y1.857
X2.239 Y1.8309
X2.2477 Y1.8051
X2.256 Y1.7803
G2 X2.2638 Y1.2419 I-0.756 J-0.2802
G1 X2.255 Y1.2155
X2.246 Y1.1889
X2.2369 Y1.1621
X2.2278 Y1.1351
X2.2186 Y1.1078
X2.2093 Y1.0804
X2.2 Y1.0528
X2.1907 Y1.0251
X2.1812 Y0.9972
X2.1718 Y0.9692
X2.1623 Y0.9411
X2.1528 Y0.9129
X2.1433 Y0.8847
X2.1337 Y0.8564
X2.1242 Y0.8281
X2.1146 Y0.7998
X2.105 Y0.7715
X2.0955 Y0.7432
X2.086 Y0.715
X2.0764 Y0.6868
X2.067 Y0.6587
X2.0575 Y0.6307
X2.0481 Y0.6028
X2.0387 Y0.575
G2 X2.0204 Y0.5478 I-0.0592 J0.02
G1 X2.02 Y0.5474
X2.019 Y0.5465
X2.0185 Y0.5461
X2.0179 Y0.5456
X2.0174 Y0.5451
X2.0172 Y0.545
X2.0169 Y0.5447
X2.0165 Y0.5444
X2.0162 Y0.544
X2.0157 Y0.5436
X2.0153 Y0.5433
X2.0147 Y0.5428
X2.0142 Y0.5423
X2.0137 Y0.5419
X2.0131 Y0.5414
X2.0126 Y0.5409
X2.0124 Y0.5408
X2.0121 Y0.5405
X2.0117 Y0.5402
X2.0115 Y0.54
X2.011 Y0.5395
X2.0108 Y0.5394
X2.0104 Y0.539
X2.0099 Y0.5386
X2.0094 Y0.5381
X2.0089 Y0.5377
X2.0083 Y0.5372
X2.0078 Y0.5367
G2 X1.9767 Y0.5221 I-0.0411 J0.0471
G1 X1.9748 Y0.5218
X1.9729 Y0.5215
X1.9728
X1.9708 Y0.5212
X1.9689 Y0.5208
X1.9671 Y0.5205
X1.9669
X1.965 Y0.5202
X1.9632 Y0.5199
X1.963
X1.9612 Y0.5196
X1.9593 Y0.5193
X1.9591 Y0.5192
X1.9573 Y0.5189
X1.9554 Y0.5186
X1.9552
X1.9534 Y0.5183
X1.9495 Y0.5177
X1.9494
X1.9475 Y0.5174
X1.9457 Y0.517
X1.9437 Y0.5167
X1.9436
X1.9417 Y0.5164
X1.9398 Y0.5161
X1.9379 Y0.5158
X1.9359 Y0.5155
X1.934 Y0.5151
X1.932 Y0.5148
X1.9301 Y0.5145
G2 X1.8575 Y0.5762 I-0.0101 J0.0617
G1 Y0.7697
Y0.7773 F4.5
G2 X1.1658 Y0.7662 I-0.3575 J0.7228 F18
X1.1432 Y0.7769 I0.3342 J0.7339 F4.5
G1 Y0.5762 F18
G2 X1.0706 Y0.5145 I-0.0625 J0
G1 X1.0687 Y0.5148
X1.0667 Y0.5151
X1.0628 Y0.5158
X1.0609 Y0.5161
X1.059 Y0.5164
X1.0571 Y0.5167
X1.057
X1.055 Y0.5171
X1.0531 Y0.5174
X1.0512 Y0.5177
X1.0493 Y0.518
X1.0492
X1.0472 Y0.5183
X1.0453 Y0.5186
X1.0435 Y0.5189
X1.0434 Y0.519
X1.0415 Y0.5193
X1.0396 Y0.5196
X1.0395
X1.0376 Y0.5199
X1.0357 Y0.5202
X1.0355
X1.0337 Y0.5205
X1.0318 Y0.5208
X1.0299 Y0.5212
X1.0297
X1.0278 Y0.5215
X1.024 Y0.5221
G2 X0.9928 Y0.5368 I0.01 J0.0617
G1 X0.9923 Y0.5372
X0.9918 Y0.5377
X0.9913 Y0.5381
X0.9909 Y0.5385
X0.9905 Y0.5388
X0.9901 Y0.5392
X0.9897 Y0.5395
X0.9893 Y0.5399
X0.9891 Y0.54
X0.9881 Y0.5409
X0.9875 Y0.5414
X0.987 Y0.5419
X0.9865 Y0.5423
X0.9861 Y0.5427
X0.9857 Y0.543
X0.9853 Y0.5434
X0.985 Y0.5437
X0.9845 Y0.544
X0.9843 Y0.5442
X0.9838 Y0.5447
X0.9836 Y0.5448
X0.9833 Y0.5451
X0.9829 Y0.5454
X0.9827 Y0.5456
X0.9822 Y0.5461
X0.9817 Y0.5465
X0.9811 Y0.547
X0.9801 Y0.5479
G2 X0.962 Y0.575 I0.0411 J0.0471
G1 X0.953 Y0.6015
X0.944 Y0.6282
X0.935 Y0.6549
X0.9259 Y0.6817
X0.9169 Y0.7086
X0.9078 Y0.7356
X0.8986 Y0.7626
X0.8895 Y0.7896
X0.8804 Y0.8166
X0.8713 Y0.8436
X0.8621 Y0.8706
X0.853 Y0.8976
X0.8439 Y0.9246
X0.8349 Y0.9514
X0.8258 Y0.9782
X0.8168 Y1.0049
X0.8078 Y1.0315
X0.7989 Y1.0579
X0.79 Y1.0843
X0.7812 Y1.1104
X0.7724 Y1.1364
X0.7637 Y1.1622
X0.755 Y1.1879
X0.7469 Y1.212
G2 X0.7474 Y1.7895 I0.7531 J0.2881
G1 X0.7555 Y1.8135
X0.7642 Y1.8391
X0.7729 Y1.8649
X0.7816 Y1.8908
X0.7904 Y1.9169
X0.7993 Y1.9432
X0.8082 Y1.9696
X0.8172 Y1.9961
X0.8262 Y2.0227
X0.8352 Y2.0494
X0.8442 Y2.0762
X0.8533 Y2.1031
X0.8624 Y2.13
X0.8715 Y2.1569
X0.8725 Y2.1598
X0.8806 Y2.1839 Z-0.0463 F8
X0.8897 Y2.2109 Z-0.0478
X0.8988 Y2.2378 Z-0.0493
X0.9079 Y2.2647 Z-0.0508
X0.917 Y2.2916 Z-0.0523
X0.926 Y2.3184 Z-0.0538
X0.9274 Y2.3225 Z-0.054
X0.9351 Y2.3452 F18
X0.9441 Y2.3719
X0.953 Y2.3985
X0.962 Y2.4249
G2 X0.9799 Y2.4518 I0.0592 J-0.02
G1 X0.9804 Y2.4523
X0.9808 Y2.4526
X0.9812 Y2.453
X0.9822 Y2.4538
X0.9827 Y2.4543
X0.9833 Y2.4548
X0.9838 Y2.4552
X0.984 Y2.4554
X0.9843 Y2.4557
X0.9847 Y2.456
X0.9849 Y2.4562
X0.9854 Y2.4566
X0.9856 Y2.4568
X0.986 Y2.4572
X0.9865 Y2.4576
X0.987 Y2.458
X0.9875 Y2.4585
X0.9881 Y2.459
X0.9886 Y2.4594
X0.9888 Y2.4596
X0.9891 Y2.4599
X0.9895 Y2.4602
X0.9897 Y2.4604
X0.9902 Y2.4608
X0.9904 Y2.461
X0.9908 Y2.4614
X0.9912 Y2.4617
X0.9916 Y2.4621
X0.992 Y2.4624
X0.9924 Y2.4628
X0.9929 Y2.4632
G2 X1.024 Y2.4778 I0.0411 J-0.0471
G1 X1.0259 Y2.4781
X1.0278 Y2.4784
X1.0279
X1.0298 Y2.4787
X1.0317 Y2.479
X1.0336 Y2.4794
X1.0337
X1.0356 Y2.4797
X1.0375 Y2.48
X1.0376
X1.0395 Y2.4803
X1.0414 Y2.4806
X1.0415
X1.0434 Y2.481
X1.0453 Y2.4813
X1.0454
X1.0473 Y2.4816
X1.0492 Y2.4819
X1.0511 Y2.4822
X1.0513
X1.0531 Y2.4825
X1.055 Y2.4828
X1.057 Y2.4832
X1.0589 Y2.4835
X1.059
X1.0609 Y2.4838
X1.0628 Y2.4841
X1.0648 Y2.4844
X1.0667 Y2.4848
X1.0686 Y2.4851
X1.0706 Y2.4854
G2 X1.1432 Y2.4237 I0.0101 J-0.0617
G1 Y2.2306
Y2.2231 F4.5
G2 X1.8345 Y2.2337 I0.3568 J-0.723 F18
X1.8571 Y2.223 I-0.3345 J-0.7336 F4.5
G1 Y2.4238 F18
G2 X1.9297 Y2.4855 I0.0625 J0
G1 X1.9317 Y2.4852
X1.9336 Y2.4849
X1.9356 Y2.4845
X1.9375 Y2.4842
X1.9395 Y2.4839
X1.9414 Y2.4836
X1.9432 Y2.4833
X1.9434
X1.9453 Y2.483
X1.9472 Y2.4826
X1.9491 Y2.4823
X1.9492
X1.9511 Y2.482
X1.953 Y2.4817
X1.9549 Y2.4814
X1.9551
X1.9569 Y2.4811
X1.9588 Y2.4808
X1.9589 Y2.4807
X1.9608 Y2.4804
X1.9627 Y2.4801
X1.9628
X1.9647 Y2.4798
X1.9666 Y2.4795
X1.9667
X1.9686 Y2.4792
X1.9705 Y2.4788
X1.9706
X1.9725 Y2.4785
X1.9744 Y2.4782
X1.9763 Y2.4779
G2 X2.0075 Y2.4632 I-0.01 J-0.0617
G1 X2.008 Y2.4628
X2.0082 Y2.4626
X2.0086 Y2.4623
X2.0089 Y2.462
X2.0091 Y2.4619
X2.0096 Y2.4614
X2.0101 Y2.461
X2.0105 Y2.4606
X2.0109 Y2.4603
X2.0113 Y2.4599
X2.0117 Y2.4596
X2.0121 Y2.4592
X2.0123 Y2.4591
X2.0128 Y2.4586
X2.013 Y2.4584
X2.0133 Y2.4581
X2.0137 Y2.4578
X2.0139 Y2.4577
X2.0144 Y2.4572
X2.0148 Y2.4568
X2.0153 Y2.4564
X2.0157 Y2.4561
X2.0161 Y2.4557
X2.0164 Y2.4554
X2.0169 Y2.455
X2.0171 Y2.4549
X2.0176 Y2.4544
X2.0178 Y2.4542
X2.0181 Y2.4539
X2.0185 Y2.4536
X2.0187 Y2.4535
X2.0191 Y2.4531
X2.0196 Y2.4527
X2.0199 Y2.4524
X2.0205 Y2.4519
G2 X2.0384 Y2.425 I-0.0414 J-0.0469
G1 X2.0474 Y2.3982
X2.0565 Y2.3712
X2.0657 Y2.3441
X2.0748 Y2.317
X2.084 Y2.2898
X2.0932 Y2.2625
X2.1025 Y2.2351
X2.1117 Y2.2078
X2.1209 Y2.1804
X2.1302 Y2.1531
X2.1394 Y2.1258
X2.1486 Y2.0985
X2.1578 Y2.0712
X2.167 Y2.044
X2.1761 Y2.0169
X2.1853 Y1.9899
X2.1943 Y1.9631
X2.2034 Y1.9363
X2.2124 Y1.9097
X2.2213 Y1.8833
X2.2302 Y1.857
X2.239 Y1.8309
X2.2477 Y1.8051
X2.256 Y1.7803
G2 X2.2638 Y1.2419 I-0.756 J-0.2802
G1 X2.255 Y1.2155
X2.246 Y1.1889
X2.2369 Y1.1621
X2.2278 Y1.1351
X2.2186 Y1.1078
X2.2093 Y1.0804
X2.2 Y1.0528
X2.1907 Y1.0251
X2.1812 Y0.9972
X2.1718 Y0.9692
X2.1623 Y0.9411
X2.1528 Y0.9129
X2.1433 Y0.8847
X2.1337 Y0.8564
X2.1242 Y0.8281
X2.1146 Y0.7998
X2.105 Y0.7715
X2.0955 Y0.7432
X2.086 Y0.715
X2.0764 Y0.6868
X2.067 Y0.6587
X2.0575 Y0.6307
X2.0481 Y0.6028
X2.0387 Y0.575
G2 X2.0204 Y0.5478 I-0.0592 J0.02
G1 X2.02 Y0.5474
X2.019 Y0.5465
X2.0185 Y0.5461
X2.0179 Y0.5456
X2.0174 Y0.5451
X2.0172 Y0.545
X2.0169 Y0.5447
X2.0165 Y0.5444
X2.0162 Y0.544
X2.0157 Y0.5436
X2.0153 Y0.5433
X2.0147 Y0.5428
X2.0142 Y0.5423
X2.0137 Y0.5419
X2.0131 Y0.5414
X2.0126 Y0.5409
X2.0124 Y0.5408
X2.0121 Y0.5405
X2.0117 Y0.5402
X2.0115 Y0.54
X2.011 Y0.5395
X2.0108 Y0.5394
X2.0104 Y0.539
X2.0099 Y0.5386
X2.0094 Y0.5381
X2.0089 Y0.5377
X2.0083 Y0.5372
X2.0078 Y0.5367
G2 X1.9767 Y0.5221 I-0.0411 J0.0471
G1 X1.9748 Y0.5218
X1.9729 Y0.5215
X1.9728
X1.9708 Y0.5212
X1.9689 Y0.5208
X1.9671 Y0.5205
X1.9669
X1.965 Y0.5202
X1.9632 Y0.5199
X1.963
X1.9612 Y0.5196
X1.9593 Y0.5193
X1.9591 Y0.5192
X1.9573 Y0.5189
X1.9554 Y0.5186
X1.9552
X1.9534 Y0.5183
X1.9495 Y0.5177
X1.9494
X1.9475 Y0.5174
X1.9457 Y0.517
X1.9437 Y0.5167
X1.9436
X1.9417 Y0.5164
X1.9398 Y0.5161
X1.9379 Y0.5158
X1.9359 Y0.5155
X1.934 Y0.5151
X1.932 Y0.5148
X1.9301 Y0.5145
G2 X1.8575 Y0.5762 I-0.0101 J0.0617
G1 Y0.7697
Y0.7773 F4.5
G2 X1.1658 Y0.7662 I-0.3575 J0.7228 F18
X1.1432 Y0.7769 I0.3342 J0.7339 F4.5
G1 Y0.5762 F18
G2 X1.0706 Y0.5145 I-0.0625 J0
G1 X1.0687 Y0.5148
X1.0667 Y0.5151
X1.0628 Y0.5158
X1.0609 Y0.5161
X1.059 Y0.5164
X1.0571 Y0.5167
X1.057
X1.055 Y0.5171
X1.0531 Y0.5174
X1.0512 Y0.5177
X1.0493 Y0.518
X1.0492
X1.0472 Y0.5183
X1.0453 Y0.5186
X1.0435 Y0.5189
X1.0434 Y0.519
X1.0415 Y0.5193
X1.0396 Y0.5196
X1.0395
X1.0376 Y0.5199
X1.0357 Y0.5202
X1.0355
X1.0337 Y0.5205
X1.0318 Y0.5208
X1.0299 Y0.5212
X1.0297
X1.0278 Y0.5215
X1.024 Y0.5221
G2 X0.9928 Y0.5368 I0.01 J0.0617
G1 X0.9923 Y0.5372
X0.9918 Y0.5377
X0.9913 Y0.5381
X0.9909 Y0.5385
X0.9905 Y0.5388
X0.9901 Y0.5392
X0.9897 Y0.5395
X0.9893 Y0.5399
X0.9891 Y0.54
X0.9881 Y0.5409
X0.9875 Y0.5414
X0.987 Y0.5419
X0.9865 Y0.5423
X0.9861 Y0.5427
X0.9857 Y0.543
X0.9853 Y0.5434
X0.985 Y0.5437
X0.9845 Y0.544
X0.9843 Y0.5442
X0.9838 Y0.5447
X0.9836 Y0.5448
X0.9833 Y0.5451
X0.9829 Y0.5454
X0.9827 Y0.5456
X0.9822 Y0.5461
X0.9817 Y0.5465
X0.9811 Y0.547
X0.9801 Y0.5479
G2 X0.962 Y0.575 I0.0411 J0.0471
G1 X0.953 Y0.6015
X0.944 Y0.6282
X0.935 Y0.6549
X0.9259 Y0.6817
X0.9169 Y0.7086
X0.9078 Y0.7356
X0.8986 Y0.7626
X0.8895 Y0.7896
X0.8804 Y0.8166
X0.8713 Y0.8436
X0.8621 Y0.8706
X0.853 Y0.8976
X0.8439 Y0.9246
X0.8349 Y0.9514
X0.8258 Y0.9782
X0.8168 Y1.0049
X0.8078 Y1.0315
X0.7989 Y1.0579
X0.79 Y1.0843
X0.7812 Y1.1104
X0.7724 Y1.1364
X0.7637 Y1.1622
X0.755 Y1.1879
X0.7469 Y1.212
G2 X0.7474 Y1.7895 I0.7531 J0.2881
G1 X0.7555 Y1.8135
X0.7642 Y1.8391
X0.7729 Y1.8649
X0.7816 Y1.8908
X0.7904 Y1.9169
X0.7993 Y1.9432
X0.8082 Y1.9696
X0.8172 Y1.9961
X0.8262 Y2.0227
X0.8352 Y2.0494
X0.8442 Y2.0762
X0.8533 Y2.1031
X0.8624 Y2.13
X0.8715 Y2.1569
X0.8806 Y2.1839
X0.8897 Y2.2109
X0.8988 Y2.2378
X0.9079 Y2.2647
X0.917 Y2.2916
X0.926 Y2.3184
X0.9274 Y2.3225
X0.9351 Y2.3452 Z-0.0553 F8
X0.9441 Y2.3719 Z-0.0567
X0.953 Y2.3985 Z-0.0582
X0.962 Y2.4249 Z-0.0597
G2 X0.9799 Y2.4518 Z-0.0614 I0.0592 J-0.02
G1 X0.9804 Y2.4523
X0.9808 Y2.4526
X0.9812 Y2.453 Z-0.0615
X0.9822 Y2.4538
X0.9827 Y2.4543 Z-0.0616
X0.9833 Y2.4548
X0.9838 Y2.4552
X0.984 Y2.4554 Z-0.0617
X0.9843 Y2.4557
X0.9847 Y2.456
X0.9849 Y2.4562
X0.9854 Y2.4566 Z-0.0618
X0.9856 Y2.4568
X0.986 Y2.4572
X0.9865 Y2.4576
X0.987 Y2.458 Z-0.0619
X0.9875 Y2.4585
X0.9881 Y2.459
X0.9886 Y2.4594 Z-0.062
X0.9888 Y2.4596
X0.9891 Y2.4599
X0.9895 Y2.4602
X0.9897 Y2.4604 Z-0.0621
X0.9902 Y2.4608
X0.9904 Y2.461
X0.9908 Y2.4614
X0.9912 Y2.4617 Z-0.0622
X0.9916 Y2.4621
X0.992 Y2.4624
X0.9924 Y2.4628
X0.9929 Y2.4632 Z-0.0623
G2 X1.0041 Y2.471 Z-0.063 I0.0411 J-0.0471
X1.024 Y2.4778 I0.0299 J-0.0549 F18
G1 X1.0259 Y2.4781
X1.0278 Y2.4784
X1.0279
X1.0298 Y2.4787
X1.0317 Y2.479
X1.0336 Y2.4794
X1.0337
X1.0356 Y2.4797
X1.0375 Y2.48
X1.0376
X1.0395 Y2.4803
X1.0414 Y2.4806
X1.0415
X1.0434 Y2.481
X1.0453 Y2.4813
X1.0454
X1.0473 Y2.4816
X1.0492 Y2.4819
X1.0511 Y2.4822
X1.0513
X1.0531 Y2.4825
X1.055 Y2.4828
X1.057 Y2.4832
X1.0589 Y2.4835
X1.059
X1.0609 Y2.4838
X1.0628 Y2.4841
X1.0648 Y2.4844
X1.0667 Y2.4848
X1.0686 Y2.4851
X1.0706 Y2.4854
G2 X1.1432 Y2.4237 I0.0101 J-0.0617
G1 Y2.2306
Y2.2231 F4.5
G2 X1.8345 Y2.2337 I0.3568 J-0.723 F18
X1.8571 Y2.223 I-0.3345 J-0.7336 F4.5
G1 Y2.4238 F18
G2 X1.9297 Y2.4855 I0.0625 J0
G1 X1.9317 Y2.4852
X1.9336 Y2.4849
X1.9356 Y2.4845
X1.9375 Y2.4842
X1.9395 Y2.4839
X1.9414 Y2.4836
X1.9432 Y2.4833
X1.9434
X1.9453 Y2.483
X1.9472 Y2.4826
X1.9491 Y2.4823
X1.9492
X1.9511 Y2.482
X1.953 Y2.4817
X1.9549 Y2.4814
X1.9551
X1.9569 Y2.4811
X1.9588 Y2.4808
X1.9589 Y2.4807
X1.9608 Y2.4804
X1.9627 Y2.4801
X1.9628
X1.9647 Y2.4798
X1.9666 Y2.4795
X1.9667
X1.9686 Y2.4792
X1.9705 Y2.4788
X1.9706
X1.9725 Y2.4785
X1.9744 Y2.4782
X1.9763 Y2.4779
G2 X2.0075 Y2.4632 I-0.01 J-0.0617
G1 X2.008 Y2.4628
X2.0082 Y2.4626
X2.0086 Y2.4623
X2.0089 Y2.462
X2.0091 Y2.4619
X2.0096 Y2.4614
X2.0101 Y2.461
X2.0105 Y2.4606
X2.0109 Y2.4603
X2.0113 Y2.4599
X2.0117 Y2.4596
X2.0121 Y2.4592
X2.0123 Y2.4591
X2.0128 Y2.4586
X2.013 Y2.4584
X2.0133 Y2.4581
X2.0137 Y2.4578
X2.0139 Y2.4577
X2.0144 Y2.4572
X2.0148 Y2.4568
X2.0153 Y2.4564
X2.0157 Y2.4561
X2.0161 Y2.4557
X2.0164 Y2.4554
X2.0169 Y2.455
X2.0171 Y2.4549
X2.0176 Y2.4544
X2.0178 Y2.4542
X2.0181 Y2.4539
X2.0185 Y2.4536
X2.0187 Y2.4535
X2.0191 Y2.4531
X2.0196 Y2.4527
X2.0199 Y2.4524
X2.0205 Y2.4519
G2 X2.0384 Y2.425 I-0.0414 J-0.0469
G1 X2.0474 Y2.3982
X2.0565 Y2.3712
X2.0657 Y2.3441
X2.0748 Y2.317
X2.084 Y2.2898
X2.0932 Y2.2625
X2.1025 Y2.2351
X2.1117 Y2.2078
X2.1209 Y2.1804
X2.1302 Y2.1531
X2.1394 Y2.1258
X2.1486 Y2.0985
X2.1578 Y2.0712
X2.167 Y2.044
X2.1761 Y2.0169
X2.1853 Y1.9899
X2.1943 Y1.9631
X2.2034 Y1.9363
X2.2124 Y1.9097
X2.2213 Y1.8833
X2.2302 Y1.857
X2.239 Y1.8309
X2.2477 Y1.8051
X2.256 Y1.7803
G2 X2.2638 Y1.2419 I-0.756 J-0.2802
G1 X2.255 Y1.2155
X2.246 Y1.1889
X2.2369 Y1.1621
X2.2278 Y1.1351
X2.2186 Y1.1078
X2.2093 Y1.0804
X2.2 Y1.0528
X2.1907 Y1.0251
X2.1812 Y0.9972
X2.1718 Y0.9692
X2.1623 Y0.9411
X2.1528 Y0.9129
X2.1433 Y0.8847
X2.1337 Y0.8564
X2.1242 Y0.8281
X2.1146 Y0.7998
X2.105 Y0.7715
X2.0955 Y0.7432
X2.086 Y0.715
X2.0764 Y0.6868
X2.067 Y0.6587
X2.0575 Y0.6307
X2.0481 Y0.6028
X2.0387 Y0.575
G2 X2.0204 Y0.5478 I-0.0592 J0.02
G1 X2.02 Y0.5474
X2.019 Y0.5465
X2.0185 Y0.5461
X2.0179 Y0.5456
X2.0174 Y0.5451
X2.0172 Y0.545
X2.0169 Y0.5447
X2.0165 Y0.5444
X2.0162 Y0.544
X2.0157 Y0.5436
X2.0153 Y0.5433
X2.0147 Y0.5428
X2.0142 Y0.5423
X2.0137 Y0.5419
X2.0131 Y0.5414
X2.0126 Y0.5409
X2.0124 Y0.5408
X2.0121 Y0.5405
X2.0117 Y0.5402
X2.0115 Y0.54
X2.011 Y0.5395
X2.0108 Y0.5394
X2.0104 Y0.539
X2.0099 Y0.5386
X2.0094 Y0.5381
X2.0089 Y0.5377
X2.0083 Y0.5372
X2.0078 Y0.5367
G2 X1.9767 Y0.5221 I-0.0411 J0.0471
G1 X1.9748 Y0.5218
X1.9729 Y0.5215
X1.9728
X1.9708 Y0.5212
X1.9689 Y0.5208
X1.9671 Y0.5205
X1.9669
X1.965 Y0.5202
X1.9632 Y0.5199
X1.963
X1.9612 Y0.5196
X1.9593 Y0.5193
X1.9591 Y0.5192
X1.9573 Y0.5189
X1.9554 Y0.5186
X1.9552
X1.9534 Y0.5183
X1.9495 Y0.5177
X1.9494
X1.9475 Y0.5174
X1.9457 Y0.517
X1.9437 Y0.5167
X1.9436
X1.9417 Y0.5164
X1.9398 Y0.5161
X1.9379 Y0.5158
X1.9359 Y0.5155
X1.934 Y0.5151
X1.932 Y0.5148
X1.9301 Y0.5145
G2 X1.8575 Y0.5762 I-0.0101 J0.0617
G1 Y0.7697
Y0.7773 F4.5
G2 X1.1658 Y0.7662 I-0.3575 J0.7228 F18
X1.1432 Y0.7769 I0.3342 J0.7339 F4.5
G1 Y0.5762 F18
G2 X1.0706 Y0.5145 I-0.0625 J0
G1 X1.0687 Y0.5148
X1.0667 Y0.5151
X1.0628 Y0.5158
X1.0609 Y0.5161
X1.059 Y0.5164
X1.0571 Y0.5167
X1.057
X1.055 Y0.5171
X1.0531 Y0.5174
X1.0512 Y0.5177
X1.0493 Y0.518
X1.0492
X1.0472 Y0.5183
X1.0453 Y0.5186
X1.0435 Y0.5189
X1.0434 Y0.519
X1.0415 Y0.5193
X1.0396 Y0.5196
X1.0395
X1.0376 Y0.5199
X1.0357 Y0.5202
X1.0355
X1.0337 Y0.5205
X1.0318 Y0.5208
X1.0299 Y0.5212
X1.0297
X1.0278 Y0.5215
X1.024 Y0.5221
G2 X0.9928 Y0.5368 I0.01 J0.0617
G1 X0.9923 Y0.5372
X0.9918 Y0.5377
X0.9913 Y0.5381
X0.9909 Y0.5385
X0.9905 Y0.5388
X0.9901 Y0.5392
X0.9897 Y0.5395
X0.9893 Y0.5399
X0.9891 Y0.54
X0.9881 Y0.5409
X0.9875 Y0.5414
X0.987 Y0.5419
X0.9865 Y0.5423
X0.9861 Y0.5427
X0.9857 Y0.543
X0.9853 Y0.5434
X0.985 Y0.5437
X0.9845 Y0.544
X0.9843 Y0.5442
X0.9838 Y0.5447
X0.9836 Y0.5448
X0.9833 Y0.5451
X0.9829 Y0.5454
X0.9827 Y0.5456
X0.9822 Y0.5461
X0.9817 Y0.5465
X0.9811 Y0.547
X0.9801 Y0.5479
G2 X0.962 Y0.575 I0.0411 J0.0471
G1 X0.953 Y0.6015
X0.944 Y0.6282
X0.935 Y0.6549
X0.9259 Y0.6817
X0.9169 Y0.7086
X0.9078 Y0.7356
X0.8986 Y0.7626
X0.8895 Y0.7896
X0.8804 Y0.8166
X0.8713 Y0.8436
X0.8621 Y0.8706
X0.853 Y0.8976
X0.8439 Y0.9246
X0.8349 Y0.9514
X0.8258 Y0.9782
X0.8168 Y1.0049
X0.8078 Y1.0315
X0.7989 Y1.0579
X0.79 Y1.0843
X0.7812 Y1.1104
X0.7724 Y1.1364
X0.7637 Y1.1622
X0.755 Y1.1879
X0.7469 Y1.212
G2 X0.7474 Y1.7895 I0.7531 J0.2881
G1 X0.7555 Y1.8135
X0.7642 Y1.8391
X0.7729 Y1.8649
X0.7816 Y1.8908
X0.7904 Y1.9169
X0.7993 Y1.9432
X0.8082 Y1.9696
X0.8172 Y1.9961
X0.8262 Y2.0227
X0.8352 Y2.0494
X0.8442 Y2.0762
X0.8533 Y2.1031
X0.8624 Y2.13
X0.8715 Y2.1569
X0.8806 Y2.1839
X0.8897 Y2.2109
X0.8988 Y2.2378
X0.9079 Y2.2647
X0.917 Y2.2916
X0.926 Y2.3184
X0.9351 Y2.3452
X0.9441 Y2.3719
X0.953 Y2.3985
X0.962 Y2.4249
G2 X0.9799 Y2.4518 I0.0592 J-0.02
G1 X0.9804 Y2.4523
X0.9808 Y2.4526
X0.9812 Y2.453
X0.9822 Y2.4538
X0.9827 Y2.4543
X0.9833 Y2.4548
X0.9838 Y2.4552
X0.984 Y2.4554
X0.9843 Y2.4557
X0.9847 Y2.456
X0.9849 Y2.4562
X0.9854 Y2.4566
X0.9856 Y2.4568
X0.986 Y2.4572
X0.9865 Y2.4576
X0.987 Y2.458
X0.9875 Y2.4585
X0.9881 Y2.459
X0.9886 Y2.4594
X0.9888 Y2.4596
X0.9891 Y2.4599
X0.9895 Y2.4602
X0.9897 Y2.4604
X0.9902 Y2.4608
X0.9904 Y2.461
X0.9908 Y2.4614
X0.9912 Y2.4617
X0.9916 Y2.4621
X0.992 Y2.4624
X0.9924 Y2.4628
X0.9929 Y2.4632
G2 X1.0041 Y2.471 I0.0411 J-0.0471
X1.024 Y2.4778 Z-0.0641 I0.0299 J-0.0549 F8
G1 X1.0259 Y2.4781 Z-0.0642
X1.0278 Y2.4784 Z-0.0643
X1.0279
X1.0298 Y2.4787 Z-0.0644
X1.0317 Y2.479 Z-0.0645
X1.0336 Y2.4794 Z-0.0646
X1.0337
X1.0356 Y2.4797 Z-0.0647
X1.0375 Y2.48 Z-0.0648
X1.0376
X1.0395 Y2.4803 Z-0.0649
X1.0414 Y2.4806 Z-0.065
X1.0415
X1.0434 Y2.481 Z-0.0651
X1.0453 Y2.4813 Z-0.0652
X1.0454
X1.0473 Y2.4816 Z-0.0653
X1.0492 Y2.4819 Z-0.0654
X1.0511 Y2.4822 Z-0.0655
X1.0513 Z-0.0656
X1.0531 Y2.4825 Z-0.0657
X1.055 Y2.4828 Z-0.0658
X1.057 Y2.4832 Z-0.0659
X1.0589 Y2.4835 Z-0.066
X1.059
X1.0609 Y2.4838 Z-0.0661
X1.0628 Y2.4841 Z-0.0662
X1.0648 Y2.4844 Z-0.0663
X1.0667 Y2.4848 Z-0.0664
X1.0686 Y2.4851 Z-0.0665
X1.0706 Y2.4854 Z-0.0666
X1.0739 Y2.4858 Z-0.0668
G2 X1.1432 Y2.4237 I0.0068 J-0.0621 F18
G1 Y2.2306
Y2.2231 F4.5
G2 X1.8345 Y2.2337 I0.3568 J-0.723 F18
X1.8571 Y2.223 I-0.3345 J-0.7336 F4.5
G1 Y2.4238 F18
G2 X1.9297 Y2.4855 I0.0625 J0
G1 X1.9317 Y2.4852
X1.9336 Y2.4849
X1.9356 Y2.4845
X1.9375 Y2.4842
X1.9395 Y2.4839
X1.9414 Y2.4836
X1.9432 Y2.4833
X1.9434
X1.9453 Y2.483
X1.9472 Y2.4826
X1.9491 Y2.4823
X1.9492
X1.9511 Y2.482
X1.953 Y2.4817
X1.9549 Y2.4814
X1.9551
X1.9569 Y2.4811
X1.9588 Y2.4808
X1.9589 Y2.4807
X1.9608 Y2.4804
X1.9627 Y2.4801
X1.9628
X1.9647 Y2.4798
X1.9666 Y2.4795
X1.9667
X1.9686 Y2.4792
X1.9705 Y2.4788
X1.9706
X1.9725 Y2.4785
X1.9744 Y2.4782
X1.9763 Y2.4779
G2 X2.0075 Y2.4632 I-0.01 J-0.0617
G1 X2.008 Y2.4628
X2.0082 Y2.4626
X2.0086 Y2.4623
X2.0089 Y2.462
X2.0091 Y2.4619
X2.0096 Y2.4614
X2.0101 Y2.461
X2.0105 Y2.4606
X2.0109 Y2.4603
X2.0113 Y2.4599
X2.0117 Y2.4596
X2.0121 Y2.4592
X2.0123 Y2.4591
X2.0128 Y2.4586
X2.013 Y2.4584
X2.0133 Y2.4581
X2.0137 Y2.4578
X2.0139 Y2.4577
X2.0144 Y2.4572
X2.0148 Y2.4568
X2.0153 Y2.4564
X2.0157 Y2.4561
X2.0161 Y2.4557
X2.0164 Y2.4554
X2.0169 Y2.455
X2.0171 Y2.4549
X2.0176 Y2.4544
X2.0178 Y2.4542
X2.0181 Y2.4539
X2.0185 Y2.4536
X2.0187 Y2.4535
X2.0191 Y2.4531
X2.0196 Y2.4527
X2.0199 Y2.4524
X2.0205 Y2.4519
G2 X2.0384 Y2.425 I-0.0414 J-0.0469
G1 X2.0474 Y2.3982
X2.0565 Y2.3712
X2.0657 Y2.3441
X2.0748 Y2.317
X2.084 Y2.2898
X2.0932 Y2.2625
X2.1025 Y2.2351
X2.1117 Y2.2078
X2.1209 Y2.1804
X2.1302 Y2.1531
X2.1394 Y2.1258
X2.1486 Y2.0985
X2.1578 Y2.0712
X2.167 Y2.044
X2.1761 Y2.0169
X2.1853 Y1.9899
X2.1943 Y1.9631
X2.2034 Y1.9363
X2.2124 Y1.9097
X2.2213 Y1.8833
X2.2302 Y1.857
X2.239 Y1.8309
X2.2477 Y1.8051
X2.256 Y1.7803
G2 X2.2638 Y1.2419 I-0.756 J-0.2802
G1 X2.255 Y1.2155
X2.246 Y1.1889
X2.2369 Y1.1621
X2.2278 Y1.1351
X2.2186 Y1.1078
X2.2093 Y1.0804
X2.2 Y1.0528
X2.1907 Y1.0251
X2.1812 Y0.9972
X2.1718 Y0.9692
X2.1623 Y0.9411
X2.1528 Y0.9129
X2.1433 Y0.8847
X2.1337 Y0.8564
X2.1242 Y0.8281
X2.1146 Y0.7998
X2.105 Y0.7715
X2.0955 Y0.7432
X2.086 Y0.715
X2.0764 Y0.6868
X2.067 Y0.6587
X2.0575 Y0.6307
X2.0481 Y0.6028
X2.0387 Y0.575
G2 X2.0204 Y0.5478 I-0.0592 J0.02
G1 X2.02 Y0.5474
X2.019 Y0.5465
X2.0185 Y0.5461
X2.0179 Y0.5456
X2.0174 Y0.5451
X2.0172 Y0.545
X2.0169 Y0.5447
X2.0165 Y0.5444
X2.0162 Y0.544
X2.0157 Y0.5436
X2.0153 Y0.5433
X2.0147 Y0.5428
X2.0142 Y0.5423
X2.0137 Y0.5419
X2.0131 Y0.5414
X2.0126 Y0.5409
X2.0124 Y0.5408
X2.0121 Y0.5405
X2.0117 Y0.5402
X2.0115 Y0.54
X2.011 Y0.5395
X2.0108 Y0.5394
X2.0104 Y0.539
X2.0099 Y0.5386
X2.0094 Y0.5381
X2.0089 Y0.5377
X2.0083 Y0.5372
X2.0078 Y0.5367
G2 X1.9767 Y0.5221 I-0.0411 J0.0471
G1 X1.9748 Y0.5218
X1.9729 Y0.5215
X1.9728
X1.9708 Y0.5212
X1.9689 Y0.5208
X1.9671 Y0.5205
X1.9669
X1.965 Y0.5202
X1.9632 Y0.5199
X1.963
X1.9612 Y0.5196
X1.9593 Y0.5193
X1.9591 Y0.5192
X1.9573 Y0.5189
X1.9554 Y0.5186
X1.9552
X1.9534 Y0.5183
X1.9495 Y0.5177
X1.9494
X1.9475 Y0.5174
X1.9457 Y0.517
X1.9437 Y0.5167
X1.9436
X1.9417 Y0.5164
X1.9398 Y0.5161
X1.9379 Y0.5158
X1.9359 Y0.5155
X1.934 Y0.5151
X1.932 Y0.5148
X1.9301 Y0.5145
G2 X1.8575 Y0.5762 I-0.0101 J0.0617
G1 Y0.7697
Y0.7773 F4.5
G2 X1.1658 Y0.7662 I-0.3575 J0.7228 F18
X1.1432 Y0.7769 I0.3342 J0.7339 F4.5
G1 Y0.5762 F18
G2 X1.0706 Y0.5145 I-0.0625 J0
G1 X1.0687 Y0.5148
X1.0667 Y0.5151
X1.0628 Y0.5158
X1.0609 Y0.5161
X1.059 Y0.5164
X1.0571 Y0.5167
X1.057
X1.055 Y0.5171
X1.0531 Y0.5174
X1.0512 Y0.5177
X1.0493 Y0.518
X1.0492
X1.0472 Y0.5183
X1.0453 Y0.5186
X1.0435 Y0.5189
X1.0434 Y0.519
X1.0415 Y0.5193
X1.0396 Y0.5196
X1.0395
X1.0376 Y0.5199
X1.0357 Y0.5202
X1.0355
X1.0337 Y0.5205
X1.0318 Y0.5208
X1.0299 Y0.5212
X1.0297
X1.0278 Y0.5215
X1.024 Y0.5221
G2 X0.9928 Y0.5368 I0.01 J0.0617
G1 X0.9923 Y0.5372
X0.9918 Y0.5377
X0.9913 Y0.5381
X0.9909 Y0.5385
X0.9905 Y0.5388
X0.9901 Y0.5392
X0.9897 Y0.5395
X0.9893 Y0.5399
X0.9891 Y0.54
X0.9881 Y0.5409
X0.9875 Y0.5414
X0.987 Y0.5419
X0.9865 Y0.5423
X0.9861 Y0.5427
X0.9857 Y0.543
X0.9853 Y0.5434
X0.985 Y0.5437
X0.9845 Y0.544
X0.9843 Y0.5442
X0.9838 Y0.5447
X0.9836 Y0.5448
X0.9833 Y0.5451
X0.9829 Y0.5454
X0.9827 Y0.5456
X0.9822 Y0.5461
X0.9817 Y0.5465
X0.9811 Y0.547
X0.9801 Y0.5479
G2 X0.962 Y0.575 I0.0411 J0.0471
G1 X0.953 Y0.6015
X0.944 Y0.6282
X0.935 Y0.6549
X0.9259 Y0.6817
X0.9169 Y0.7086
X0.9078 Y0.7356
X0.8986 Y0.7626
X0.8895 Y0.7896
X0.8804 Y0.8166
X0.8713 Y0.8436
X0.8621 Y0.8706
X0.853 Y0.8976
X0.8439 Y0.9246
X0.8349 Y0.9514
X0.8258 Y0.9782
X0.8168 Y1.0049
X0.8078 Y1.0315
X0.7989 Y1.0579
X0.79 Y1.0843
X0.7812 Y1.1104
X0.7724 Y1.1364
X0.7637 Y1.1622
X0.755 Y1.1879
X0.7469 Y1.212
G2 X0.7474 Y1.7895 I0.7531 J0.2881
G1 X0.7555 Y1.8135
X0.7642 Y1.8391
X0.7729 Y1.8649
X0.7816 Y1.8908
X0.7904 Y1.9169
X0.7993 Y1.9432
X0.8082 Y1.9696
X0.8172 Y1.9961
X0.8262 Y2.0227
X0.8352 Y2.0494
X0.8442 Y2.0762
X0.8533 Y2.1031
X0.8624 Y2.13
X0.8715 Y2.1569
X0.8806 Y2.1839
X0.8897 Y2.2109
X0.8988 Y2.2378
X0.9079 Y2.2647
X0.917 Y2.2916
X0.926 Y2.3184
X0.9351 Y2.3452
X0.9441 Y2.3719
X0.953 Y2.3985
X0.962 Y2.4249
G2 X0.9799 Y2.4518 I0.0592 J-0.02
G1 X0.9804 Y2.4523
X0.9808 Y2.4526
X0.9812 Y2.453
X0.9822 Y2.4538
X0.9827 Y2.4543
X0.9833 Y2.4548
X0.9838 Y2.4552
X0.984 Y2.4554
X0.9843 Y2.4557
X0.9847 Y2.456
X0.9849 Y2.4562
X0.9854 Y2.4566
X0.9856 Y2.4568
X0.986 Y2.4572
X0.9865 Y2.4576
X0.987 Y2.458
X0.9875 Y2.4585
X0.9881 Y2.459
X0.9886 Y2.4594
X0.9888 Y2.4596
X0.9891 Y2.4599
X0.9895 Y2.4602
X0.9897 Y2.4604
X0.9902 Y2.4608
X0.9904 Y2.461
X0.9908 Y2.4614
X0.9912 Y2.4617
X0.9916 Y2.4621
X0.992 Y2.4624
X0.9924 Y2.4628
X0.9929 Y2.4632
G2 X1.024 Y2.4778 I0.0411 J-0.0471
G1 X1.0259 Y2.4781
X1.0278 Y2.4784
X1.0279
X1.0298 Y2.4787
X1.0317 Y2.479
X1.0336 Y2.4794
X1.0337
X1.0356 Y2.4797
X1.0375 Y2.48
X1.0376
X1.0395 Y2.4803
X1.0414 Y2.4806
X1.0415
X1.0434 Y2.481
X1.0453 Y2.4813
X1.0454
X1.0473 Y2.4816
X1.0492 Y2.4819
X1.0511 Y2.4822
X1.0513
X1.0531 Y2.4825
X1.055 Y2.4828
X1.057 Y2.4832
X1.0589 Y2.4835
X1.059
X1.0609 Y2.4838
X1.0628 Y2.4841
X1.0648 Y2.4844
X1.0667 Y2.4848
X1.0686 Y2.4851
X1.0706 Y2.4854
X1.0739 Y2.4858
G0 Z0.6

(Adaptive_Roughing  4)
X1.1116 Y2.0713
Z0.6
Z0.2
Z0.1
G3 X0.994 Y2.0555 Z0.0935 I-0.0588 J-0.0079 F8
X1.1116 Y2.0713 Z0.087 I0.0588 J0.0079
X0.994 Y2.0555 Z0.0805 I-0.0588 J-0.0079
X1.1116 Y2.0713 Z0.0739 I0.0588 J0.0079
X0.994 Y2.0555 Z0.0674 I-0.0588 J-0.0079
X1.1116 Y2.0713 Z0.0609 I0.0588 J0.0079
X0.994 Y2.0555 Z0.0544 I-0.0588 J-0.0079
X1.1116 Y2.0713 Z0.0479 I0.0588 J0.0079
X0.994 Y2.0555 Z0.0414 I-0.0588 J-0.0079
X1.1116 Y2.0713 Z0.0349 I0.0588 J0.0079
X0.994 Y2.0555 Z0.0283 I-0.0588 J-0.0079
X1.1116 Y2.0713 Z0.0218 I0.0588 J0.0079
X0.994 Y2.0555 Z0.0153 I-0.0588 J-0.0079
X1.1116 Y2.0713 Z0.0088 I0.0588 J0.0079
X0.994 Y2.0555 Z0.0023 I-0.0588 J-0.0079
X1.1116 Y2.0713 Z-0.0042 I0.0588 J0.0079
X0.994 Y2.0555 Z-0.0107 I-0.0588 J-0.0079
X1.1116 Y2.0713 Z-0.0172 I0.0588 J0.0079
X0.994 Y2.0555 Z-0.0238 I-0.0588 J-0.0079
X1.1121 Y2.0634 Z-0.03 I0.0588 J0.0079
X0.9935 I-0.0593 J0
X1.1121 I0.0593 J0
G1 X1.1126 Y2.0786 F26
X1.1125 Y2.0846
X1.1112 Y2.0905
X1.1091 Y2.0961
X1.1062 Y2.1013
X1.1028 Y2.1062
X1.0988 Y2.1108
X1.0944 Y2.1149
X1.0897 Y2.1185
X1.0846 Y2.1217
X1.0792 Y2.1244
X1.0736 Y2.1266
X1.0679 Y2.1282
X1.062 Y2.1293
X1.056 Y2.1299
X1.05
X1.044 Y2.1294
X1.0381 Y2.1284
X1.0323 Y2.1268
X1.0267 Y2.1247
X1.0213 Y2.1221
X1.0161 Y2.119
X1.0113 Y2.1155
X1.0068 Y2.1116
X1.0026 Y2.1072
X0.9989 Y2.1026
X0.9956 Y2.0975
X0.9927 Y2.0923
X0.9904 Y2.0867
X0.9885 Y2.081
X0.9872 Y2.0752
X0.9864 Y2.0692
X0.9861 Y2.0632
X0.9864 Y2.0573
X0.9872 Y2.0513
X0.9886 Y2.0455
X0.9905 Y2.0398
X0.9928 Y2.0343
X0.9957 Y2.029
X0.999 Y2.024
X1.0028 Y2.0193
X1.0069 Y2.015
X1.0115 Y2.0111
X1.0164 Y2.0076
X1.0215 Y2.0045
X1.0269 Y2.0019
X1.0326 Y1.9999
X1.0384 Y1.9983
X1.0443 Y1.9973
X1.0503 Y1.9968
X1.0563
X1.0622 Y1.9974
X1.0681 Y1.9985
X1.0739 Y2.0001
X1.0795 Y2.0023
X1.0849 Y2.005
X1.09 Y2.0081
X1.0948 Y2.0116
X1.0993 Y2.0156
X1.1034 Y2.02
X1.1071 Y2.0247
X1.1104 Y2.0298
X1.1131 Y2.0351
X1.1154 Y2.0406
X1.1172 Y2.0464
X1.1186 Y2.0522
X1.1197 Y2.0581
X1.1206 Y2.064
X1.1211 Y2.07
Y2.076
X1.1205 Y2.082
X1.1193 Y2.0879
X1.1176 Y2.0936
X1.1153 Y2.0992
X1.1125 Y2.1045
X1.1092 Y2.1095
X1.1054 Y2.1141
X1.1012 Y2.1184
X1.0967 Y2.1224
X1.0918 Y2.1259
X1.0866 Y2.1289
X1.0812 Y2.1315
X1.0756 Y2.1337
X1.0699 Y2.1353
X1.064 Y2.1365
X1.058 Y2.1372
X1.052 Y2.1374
X1.046 Y2.1372
X1.0401 Y2.1364
X1.0342 Y2.1352
X1.0285 Y2.1334
X1.0229 Y2.1312
X1.0175 Y2.1286
X1.0124 Y2.1255
X1.0075 Y2.122
X1.0029 Y2.1182
X0.9986 Y2.114
X0.9947 Y2.1094
X0.9911 Y2.1046
X0.988 Y2.0995
X0.9853 Y2.0941
X0.983 Y2.0886
X0.9812 Y2.0828
X0.9799 Y2.077
X0.979 Y2.0711
X0.9786 Y2.0651
X0.9787 Y2.0591
X0.9793 Y2.0531
X0.9804 Y2.0472
X0.9819 Y2.0414
X0.984 Y2.0357
X0.9864 Y2.0303
X0.9893 Y2.025
X0.9926 Y2.02
X0.9963 Y2.0153
X1.0004 Y2.0109
X1.0048 Y2.0068
X1.0095 Y2.0031
X1.0145 Y1.9998
X1.0198 Y1.9969
X1.0253 Y1.9945
X1.0309 Y1.9925
X1.0367 Y1.991
X1.0426 Y1.9899
X1.0486 Y1.9893
X1.0546 Y1.9892
X1.0606 Y1.9896
X1.0665 Y1.9905
X1.0724 Y1.9918
X1.0781 Y1.9936
X1.0837 Y1.9959
X1.089 Y1.9986
X1.0941 Y2.0018
X1.099 Y2.0053
X1.1035 Y2.0093
X1.1077 Y2.0135
X1.1116 Y2.0181
X1.115 Y2.023
X1.1181 Y2.0282
X1.1208 Y2.0336
X1.123 Y2.0391
X1.125 Y2.0448
X1.1266 Y2.0506
X1.1278 Y2.0564
X1.1286 Y2.0624
X1.129 Y2.0684
Y2.0744
X1.1285 Y2.0803
X1.1275 Y2.0863
X1.126 Y2.0921
X1.124 Y2.0977
X1.1216 Y2.1032
X1.1187 Y2.1085
X1.1154 Y2.1135
X1.1117 Y2.1182
X1.1076 Y2.1226
X1.1032 Y2.1267
X1.0985 Y2.1304
X1.0935 Y2.1337
X1.0883 Y2.1366
X1.0828 Y2.1391
X1.0772 Y2.1412
X1.0714 Y2.1429
X1.0655 Y2.1441
X1.0596 Y2.1448
X1.0536 Y2.1451
X1.0476 Y2.145
X1.0416 Y2.1444
X1.0357 Y2.1434
X1.0299 Y2.142
X1.0242 Y2.1401
X1.0186 Y2.1378
X1.0133 Y2.1351
X1.0081 Y2.132
X1.0032 Y2.1286
X0.9986 Y2.1248
X0.9942 Y2.1207
X0.9902 Y2.1162
X0.9865 Y2.1115
X0.9831 Y2.1065
X0.9802 Y2.1013
X0.9776 Y2.0959
X0.9754 Y2.0903
X0.9736 Y2.0846
X0.9723 Y2.0787
X0.9714 Y2.0728
X0.9709 Y2.0668
Y2.0608
X0.9713 Y2.0548
X0.9721 Y2.0489
X0.9734 Y2.043
X0.9751 Y2.0373
X0.9772 Y2.0316
X0.9798 Y2.0262
X0.9827 Y2.021
X0.986 Y2.016
X0.9896 Y2.0112
X0.9936 Y2.0067
X0.9979 Y2.0025
X1.0025 Y1.9987
X1.0074 Y1.9952
X1.0125 Y1.992
X1.0178 Y1.9893
X1.0233 Y1.9869
X1.029 Y1.985
X1.0348 Y1.9834
X1.0407 Y1.9823
X1.0467 Y1.9817
X1.0527 Y1.9814
X1.0587 Y1.9816
X1.0646 Y1.9823
X1.0705 Y1.9834
X1.0763 Y1.9849
X1.082 Y1.9868
X1.0875 Y1.9892
X1.0929 Y1.9919
X1.098 Y1.995
X1.1029 Y1.9985
X1.1075 Y2.0024
X1.1118 Y2.0065
X1.1158 Y2.011
X1.1195 Y2.0157
X1.1228 Y2.0207
X1.1258 Y2.0259
X1.1285 Y2.0313
X1.1308 Y2.0368
X1.1328 Y2.0425
X1.1345 Y2.0483
X1.1357 Y2.0541
X1.1366 Y2.0601
X1.137 Y2.066
X1.1371 Y2.072
X1.1367 Y2.078
X1.136 Y2.084
X1.1347 Y2.0899
X1.1331 Y2.0956
X1.131 Y2.1013
X1.1285 Y2.1067
X1.1257 Y2.112
X1.1224 Y2.117
X1.1188 Y2.1218
X1.1149 Y2.1263
X1.1106 Y2.1306
X1.106 Y2.1345
X1.1012 Y2.138
X1.0962 Y2.1413
X1.0909 Y2.1441
X1.0854 Y2.1466
X1.0798 Y2.1487
X1.074 Y2.1503
X1.0682 Y2.1516
X1.0622 Y2.1525
X1.0562 Y2.153
X1.0502 Y2.1531
X1.0442 Y2.1527
X1.0383 Y2.152
X1.0324 Y2.1509
X1.0266 Y2.1493
X1.0209 Y2.1474
X1.0154 Y2.1451
X1.01 Y2.1424
X1.0048 Y2.1394
X0.9999 Y2.136
X0.9951 Y2.1323
X0.9907 Y2.1284
X0.9864 Y2.1241
X0.9825 Y2.1195
X0.9789 Y2.1147
X0.9757 Y2.1097
X0.9728 Y2.1044
X0.9702 Y2.099
X0.968 Y2.0934
X0.9662 Y2.0877
X0.9648 Y2.0819
X0.9638 Y2.076
X0.9631 Y2.07
X0.9629 Y2.064
X0.963 Y2.058
X0.9636 Y2.052
X0.9645 Y2.0461
X0.9658 Y2.0403
X0.9676 Y2.0345
X0.9697 Y2.0289
X0.9722 Y2.0234
X0.975 Y2.0182
X0.9782 Y2.0131
X0.9818 Y2.0082
X0.9856 Y2.0036
X0.9897 Y1.9993
X0.9941 Y1.9952
X0.9988 Y1.9914
X1.0037 Y1.988
X1.0088 Y1.9849
X1.0142 Y1.9821
X1.0197 Y1.9797
X1.0253 Y1.9777
X1.0311 Y1.9761
X1.037 Y1.9748
X1.0429 Y1.974
X1.0489 Y1.9735
X1.0549 Y1.9734
X1.0609 Y1.9738
X1.0668 Y1.9745
X1.0727 Y1.9756
X1.0785 Y1.9772
X1.0842 Y1.9791
X1.0898 Y1.9814
X1.0952 Y1.984
X1.1003 Y1.987
X1.1053 Y1.9904
X1.1101 Y1.994
X1.1146 Y1.998
X1.1188 Y2.0023
X1.1228 Y2.0068
X1.1264 Y2.0115
X1.1298 Y2.0165
X1.1329 Y2.0217
X1.1356 Y2.027
X1.138 Y2.0325
X1.1401 Y2.0381
X1.1419 Y2.0438
X1.1433 Y2.0497
X1.1443 Y2.0556
X1.145 Y2.0616
X1.1453 Y2.0675
X1.1452 Y2.0735
X1.1448 Y2.0795
X1.1439 Y2.0855
X1.1427 Y2.0913
X1.1411 Y2.0971
X1.1391 Y2.1028
X1.1367 Y2.1083
X1.134 Y2.1136
X1.1309 Y2.1188
X1.1275 Y2.1237
X1.1238 Y2.1284
X1.1197 Y2.1329
X1.1154 Y2.137
X1.1109 Y2.1409
X1.106 Y2.1445
X1.101 Y2.1478
X1.0958 Y2.1507
X1.0903 Y2.1533
X1.0848 Y2.1555
X1.0791 Y2.1573
X1.0733 Y2.1589
X1.0674 Y2.16
X1.0614 Y2.1608
X1.0554 Y2.1612
X1.0494
X1.0434 Y2.1609
X1.0375 Y2.1602
X1.0316 Y2.1591
X1.0258 Y2.1576
X1.02 Y2.1558
X1.0144 Y2.1536
X1.009 Y2.1511
X1.0037 Y2.1483
X0.9986 Y2.1451
X0.9937 Y2.1417
X0.989 Y2.1379
X0.9846 Y2.1339
X0.9804 Y2.1296
X0.9764 Y2.1251
X0.9728 Y2.1203
X0.9695 Y2.1153
X0.9665 Y2.1101
X0.9638 Y2.1047
X0.9614 Y2.0992
X0.9594 Y2.0936
X0.9577 Y2.0878
X0.9564 Y2.082
X0.9555 Y2.076
X0.9549 Y2.0701
X0.9546 Y2.0641
X0.9548 Y2.0581
X0.9553 Y2.0521
X0.9561 Y2.0462
X0.9574 Y2.0403
X0.959 Y2.0345
X0.9609 Y2.0288
X0.9632 Y2.0233
X0.9658 Y2.0179
X0.9688 Y2.0127
X0.972 Y2.0076
X0.9756 Y2.0028
X0.9794 Y1.9982
X0.9835 Y1.9938
X0.9879 Y1.9897
X0.9925 Y1.9859
X0.9974 Y1.9823
X1.0024 Y1.9791
X1.0077 Y1.9762
X1.0131 Y1.9736
X1.0186 Y1.9714
X1.0243 Y1.9694
X1.0301 Y1.9679
X1.036 Y1.9667
X1.0419 Y1.9658
X1.0479 Y1.9653
X1.0539 Y1.9652
X1.0599 Y1.9655
X1.0659 Y1.9661
X1.0718 Y1.9671
X1.0776 Y1.9684
X1.0834 Y1.9701
X1.089 Y1.9722
X1.0945 Y1.9745
X1.0999 Y1.9773
X1.1051 Y1.9803
X1.1101 Y1.9836
X1.1148 Y1.9873
X1.1194 Y1.9912
X1.1237 Y1.9954
X1.1277 Y1.9998
X1.1315 Y2.0044
X1.1351 Y2.0093
X1.1383 Y2.0143
X1.1413 Y2.0195
X1.1439 Y2.0249
X1.1463 Y2.0304
X1.1483 Y2.0361
X1.1501 Y2.0418
X1.1515 Y2.0477
X1.1525 Y2.0536
X1.1533 Y2.0595
X1.1536 Y2.0655
X1.1537 Y2.0715
X1.1533 Y2.0775
X1.1527 Y2.0835
X1.1516 Y2.0894
X1.1502 Y2.0952
X1.1485 Y2.101
X1.1464 Y2.1066
X1.144 Y2.1121
X1.1413 Y2.1174
X1.1383 Y2.1226
X1.1349 Y2.1276
X1.1312 Y2.1323
X1.1273 Y2.1369
X1.1231 Y2.1411
X1.1187 Y2.1452
X1.114 Y2.1489
X1.1091 Y2.1524
X1.104 Y2.1556
X1.0987 Y2.1585
X1.0933 Y2.161
X1.0877 Y2.1632
X1.0821 Y2.1652
X1.0763 Y2.1667
X1.0704 Y2.168
X1.0645 Y2.1689
X1.0585 Y2.1694
X1.0525 Y2.1696
X1.0465 Y2.1695
X1.0405 Y2.169
X1.0346 Y2.1681
X1.0287 Y2.167
X1.0229 Y2.1655
X1.0172 Y2.1637
X1.0116 Y2.1615
X1.0061 Y2.1591
X1.0008 Y2.1563
X0.9956 Y2.1532
X0.9906 Y2.1499
X0.9859 Y2.1462
X0.9813 Y2.1423
X0.9769 Y2.1382
X0.9729 Y2.1338
X0.969 Y2.1292
X0.9654 Y2.1244
X0.9621 Y2.1194
X0.9591 Y2.1142
X0.9564 Y2.1088
X0.954 Y2.1033
X0.9519 Y2.0977
X0.9501 Y2.092
X0.9487 Y2.0862
X0.9476 Y2.0803
X0.9468 Y2.0743
X0.9463 Y2.0683
X0.9462 Y2.0623
X0.9464 Y2.0563
X0.947 Y2.0504
X0.9479 Y2.0444
X0.9491 Y2.0386
X0.9507 Y2.0328
X0.9526 Y2.0271
X0.9548 Y2.0215
X0.9573 Y2.016
X0.9601 Y2.0107
X0.9632 Y2.0056
X0.9666 Y2.0007
X0.9703 Y1.9959
X0.9742 Y1.9914
X0.9784 Y1.9871
X0.9828 Y1.983
X0.9874 Y1.9792
X0.9923 Y1.9756
X0.9973 Y1.9724
X1.0025 Y1.9694
X1.0079 Y1.9667
X1.0134 Y1.9643
X1.019 Y1.9623
X1.0248 Y1.9605
X1.0306 Y1.9591
X1.0365 Y1.958
X1.0425 Y1.9573
X1.0484 Y1.9569
X1.0544 Y1.9568
X1.0604 Y1.9571
X1.0664 Y1.9577
X1.0723 Y1.9586
X1.0782 Y1.9599
X1.084 Y1.9615
X1.0897 Y1.9634
X1.0952 Y1.9656
X1.1007 Y1.9682
X1.1059 Y1.971
X1.1111 Y1.9741
X1.116 Y1.9775
X1.1208 Y1.9812
X1.1253 Y1.9851
X1.1296 Y1.9893
X1.1337 Y1.9937
X1.1376 Y1.9983
X1.1412 Y2.0031
X1.1445 Y2.0081
X1.1476 Y2.0132
X1.1504 Y2.0185
X1.1529 Y2.024
X1.1551 Y2.0295
X1.1571 Y2.0352
X1.1587 Y2.041
X1.16 Y2.0468
X1.1611 Y2.0527
X1.1618 Y2.0587
X1.1622 Y2.0647
Y2.0707
X1.162 Y2.0767
X1.1614 Y2.0827
X1.1604 Y2.0886
X1.1592 Y2.0945
X1.1576 Y2.1002
X1.1557 Y2.1059
X1.1536 Y2.1115
X1.1511 Y2.117
X1.1483 Y2.1223
X1.1452 Y2.1274
X1.1418 Y2.1324
X1.1382 Y2.1372
X1.1343 Y2.1418
X1.1302 Y2.1461
X1.1258 Y2.1502
X1.1212 Y2.1541
X1.1164 Y2.1577
X1.1114 Y2.161
X1.1062 Y2.1641
X1.1009 Y2.1668
X1.0955 Y2.1693
X1.0899 Y2.1715
X1.0842 Y2.1734
X1.0784 Y2.175
X1.0725 Y2.1762
X1.0666 Y2.1772
X1.0606 Y2.1778
X1.0546 Y2.1781
X1.0486
X1.0427 Y2.1778
X1.0367 Y2.1771
X1.0308 Y2.1762
X1.0249 Y2.1749
X1.0191 Y2.1733
X1.0134 Y2.1714
X1.0078 Y2.1692
X1.0024 Y2.1668
X0.997 Y2.164
X0.9918 Y2.161
X0.9868 Y2.1577
X0.982 Y2.1541
X0.9774 Y2.1503
X0.9729 Y2.1463
X0.9687 Y2.142
X0.9647 Y2.1375
X0.961 Y2.1328
X0.9575 Y2.128
X0.9542 Y2.1229
X0.9513 Y2.1177
X0.9486 Y2.1124
X0.9462 Y2.1069
X0.944 Y2.1013
X0.9422 Y2.0955
X0.9407 Y2.0897
X0.9395 Y2.0839
X0.9385 Y2.0779
X0.9379 Y2.072
X0.9377 Y2.066
Y2.06
X0.938 Y2.054
X0.9387 Y2.048
X0.9396 Y2.0421
X0.9409 Y2.0362
X0.9424 Y2.0304
X0.9443 Y2.0247
X0.9464 Y2.0191
X0.9489 Y2.0136
X0.9516 Y2.0083
X0.9546 Y2.0031
X0.9579 Y1.9981
X0.9614 Y1.9932
X0.9652 Y1.9886
X0.9692 Y1.9841
X0.9735 Y1.9799
X0.9779 Y1.9759
X0.9826 Y1.9721
X0.9874 Y1.9685
X0.9925 Y1.9653
X0.9976 Y1.9622
X1.003 Y1.9595
X1.0085 Y1.9571
X1.0141 Y1.9549
X1.0198 Y1.953
X1.0256 Y1.9515
X1.0314 Y1.9502
X1.0373 Y1.9492
X1.0433 Y1.9486
X1.0493 Y1.9483
X1.0553 Y1.9482
X1.0613 Y1.9485
X1.0673 Y1.9491
X1.0732 Y1.95
X1.0791 Y1.9512
X1.0849 Y1.9527
X1.0906 Y1.9546
X1.0962 Y1.9567
X1.1017 Y1.9591
X1.1071 Y1.9618
X1.1123 Y1.9647
X1.1174 Y1.9679
X1.1222 Y1.9714
X1.127 Y1.9751
X1.1315 Y1.9791
X1.1358 Y1.9832
X1.1399 Y1.9876
X1.1438 Y1.9922
X1.1475 Y1.9969
X1.1509 Y2.0019
X1.154 Y2.007
X1.157 Y2.0122
X1.1596 Y2.0176
X1.162 Y2.0231
X1.1641 Y2.0287
X1.166 Y2.0344
X1.1675 Y2.0402
X1.1688 Y2.0461
X1.1698 Y2.052
X1.1705 Y2.0579
X1.1708 Y2.0639
X1.1709 Y2.0699
X1.1707 Y2.0759
X1.1702 Y2.0819
X1.1694 Y2.0878
X1.1683 Y2.0937
X1.1668 Y2.0996
X1.1651 Y2.1053
X1.1631 Y2.111
X1.1608 Y2.1165
X1.1582 Y2.1219
X1.1554 Y2.1272
X1.1523 Y2.1324
X1.1489 Y2.1373
X1.1453 Y2.1421
X1.1415 Y2.1467
X1.1374 Y2.1511
X1.1331 Y2.1553
X1.1286 Y2.1592
X1.1238 Y2.1629
X1.1189 Y2.1664
X1.1139 Y2.1696
X1.1087 Y2.1726
X1.1033 Y2.1753
X1.0978 Y2.1777
X1.0922 Y2.1799
X1.0865 Y2.1818
X1.0807 Y2.1833
X1.0749 Y2.1846
X1.069 Y2.1856
X1.063 Y2.1863
X1.057 Y2.1868
X1.051 Y2.1869
X1.045 Y2.1867
X1.039 Y2.1862
X1.0331 Y2.1854
X1.0272 Y2.1843
X1.0213 Y2.183
X1.0156 Y2.1813
X1.0099 Y2.1794
X1.0043 Y2.1772
X0.9988 Y2.1748
X0.9935 Y2.172
X0.9883 Y2.1691
X0.9832 Y2.1658
X0.9783 Y2.1624
X0.9736 Y2.1586
X0.9691 Y2.1547
X0.9648 Y2.1505
X0.9607 Y2.1462
X0.9567 Y2.1416
X0.9531 Y2.1369
X0.9496 Y2.132
X0.9464 Y2.1269
X0.9435 Y2.1217
X0.9408 Y2.1163
X0.9383 Y2.1108
X0.9361 Y2.1052
X0.9342 Y2.0996
X0.9326 Y2.0938
X0.9313 Y2.0879
X0.9303 Y2.082
X0.9295 Y2.0761
X0.929 Y2.0701
X0.9289 Y2.0641
X0.929 Y2.0581
X0.9294 Y2.0521
X0.9301 Y2.0461
X0.931 Y2.0402
X0.9323 Y2.0344
X0.9338 Y2.0286
X0.9357 Y2.0228
X0.9378 Y2.0172
X0.9401 Y2.0117
X0.9428 Y2.0063
X0.9456 Y2.0011
X0.9488 Y1.9959
X0.9522 Y1.991
X0.9558 Y1.9862
X0.9597 Y1.9816
X0.9637 Y1.9772
X0.968 Y1.973
X0.9725 Y1.969
X0.9771 Y1.9652
X0.982 Y1.9617
X0.987 Y1.9583
X0.9921 Y1.9553
X0.9974 Y1.9525
X1.0029 Y1.9499
X1.0084 Y1.9476
X1.0141 Y1.9456
X1.0198 Y1.9439
X1.0256 Y1.9424
X1.0315 Y1.9413
X1.0374 Y1.9404
X1.0434 Y1.9398
X1.0494 Y1.9395
X1.0554
X1.0614 Y1.9397
X1.0674 Y1.9403
X1.0733 Y1.9411
X1.0792 Y1.9423
X1.085 Y1.9437
X1.0908 Y1.9454
X1.0965 Y1.9474
X1.102 Y1.9496
X1.1075 Y1.9521
X1.1128 Y1.9549
X1.118 Y1.9579
X1.123 Y1.9612
X1.1279 Y1.9646
X1.1326 Y1.9684
X1.1372 Y1.9723
X1.1415 Y1.9764
X1.1457 Y1.9807
X1.1496 Y1.9853
X1.1533 Y1.99
X1.1568 Y1.9948
X1.1601 Y1.9999
X1.1632 Y2.005
X1.166 Y2.0103
X1.1685 Y2.0158
X1.1708 Y2.0213
X1.1729 Y2.0269
X1.1747 Y2.0327
X1.1762 Y2.0385
X1.1775 Y2.0443
X1.1785 Y2.0502
X1.1792 Y2.0562
X1.1796 Y2.0622
X1.1798 Y2.0682
X1.1797 Y2.0742
X1.1793 Y2.0802
X1.1786 Y2.0861
X1.1776 Y2.092
X1.1764 Y2.0979
X1.1748 Y2.1037
X1.173 Y2.1094
X1.171 Y2.1151
X1.1686 Y2.1206
X1.1661 Y2.126
X1.1632 Y2.1313
X1.1601 Y2.1365
X1.1568 Y2.1414
X1.1533 Y2.1463
X1.1495 Y2.1509
X1.1455 Y2.1554
X1.1413 Y2.1597
X1.1368 Y2.1637
X1.1322 Y2.1676
X1.1275 Y2.1712
X1.1225 Y2.1746
X1.1174 Y2.1778
X1.1122 Y2.1807
X1.1068 Y2.1834
X1.1013 Y2.1858
X1.0958 Y2.188
X1.0901 Y2.1899
X1.0843 Y2.1916
X1.0785 Y2.193
X1.0726 Y2.1941
X1.0666 Y2.1949
X1.0606 Y2.1954
X1.0546 Y2.1957
X1.0486
X1.0427 Y2.1954
X1.0367 Y2.1948
X1.0307 Y2.194
X1.0248 Y2.1929
X1.019 Y2.1915
X1.0132 Y2.1899
X1.0075 Y2.188
X1.0019 Y2.1859
X0.9964 Y2.1835
X0.991 Y2.1808
X0.9858 Y2.1779
X0.9807 Y2.1748
X0.9757 Y2.1714
X0.9709 Y2.1679
X0.9662 Y2.1641
X0.9618 Y2.16
X0.9575 Y2.1558
X0.9534 Y2.1514
X0.9495 Y2.1469
X0.9459 Y2.1421
X0.9424 Y2.1372
X0.9392 Y2.1322
X0.9362 Y2.127
X0.9334 Y2.1216
X0.9309 Y2.1162
X0.9286 Y2.1106
X0.9266 Y2.105
X0.9249 Y2.0993
X0.9234 Y2.0934
X0.9222 Y2.0876
X0.9212 Y2.0816
X0.9205 Y2.0757
X0.9201 Y2.0697
X0.92 Y2.0637
X0.9201 Y2.0577
X0.9205 Y2.0517
X0.9211 Y2.0457
X0.922 Y2.0398
X0.9232 Y2.0339
X0.9247 Y2.0281
X0.9264 Y2.0224
X0.9284 Y2.0167
X0.9306 Y2.0111
X0.9331 Y2.0057
X0.9358 Y2.0003
X0.9388 Y1.9951
X0.942 Y1.99
X0.9454 Y1.9851
X0.9491 Y1.9804
X0.9529 Y1.9758
X0.957 Y1.9713
X0.9612 Y1.9671
X0.9657 Y1.9631
X0.9703 Y1.9592
X0.9751 Y1.9556
X0.98 Y1.9522
X0.9851 Y1.949
X0.9903 Y1.9461
X0.9957 Y1.9434
X1.0012 Y1.9409
X1.0068 Y1.9387
X1.0124 Y1.9368
X1.0182 Y1.9351
X1.024 Y1.9337
X1.0299 Y1.9325
X1.0358 Y1.9316
X1.0418 Y1.931
X1.0478 Y1.9306
X1.0538 Y1.9305
X1.0598 Y1.9307
X1.0658 Y1.9311
X1.0717 Y1.9318
X1.0776 Y1.9328
X1.0835 Y1.9341
X1.0893 Y1.9356
X1.095 Y1.9374
X1.1007 Y1.9394
X1.1062 Y1.9417
X1.1117 Y1.9442
X1.117 Y1.947
X1.1222 Y1.95
X1.1273 Y1.9532
X1.1322 Y1.9566
X1.1369 Y1.9603
X1.1415 Y1.9642
X1.146 Y1.9682
X1.1502 Y1.9724
X1.1543 Y1.9769
X1.1581 Y1.9815
X1.1618 Y1.9862
X1.1652 Y1.9911
X1.1685 Y1.9962
X1.1715 Y2.0014
X1.1742 Y2.0067
X1.1768 Y2.0121
X1.1791 Y2.0177
X1.1812 Y2.0233
X1.183 Y2.029
X1.1846 Y2.0348
X1.186 Y2.0406
X1.1871 Y2.0465
X1.1879 Y2.0525
X1.1884 Y2.0585
X1.1887 Y2.0644
X1.1888 Y2.0704
X1.1886 Y2.0764
X1.1881 Y2.0824
X1.1873 Y2.0884
X1.1863 Y2.0943
X1.185 Y2.1002
X1.1835 Y2.106
X1.1817 Y2.1117
X1.1797 Y2.1173
X1.1775 Y2.1229
X1.1749 Y2.1283
X1.1722 Y2.1337
X1.1692 Y2.1389
X1.166 Y2.1439
X1.1625 Y2.1489
X1.1589 Y2.1536
X1.155 Y2.1582
X1.151 Y2.1626
X1.1467 Y2.1668
X1.1423 Y2.1709
X1.1377 Y2.1747
X1.1329 Y2.1784
X1.128 Y2.1818
X1.1229 Y2.185
X1.1177 Y2.188
X1.1124 Y2.1907
X1.1069 Y2.1933
X1.1014 Y2.1955
X1.0957 Y2.1976
X1.09 Y2.1994
X1.0842 Y2.2009
X1.0783 Y2.2022
X1.0724 Y2.2032
X1.0665 Y2.2039
X1.0605 Y2.2045
X1.0545 Y2.2047
X1.0485
X1.0425 Y2.2044
X1.0365 Y2.2039
X1.0306 Y2.2031
X1.0247 Y2.2021
X1.0188 Y2.2008
X1.013 Y2.1993
X1.0073 Y2.1975
X1.0016 Y2.1955
X0.9961 Y2.1932
X0.9906 Y2.1907
X0.9853 Y2.188
X0.98 Y2.185
X0.9749 Y2.1819
X0.97 Y2.1785
X0.9652 Y2.1749
X0.9606 Y2.1711
X0.9561 Y2.1671
X0.9518 Y2.1629
X0.9476 Y2.1585
X0.9437 Y2.154
X0.9399 Y2.1493
X0.9364 Y2.1445
X0.9331 Y2.1395
X0.9299 Y2.1344
X0.9271 Y2.1291
X0.9244 Y2.1238
X0.9219 Y2.1183
X0.9197 Y2.1127
X0.9178 Y2.107
X0.916 Y2.1013
X0.9146 Y2.0955
X0.9133 Y2.0896
X0.9124 Y2.0837
X0.9116 Y2.0777
X0.9111 Y2.0717
X0.9109 Y2.0657
Y2.0597
X0.9112 Y2.0537
X0.9117 Y2.0478
X0.9125 Y2.0418
X0.9135 Y2.0359
X0.9148 Y2.0301
X0.9164 Y2.0243
X0.9181 Y2.0185
X0.9202 Y2.0129
X0.9224 Y2.0073
X0.9249 Y2.0019
X0.9276 Y1.9965
X0.9306 Y1.9913
X0.9337 Y1.9862
X0.9371 Y1.9812
X0.9407 Y1.9764
X0.9444 Y1.9717
X0.9484 Y1.9672
X0.9526 Y1.9629
X0.9569 Y1.9587
X0.9614 Y1.9548
X0.9661 Y1.951
X0.9709 Y1.9475
X0.9759 Y1.9441
X0.981 Y1.941
X0.9862 Y1.938
X0.9916 Y1.9353
X0.997 Y1.9329
X1.0026 Y1.9306
X1.0083 Y1.9286
X1.014 Y1.9269
X1.0198 Y1.9253
X1.0257 Y1.9241
X1.0316 Y1.923
X1.0375 Y1.9223
X1.0435 Y1.9217
X1.0495 Y1.9215
X1.0555
X1.0615 Y1.9217
X1.0675 Y1.9222
X1.0734 Y1.9229
X1.0793 Y1.9239
X1.0852 Y1.9252
X1.091 Y1.9267
X1.0968 Y1.9284
X1.1024 Y1.9304
X1.108 Y1.9326
X1.1135 Y1.935
X1.1189 Y1.9377
X1.1241 Y1.9406
X1.1293 Y1.9437
X1.1343 Y1.947
X1.1392 Y1.9505
X1.1439 Y1.9542
X1.1484 Y1.9581
X1.1528 Y1.9622
X1.1571 Y1.9664
X1.1611 Y1.9708
X1.165 Y1.9754
X1.1687 Y1.9802
X1.1721 Y1.9851
X1.1754 Y1.9901
X1.1785 Y1.9952
X1.1814 Y2.0005
X1.184 Y2.0059
X1.1865 Y2.0114
X1.1887 Y2.0169
X1.1906 Y2.0226
X1.1924 Y2.0284
X1.1939 Y2.0342
X1.1952 Y2.04
X1.1962 Y2.0459
X1.197 Y2.0519
X1.1976 Y2.0579
X1.1979 Y2.0638
Y2.0698
X1.1977 Y2.0758
X1.1973 Y2.0818
X1.1966 Y2.0878
X1.1957 Y2.0937
X1.1945 Y2.0996
X1.1931 Y2.1054
X1.1915 Y2.1112
X1.1896 Y2.1169
X1.1875 Y2.1225
X1.1851 Y2.128
X1.1826 Y2.1335
X1.1798 Y2.1388
X1.1768 Y2.144
X1.1735 Y2.149
X1.1701 Y2.1539
X1.1665 Y2.1587
X1.1626 Y2.1633
X1.1586 Y2.1678
X1.1544 Y2.1721
X1.15 Y2.1762
X1.1455 Y2.1801
X1.1408 Y2.1838
X1.136 Y2.1874
X1.131 Y2.1907
X1.1259 Y2.1939
X1.1206 Y2.1968
X1.1153 Y2.1995
X1.1098 Y2.202
X1.1042 Y2.2042
X1.0986 Y2.2062
X1.0929 Y2.208
X1.0871 Y2.2096
X1.0812 Y2.2109
X1.0753 Y2.212
X1.0694 Y2.2128
X1.0634 Y2.2134
X1.0574 Y2.2138
X1.0514 Y2.2139
X1.0454 Y2.2138
X1.0394 Y2.2134
X1.0335 Y2.2128
X1.0275 Y2.2119
X1.0216 Y2.2108
X1.0158 Y2.2095
X1.01 Y2.208
X1.0042 Y2.2062
X0.9986 Y2.2041
X0.993 Y2.2019
X0.9876 Y2.1994
X0.9822 Y2.1967
X0.9769 Y2.1939
X0.9718 Y2.1907
X0.9668 Y2.1874
X0.9619 Y2.1839
X0.9572 Y2.1802
X0.9526 Y2.1764
X0.9482 Y2.1723
X0.944 Y2.1681
X0.9399 Y2.1637
X0.936 Y2.1591
X0.9323 Y2.1544
X0.9287 Y2.1495
X0.9254 Y2.1446
X0.9223 Y2.1394
X0.9194 Y2.1342
X0.9166 Y2.1288
X0.9141 Y2.1234
X0.9119 Y2.1178
X0.9098 Y2.1122
X0.908 Y2.1065
X0.9064 Y2.1007
X0.905 Y2.0949
X0.9039 Y2.089
X0.903 Y2.083
X0.9023 Y2.0771
X0.9019 Y2.0711
X0.9017 Y2.0651
Y2.0591
X0.902 Y2.0531
X0.9026 Y2.0471
X0.9033 Y2.0412
X0.9043 Y2.0353
X0.9056 Y2.0294
X0.907 Y2.0236
X0.9087 Y2.0178
X0.9106 Y2.0121
X0.9128 Y2.0065
X0.9151 Y2.001
X0.9177 Y1.9956
X0.9205 Y1.9903
X0.9235 Y1.9851
X0.9267 Y1.98
X0.9301 Y1.9751
X0.9337 Y1.9703
X0.9375 Y1.9656
X0.9415 Y1.9611
X0.9457 Y1.9568
X0.95 Y1.9526
X0.9544 Y1.9486
X0.9591 Y1.9448
X0.9639 Y1.9412
X0.9688 Y1.9378
X0.9738 Y1.9345
X0.979 Y1.9315
X0.9843 Y1.9287
X0.9897 Y1.9261
X0.9952 Y1.9237
X1.0008 Y1.9215
X1.0065 Y1.9195
X1.0122 Y1.9178
X1.018 Y1.9163
X1.0239 Y1.915
X1.0298 Y1.914
X1.0357 Y1.9132
X1.0417 Y1.9127
X1.0477 Y1.9123
X1.0537
X1.0597 Y1.9124
X1.0657 Y1.9128
X1.0717 Y1.9134
X1.0776 Y1.9143
X1.0835 Y1.9154
X1.0893 Y1.9167
X1.0951 Y1.9183
X1.1009 Y1.9201
X1.1065 Y1.9221
X1.1121 Y1.9243
X1.1176 Y1.9267
X1.123 Y1.9294
X1.1282 Y1.9323
X1.1334 Y1.9353
X1.1384 Y1.9386
X1.1433 Y1.9421
X1.1481 Y1.9457
X1.1527 Y1.9495
X1.1572 Y1.9535
X1.1615 Y1.9577
X1.1656 Y1.962
X1.1696 Y1.9665
X1.1734 Y1.9712
X1.1771 Y1.9759
X1.1805 Y1.9809
X1.1837 Y1.9859
X1.1868 Y1.9911
X1.1897 Y1.9963
X1.1923 Y2.0017
X1.1948 Y2.0072
X1.197 Y2.0128
X1.199 Y2.0184
X1.2008 Y2.0241
X1.2024 Y2.0299
X1.2038 Y2.0358
X1.2049 Y2.0417
X1.2058 Y2.0476
X1.2065 Y2.0536
X1.207 Y2.0595
X1.2072 Y2.0655
Y2.0715
X1.2069 Y2.0775
X1.2064 Y2.0835
X1.2057 Y2.0895
X1.2048 Y2.0954
X1.2036 Y2.1013
X1.2022 Y2.1071
X1.2006 Y2.1129
X1.1988 Y2.1186
X1.1967 Y2.1242
X1.1945 Y2.1298
X1.192 Y2.1353
X1.1893 Y2.1406
X1.1864 Y2.1459
X1.1833 Y2.151
X1.18 Y2.156
X1.1765 Y2.1609
X1.1728 Y2.1656
X1.1689 Y2.1702
X1.1648 Y2.1746
X1.1606 Y2.1789
X1.1563 Y2.183
X1.1517 Y2.1869
X1.1471 Y2.1907
X1.1422 Y2.1943
X1.1373 Y2.1977
X1.1322 Y2.2008
X1.127 Y2.2038
X1.1217 Y2.2066
X1.1163 Y2.2092
X1.1108 Y2.2116
X1.1052 Y2.2137
X1.0995 Y2.2157
X1.0937 Y2.2174
X1.0879 Y2.2189
X1.0821 Y2.2202
X1.0762 Y2.2212
X1.0702 Y2.222
X1.0642 Y2.2226
X1.0583 Y2.223
X1.0523 Y2.2232
X1.0463 Y2.2231
X1.0403 Y2.2228
X1.0343 Y2.2222
X1.0283 Y2.2215
X1.0224 Y2.2205
X1.0165 Y2.2192
X1.0107 Y2.2178
X1.005 Y2.2162
X0.9993 Y2.2143
X0.9936 Y2.2122
X0.9881 Y2.2099
X0.9826 Y2.2074
X0.9773 Y2.2047
X0.972 Y2.2018
X0.9669 Y2.1986
X0.9619 Y2.1954
X0.957 Y2.1919
X0.9523 Y2.1882
X0.9476 Y2.1844
X0.9432 Y2.1804
X0.9389 Y2.1762
X0.9347 Y2.1718
X0.9307 Y2.1674
X0.9269 Y2.1627
X0.9233 Y2.158
X0.9198 Y2.153
X0.9166 Y2.148
X0.9135 Y2.1429
X0.9106 Y2.1376
X0.9079 Y2.1322
X0.9055 Y2.1268
X0.9032 Y2.1212
X0.9011 Y2.1156
X0.8993 Y2.1099
X0.8976 Y2.1041
X0.8962 Y2.0983
X0.895 Y2.0924
X0.8941 Y2.0865
X0.8933 Y2.0805
X0.8928 Y2.0745
X0.8924 Y2.0685
Y2.0625
X0.8925 Y2.0565
X0.8929 Y2.0506
X0.8935 Y2.0446
X0.8943 Y2.0386
X0.8953 Y2.0327
X0.8966 Y2.0269
X0.898 Y2.0211
X0.8997 Y2.0153
X0.9016 Y2.0096
X0.9038 Y2.004
X0.9061 Y1.9985
X0.9086 Y1.993
X0.9113 Y1.9877
X0.9143 Y1.9824
X0.9174 Y1.9773
X0.9207 Y1.9723
X0.9242 Y1.9674
X0.9279 Y1.9627
X0.9317 Y1.9581
X0.9357 Y1.9536
X0.9399 Y1.9493
X0.9443 Y1.9452
X0.9488 Y1.9412
X0.9534 Y1.9374
X0.9582 Y1.9338
X0.9631 Y1.9304
X0.9681 Y1.9271
X0.9733 Y1.924
X0.9786 Y1.9211
X0.9839 Y1.9185
X0.9894 Y1.916
X0.995 Y1.9137
X1.0006 Y1.9117
X1.0063 Y1.9098
X1.0121 Y1.9082
X1.0179 Y1.9068
X1.0238 Y1.9056
X1.0297 Y1.9046
X1.0357 Y1.9038
X1.0416 Y1.9033
X1.0476 Y1.903
X1.0536 Y1.9029
X1.0596 Y1.9031
X1.0656 Y1.9034
X1.0716 Y1.904
X1.0775 Y1.9048
X1.0834 Y1.9059
X1.0893 Y1.9071
X1.0951 Y1.9086
X1.1009 Y1.9103
X1.1066 Y1.9122
X1.1122 Y1.9143
X1.1177 Y1.9166
X1.1232 Y1.9191
X1.1285 Y1.9218
X1.1338 Y1.9247
X1.1389 Y1.9278
X1.144 Y1.9311
X1.1489 Y1.9345
X1.1536 Y1.9382
X1.1583 Y1.942
X1.1628 Y1.9459
X1.1671 Y1.9501
X1.1713 Y1.9544
X1.1753 Y1.9588
X1.1792 Y1.9634
X1.1829 Y1.9681
X1.1865 Y1.973
X1.1898 Y1.9779
X1.193 Y1.983
X1.196 Y1.9882
X1.1988 Y1.9935
X1.2014 Y1.9989
X1.2038 Y2.0044
X1.206 Y2.01
X1.208 Y2.0157
X1.2098 Y2.0214
X1.2114 Y2.0272
X1.2128 Y2.033
X1.2139 Y2.0389
X1.2149 Y2.0448
X1.2156 Y2.0508
X1.2162 Y2.0567
X1.2165 Y2.0627
X1.2166 Y2.0687
X1.2164 Y2.0747
X1.2161 Y2.0807
X1.2155 Y2.0867
X1.2148 Y2.0927
X1.2138 Y2.0986
X1.2125 Y2.1044
X1.2111 Y2.1103
X1.2095 Y2.116
X1.2076 Y2.1217
X1.2056 Y2.1274
X1.2033 Y2.1329
X1.2008 Y2.1384
X1.1982 Y2.1438
X1.1953 Y2.1491
X1.1923 Y2.1542
X1.189 Y2.1593
X1.1856 Y2.1642
X1.182 Y2.169
X1.1782 Y2.1737
X1.1743 Y2.1782
X1.1702 Y2.1826
X1.1659 Y2.1868
X1.1615 Y2.1909
X1.157 Y2.1948
X1.1523 Y2.1985
X1.1474 Y2.2021
X1.1425 Y2.2054
X1.1374 Y2.2086
X1.1322 Y2.2117
X1.1269 Y2.2145
X1.1215 Y2.2171
X1.116 Y2.2195
X1.1105 Y2.2218
X1.1048 Y2.2238
X1.0991 Y2.2256
X1.0933 Y2.2272
X1.0875 Y2.2286
X1.0816 Y2.2298
X1.0757 Y2.2308
X1.0697 Y2.2316
X1.0638 Y2.2321
X1.0578 Y2.2324
X1.0518 Y2.2326
X1.0458 Y2.2325
X1.0398 Y2.2321
X1.0338 Y2.2316
X1.0278 Y2.2309
X1.0219 Y2.2299
X1.016 Y2.2288
X1.0102 Y2.2274
X1.0044 Y2.2258
X0.9987 Y2.224
X0.993 Y2.222
X0.9874 Y2.2198
X0.9819 Y2.2174
X0.9765 Y2.2149
X0.9712 Y2.2121
X0.966 Y2.2091
X0.9609 Y2.206
X0.9559 Y2.2026
X0.951 Y2.1991
X0.9463 Y2.1955
X0.9417 Y2.1916
X0.9372 Y2.1876
X0.9329 Y2.1835
X0.9287 Y2.1792
X0.9247 Y2.1747
X0.9208 Y2.1701
X0.9171 Y2.1654
X0.9136 Y2.1605
X0.9102 Y2.1556
X0.907 Y2.1505
X0.904 Y2.1453
X0.9012 Y2.14
X0.8986 Y2.1346
X0.8962 Y2.1291
X0.894 Y2.1235
X0.8919 Y2.1179
X0.8901 Y2.1122
X0.8885 Y2.1064
X0.8871 Y2.1005
X0.8859 Y2.0947
X0.8849 Y2.0888
X0.8841 Y2.0828
X0.8835 Y2.0768
X0.8831 Y2.0708
X0.883 Y2.0648
Y2.0588
X0.8833 Y2.0529
X0.8837 Y2.0469
X0.8844 Y2.0409
X0.8853 Y2.035
X0.8864 Y2.0291
X0.8877 Y2.0232
X0.8893 Y2.0174
X0.891 Y2.0117
X0.8929 Y2.006
X0.895 Y2.0004
X0.8974 Y1.9949
X0.8999 Y1.9894
X0.9026 Y1.9841
X0.9055 Y1.9788
X0.9086 Y1.9736
X0.9118 Y1.9686
X0.9153 Y1.9637
X0.9189 Y1.9589
X0.9226 Y1.9542
X0.9266 Y1.9497
X0.9307 Y1.9453
X0.9349 Y1.9411
X0.9393 Y1.937
X0.9438 Y1.9331
X0.9485 Y1.9293
X0.9533 Y1.9257
X0.9582 Y1.9223
X0.9633 Y1.919
X0.9684 Y1.9159
X0.9737 Y1.9131
X0.979 Y1.9104
X0.9845 Y1.9078
X0.99 Y1.9055
X0.9956 Y1.9034
X1.0013 Y1.9015
X1.0071 Y1.8998
X1.0129 Y1.8983
X1.0187 Y1.8969
X1.0246 Y1.8958
X1.0306 Y1.895
X1.0365 Y1.8943
X1.0425 Y1.8938
X1.0485 Y1.8935
X1.0545
X1.0605 Y1.8937
X1.0665 Y1.894
X1.0725 Y1.8946
X1.0784 Y1.8954
X1.0843 Y1.8964
X1.0902 Y1.8976
X1.096 Y1.8991
X1.1018 Y1.9007
X1.1075 Y1.9025
X1.1132 Y1.9045
X1.1188 Y1.9067
X1.1243 Y1.9091
X1.1297 Y1.9117
X1.135 Y1.9145
X1.1402 Y1.9175
X1.1453 Y1.9206
X1.1503 Y1.9239
X1.1552 Y1.9274
X1.1599 Y1.9311
X1.1646 Y1.9349
X1.1691 Y1.9389
X1.1734 Y1.943
X1.1776 Y1.9473
X1.1817 Y1.9517
X1.1856 Y1.9562
X1.1894 Y1.9609
X1.1929 Y1.9657
X1.1964 Y1.9707
X1.1996 Y1.9757
X1.2027 Y1.9808
X1.2056 Y1.9861
X1.2083 Y1.9914
X1.2109 Y1.9969
X1.2132 Y2.0024
X1.2154 Y2.008
X1.2173 Y2.0137
X1.2191 Y2.0194
X1.2207 Y2.0252
X1.2221 Y2.031
X1.2232 Y2.0369
X1.2242 Y2.0428
X1.225 Y2.0488
X1.2255 Y2.0548
X1.2259 Y2.0607
X1.226 Y2.0667
Y2.0727
X1.2257 Y2.0787
X1.2253 Y2.0847
X1.2246 Y2.0907
X1.2237 Y2.0966
X1.2226 Y2.1025
X1.2214 Y2.1084
X1.2199 Y2.1142
X1.2182 Y2.12
X1.2163 Y2.1256
X1.2142 Y2.1313
X1.2119 Y2.1368
X1.2095 Y2.1423
X1.2068 Y2.1477
X1.204 Y2.153
X1.201 Y2.1581
X1.1978 Y2.1632
X1.1944 Y2.1682
X1.1908 Y2.173
X1.1871 Y2.1778
X1.1833 Y2.1823
X1.1793 Y2.1868
X1.1751 Y2.1911
X1.1708 Y2.1953
X1.1663 Y2.1993
X1.1617 Y2.2031
X1.157 Y2.2068
X1.1521 Y2.2104
X1.1471 Y2.2137
X1.1421 Y2.2169
X1.1369 Y2.2199
X1.1316 Y2.2227
X1.1262 Y2.2254
X1.1207 Y2.2278
X1.1152 Y2.2301
X1.1095 Y2.2322
X1.1038 Y2.2341
X1.0981 Y2.2358
X1.0923 Y2.2373
X1.0864 Y2.2386
X1.0805 Y2.2396
X1.0746 Y2.2405
X1.0686 Y2.2412
X1.0626 Y2.2417
X1.0566 Y2.242
X1.0506 Y2.2421
X1.0447 Y2.2419
X1.0387 Y2.2416
X1.0327 Y2.2411
X1.0267 Y2.2403
X1.0208 Y2.2394
X1.0149 Y2.2382
X1.0091 Y2.2369
X1.0033 Y2.2354
X0.9975 Y2.2336
X0.9918 Y2.2317
X0.9862 Y2.2296
X0.9807 Y2.2273
X0.9752 Y2.2248
X0.9698 Y2.2221
X0.9646 Y2.2193
X0.9594 Y2.2163
X0.9543 Y2.2131
X0.9493 Y2.2097
X0.9445 Y2.2062
X0.9398 Y2.2025
X0.9352 Y2.1986
X0.9307 Y2.1946
X0.9264 Y2.1905
X0.9222 Y2.1862
X0.9181 Y2.1817
X0.9142 Y2.1772
X0.9105 Y2.1725
X0.9069 Y2.1677
X0.9035 Y2.1627
X0.9003 Y2.1577
X0.8972 Y2.1525
X0.8943 Y2.1473
X0.8916 Y2.1419
X0.889 Y2.1365
X0.8867 Y2.131
X0.8845 Y2.1254
X0.8825 Y2.1197
X0.8807 Y2.114
X0.8791 Y2.1082
X0.8777 Y2.1024
X0.8765 Y2.0965
X0.8755 Y2.0906
X0.8747 Y2.0846
X0.8741 Y2.0787
X0.8737 Y2.0727
X0.8734 Y2.0667
Y2.0607
X0.8736 Y2.0547
X0.874 Y2.0487
X0.8746 Y2.0427
X0.8754 Y2.0368
X0.8764 Y2.0309
X0.8775 Y2.025
X0.8789 Y2.0191
X0.8805 Y2.0134
X0.8823 Y2.0076
X0.8842 Y2.002
X0.8864 Y1.9964
X0.8887 Y1.9908
X0.8912 Y1.9854
X0.8939 Y1.98
X0.8968 Y1.9748
X0.8999 Y1.9696
X0.9031 Y1.9645
X0.9065 Y1.9596
X0.91 Y1.9547
X0.9137 Y1.95
X0.9176 Y1.9454
X0.9216 Y1.941
X0.9258 Y1.9367
X0.9301 Y1.9325
X0.9345 Y1.9285
X0.9391 Y1.9246
X0.9438 Y1.9208
X0.9487 Y1.9173
X0.9536 Y1.9139
X0.9587 Y1.9107
X0.9638 Y1.9076
X0.9691 Y1.9047
X0.9744 Y1.902
X0.9799 Y1.8995
X0.9854 Y1.8971
X0.991 Y1.895
X0.9967 Y1.893
X1.0024 Y1.8912
X1.0082 Y1.8896
X1.014 Y1.8882
X1.0199 Y1.887
X1.0258 Y1.886
X1.0317 Y1.8852
X1.0377 Y1.8846
X1.0437 Y1.8842
X1.0497 Y1.884
X1.0557
X1.0617 Y1.8842
X1.0677 Y1.8846
X1.0736 Y1.8852
X1.0796 Y1.886
X1.0855 Y1.8869
X1.0914 Y1.8881
X1.0972 Y1.8895
X1.103 Y1.8911
X1.1088 Y1.8928
X1.1144 Y1.8948
X1.12 Y1.8969
X1.1256 Y1.8992
X1.131 Y1.9017
X1.1364 Y1.9044
X1.1417 Y1.9073
X1.1469 Y1.9103
X1.1519 Y1.9135
X1.1569 Y1.9169
X1.1618 Y1.9204
X1.1665 Y1.9241
X1.1711 Y1.9279
X1.1756 Y1.9319
X1.18 Y1.936
X1.1842 Y1.9403
X1.1883 Y1.9447
X1.1922 Y1.9492
X1.196 Y1.9538
X1.1996 Y1.9586
X1.2031 Y1.9635
X1.2064 Y1.9685
X1.2096 Y1.9736
X1.2126 Y1.9788
X1.2154 Y1.9841
X1.218 Y1.9895
X1.2205 Y1.995
X1.2228 Y2.0005
X1.2249 Y2.0061
X1.2268 Y2.0118
X1.2286 Y2.0175
X1.2301 Y2.0233
X1.2315 Y2.0292
X1.2326 Y2.0351
X1.2336 Y2.041
X1.2344 Y2.0469
X1.235 Y2.0529
X1.2354 Y2.0589
X1.2356 Y2.0649
Y2.0709
X1.2354 Y2.0769
X1.235 Y2.0829
X1.2345 Y2.0888
X1.2337 Y2.0948
X1.2327 Y2.1007
X1.2316 Y2.1066
X1.2302 Y2.1125
X1.2287 Y2.1183
X1.2269 Y2.124
X1.225 Y2.1297
X1.2229 Y2.1353
X1.2206 Y2.1408
X1.2182 Y2.1463
X1.2155 Y2.1517
X1.2127 Y2.157
X1.2097 Y2.1622
X1.2065 Y2.1673
X1.2032 Y2.1723
X1.1997 Y2.1772
X1.1961 Y2.1819
X1.1923 Y2.1866
X1.1883 Y2.1911
X1.1842 Y2.1955
X1.18 Y2.1997
X1.1756 Y2.2038
X1.1711 Y2.2078
X1.1665 Y2.2116
X1.1617 Y2.2153
X1.1568 Y2.2188
X1.1519 Y2.2221
X1.1468 Y2.2253
X1.1416 Y2.2283
X1.1363 Y2.2311
X1.1309 Y2.2338
X1.1254 Y2.2362
X1.1199 Y2.2385
X1.1143 Y2.2407
X1.1086 Y2.2426
X1.1029 Y2.2444
X1.0971 Y2.2459
X1.0912 Y2.2473
X1.0854 Y2.2485
X1.0794 Y2.2495
X1.0735 Y2.2503
X1.0675 Y2.251
X1.0616 Y2.2514
X1.0556 Y2.2516
X1.0496 Y2.2517
X1.0436 Y2.2515
X1.0376 Y2.2511
X1.0316 Y2.2506
X1.0256 Y2.2499
X1.0197 Y2.2489
X1.0138 Y2.2478
X1.008 Y2.2465
X1.0021 Y2.245
X0.9964 Y2.2433
X0.9907 Y2.2415
X0.985 Y2.2394
X0.9795 Y2.2372
X0.974 Y2.2348
X0.9685 Y2.2323
X0.9632 Y2.2295
X0.958 Y2.2266
X0.9528 Y2.2235
X0.9478 Y2.2203
X0.9428 Y2.2169
X0.938 Y2.2133
X0.9333 Y2.2096
X0.9287 Y2.2057
X0.9242 Y2.2017
X0.9199 Y2.1976
X0.9157 Y2.1933
X0.9116 Y2.1889
X0.9077 Y2.1843
X0.9039 Y2.1797
X0.9003 Y2.1749
X0.8968 Y2.17
X0.8935 Y2.165
X0.8904 Y2.1599
X0.8874 Y2.1547
X0.8845 Y2.1494
X0.8819 Y2.144
X0.8794 Y2.1386
X0.8771 Y2.133
X0.875 Y2.1274
X0.873 Y2.1217
X0.8713 Y2.116
X0.8697 Y2.1102
X0.8683 Y2.1044
X0.8671 Y2.0985
X0.8661 Y2.0926
X0.8652 Y2.0866
X0.8646 Y2.0807
X0.8641 Y2.0747
X0.8639 Y2.0687
X0.8638 Y2.0627
X0.8639 Y2.0567
X0.8642 Y2.0507
X0.8647 Y2.0447
X0.8654 Y2.0388
X0.8662 Y2.0328
X0.8673 Y2.0269
X0.8686 Y2.0211
X0.87 Y2.0152
X0.8716 Y2.0095
X0.8734 Y2.0037
X0.8754 Y1.9981
X0.8776 Y1.9925
X0.8799 Y1.987
X0.8824 Y1.9815
X0.8851 Y1.9761
X0.888 Y1.9709
X0.891 Y1.9657
X0.8942 Y1.9606
X0.8975 Y1.9556
X0.901 Y1.9507
X0.9046 Y1.946
X0.9084 Y1.9413
X0.9124 Y1.9368
X0.9165 Y1.9324
X0.9207 Y1.9281
X0.9251 Y1.924
X0.9295 Y1.92
X0.9341 Y1.9162
X0.9389 Y1.9125
X0.9437 Y1.909
X0.9487 Y1.9056
X0.9537 Y1.9024
X0.9589 Y1.8993
X0.9642 Y1.8964
X0.9695 Y1.8937
X0.9749 Y1.8911
X0.9804 Y1.8887
X0.986 Y1.8865
X0.9917 Y1.8845
X0.9974 Y1.8826
X1.0031 Y1.881
X1.009 Y1.8795
X1.0148 Y1.8782
X1.0207 Y1.8771
X1.0266 Y1.8761
X1.0326 Y1.8754
X1.0386 Y1.8749
X1.0446 Y1.8745
X1.0506 Y1.8743
X1.0566
X1.0626 Y1.8746
X1.0685 Y1.875
X1.0745 Y1.8756
X1.0805 Y1.8763
X1.0865 Y1.8773
X1.0924 Y1.8785
X1.0983 Y1.8798
X1.1041 Y1.8814
X1.11 Y1.8831
X1.1157 Y1.885
X1.1214 Y1.8871
X1.127 Y1.8894
X1.1326 Y1.8918
X1.1381 Y1.8944
X1.1435 Y1.8972
X1.1488 Y1.9002
X1.154 Y1.9033
X1.1591 Y1.9066
X1.1641 Y1.9101
X1.169 Y1.9137
X1.1738 Y1.9175
X1.1784 Y1.9214
X1.183 Y1.9255
X1.1874 Y1.9297
X1.1917 Y1.9341
X1.1959 Y1.9386
X1.1999 Y1.9433
X1.2038 Y1.948
X1.2075 Y1.9529
X1.2111 Y1.958
X1.2145 Y1.9631
X1.2177 Y1.9683
X1.2208 Y1.9736
X1.2237 Y1.9791
X1.2264 Y1.9846
X1.229 Y1.9902
X1.2314 Y1.9958
X1.2336 Y2.0016
X1.2356 Y2.0074
X1.2374 Y2.0132
X1.239 Y2.0192
X1.2405 Y2.0251
X1.2418 Y2.0311
X1.2428 Y2.0372
X1.2437 Y2.0433
X1.2444 Y2.0494
X1.2449 Y2.0555
X1.2452 Y2.0617
X1.2453 Y2.0678
X1.2452 Y2.074
X1.245 Y2.0801
X1.2445 Y2.0862
X1.2438 Y2.0923
X1.243 Y2.0983
X1.2419 Y2.1043
X1.2407 Y2.1102
X1.2393 Y2.1161
X1.2377 Y2.122
X1.2359 Y2.1278
X1.2339 Y2.1335
X1.2318 Y2.1392
X1.2294 Y2.1448
X1.2269 Y2.1504
X1.2242 Y2.1559
X1.2214 Y2.1613
X1.2183 Y2.1666
X1.2151 Y2.1718
X1.2118 Y2.1769
X1.2082 Y2.1819
X1.2046 Y2.1868
X1.2007 Y2.1915
X1.1968 Y2.1962
X1.1926 Y2.2007
X1.1884 Y2.205
X1.184 Y2.2092
X1.1795 Y2.2133
X1.1748 Y2.2173
X1.17 Y2.2211
X1.1651 Y2.2247
X1.1601 Y2.2282
X1.155 Y2.2316
X1.1497 Y2.2348
X1.1444 Y2.2378
X1.139 Y2.2406
X1.1334 Y2.2433
X1.1278 Y2.2458
X1.1221 Y2.2481
X1.1164 Y2.2502
X1.1105 Y2.2522
X1.1046 Y2.254
X1.0987 Y2.2556
X1.0927 Y2.257
X1.0867 Y2.2582
X1.0806 Y2.2592
X1.0745 Y2.26
X1.0684 Y2.2606
X1.0622 Y2.2611
X1.056 Y2.2613
X1.0499 Y2.2614
X1.0437 Y2.2612
X1.0375 Y2.2609
X1.0313 Y2.2603
X1.0251 Y2.2596
X1.019 Y2.2587
X1.0129 Y2.2575
X1.0068 Y2.2562
X1.0007 Y2.2547
X0.9947 Y2.253
X0.9888 Y2.2511
X0.9829 Y2.249
X0.9771 Y2.2468
X0.9714 Y2.2443
X0.9657 Y2.2417
X0.9602 Y2.2389
X0.9547 Y2.2359
X0.9493 Y2.2328
X0.944 Y2.2295
X0.9389 Y2.226
X0.9338 Y2.2223
X0.9289 Y2.2185
X0.924 Y2.2146
X0.9193 Y2.2104
X0.9148 Y2.2062
X0.9103 Y2.2017
X0.906 Y2.1972
X0.9018 Y2.1925
X0.8978 Y2.1877
X0.894 Y2.1827
X0.8903 Y2.1776
X0.8867 Y2.1725
X0.8834 Y2.1672
X0.8802 Y2.1618
X0.8772 Y2.1563
X0.8743 Y2.1507
X0.8717 Y2.1451
X0.8692 Y2.1393
X0.8669 Y2.1335
X0.8647 Y2.1276
X0.8628 Y2.1217
X0.8611 Y2.1156
X0.8595 Y2.1096
X0.8581 Y2.1034
X0.857 Y2.0973
X0.856 Y2.0911
X0.8552 Y2.0848
X0.8546 Y2.0786
X0.8542 Y2.0723
X0.8541 Y2.066
Y2.0597
X0.8543 Y2.0534
X0.8547 Y2.0471
X0.8553 Y2.0409
X0.8561 Y2.0347
X0.8571 Y2.0285
X0.8583 Y2.0223
X0.8597 Y2.0162
X0.8613 Y2.0102
X0.863 Y2.0042
X0.865 Y1.9982
X0.8672 Y1.9923
X0.8695 Y1.9865
X0.872 Y1.9807
X0.8747 Y1.975
X0.8776 Y1.9694
X0.8807 Y1.9639
X0.8839 Y1.9585
X0.8873 Y1.9532
X0.8909 Y1.948
X0.8946 Y1.943
X0.8985 Y1.938
X0.9025 Y1.9332
X0.9067 Y1.9285
X0.9111 Y1.924
X0.9155 Y1.9196
X0.9201 Y1.9153
X0.9248 Y1.9112
X0.9297 Y1.9073
X0.9347 Y1.9035
X0.9398 Y1.8998
X0.945 Y1.8963
X0.9504 Y1.893
X0.9558 Y1.8899
X0.9613 Y1.8869
X0.967 Y1.8841
X0.9727 Y1.8814
X0.9785 Y1.879
X0.9844 Y1.8767
X0.9903 Y1.8746
X0.9964 Y1.8728
X1.0024 Y1.8711
X1.0085 Y1.8696
X1.0147 Y1.8683
X1.0209 Y1.8672
X1.0271 Y1.8662
X1.0333 Y1.8655
X1.0396 Y1.865
X1.0458 Y1.8647
X1.0521 Y1.8646
X1.0584
X1.0647 Y1.8649
X1.071 Y1.8654
X1.0773 Y1.8661
X1.0836 Y1.8669
X1.0899 Y1.868
X1.0961 Y1.8693
X1.1023 Y1.8707
X1.1084 Y1.8724
X1.1145 Y1.8743
X1.1205 Y1.8763
X1.1265 Y1.8786
X1.1324 Y1.881
X1.1382 Y1.8836
X1.1439 Y1.8864
X1.1496 Y1.8894
X1.1551 Y1.8926
X1.1605 Y1.8959
X1.1659 Y1.8994
X1.1711 Y1.9031
X1.1763 Y1.9069
X1.1813 Y1.911
X1.1861 Y1.9151
X1.1909 Y1.9195
X1.1955 Y1.9239
X1.2 Y1.9286
X1.2043 Y1.9334
X1.2085 Y1.9383
X1.2125 Y1.9433
X1.2164 Y1.9485
X1.2201 Y1.9538
X1.2236 Y1.9592
X1.227 Y1.9647
X1.2302 Y1.9703
X1.2332 Y1.976
X1.236 Y1.9818
X1.2386 Y1.9877
X1.2411 Y1.9937
X1.2433 Y1.9997
X1.2454 Y2.0059
X1.2473 Y2.012
X1.2489 Y2.0183
X1.2504 Y2.0246
X1.2517 Y2.0309
X1.2528 Y2.0373
X1.2537 Y2.0437
X1.2543 Y2.0501
X1.2548 Y2.0565
X1.2551 Y2.063
Y2.0694
X1.255 Y2.0758
X1.2546 Y2.0823
X1.2541 Y2.0886
X1.2534 Y2.095
X1.2524 Y2.1013
X1.2513 Y2.1076
X1.2499 Y2.1139
X1.2484 Y2.1201
X1.2466 Y2.1262
X1.2447 Y2.1323
X1.2426 Y2.1384
X1.2403 Y2.1444
X1.2378 Y2.1503
X1.2351 Y2.1561
X1.2322 Y2.1618
X1.2292 Y2.1675
X1.2259 Y2.173
X1.2225 Y2.1784
X1.2189 Y2.1838
X1.2152 Y2.189
X1.2113 Y2.1941
X1.2072 Y2.199
X1.203 Y2.2039
X1.1986 Y2.2086
X1.1941 Y2.2131
X1.1895 Y2.2175
X1.1847 Y2.2218
X1.1798 Y2.2259
X1.1747 Y2.2299
X1.1695 Y2.2337
X1.1642 Y2.2373
X1.1588 Y2.2408
X1.1532 Y2.2441
X1.1476 Y2.2472
X1.1419 Y2.2501
X1.136 Y2.2529
X1.1301 Y2.2555
X1.1241 Y2.2578
X1.1181 Y2.26
X1.1119 Y2.262
X1.1057 Y2.2639
X1.0995 Y2.2655
X1.0932 Y2.2669
X1.0868 Y2.2681
X1.0804 Y2.2691
X1.074 Y2.2699
X1.0675 Y2.2706
X1.0611 Y2.271
X1.0546 Y2.2712
X1.0481
X1.0416 Y2.271
X1.0351 Y2.2705
X1.0286 Y2.2699
X1.0272 Y2.2698
X1.0234 Y2.2691
X1.0196 Y2.2682
X1.0158 Y2.267
X1.0072 Y2.2639
X1.0064 Y2.2638
X1.005 Y2.2637
X0.999 Y2.2629
X0.9932 Y2.2616
X0.9874 Y2.26
X0.9817 Y2.2583
X0.976 Y2.2563
X0.9704 Y2.2541
X0.9649 Y2.2518
X0.9595 Y2.2492
X0.954 Y2.2465
X0.9486 Y2.2435
X0.9432 Y2.2404
X0.9379 Y2.237
X0.9326 Y2.2335
X0.9274 Y2.2297
X0.9223 Y2.2258
X0.9173 Y2.2217
X0.9124 Y2.2174
X0.9077 Y2.2129
X0.9031 Y2.2083
X0.8986 Y2.2036
X0.8942 Y2.1987
X0.89 Y2.1936
X0.886 Y2.1885
X0.8821 Y2.1832
X0.8785 Y2.1777
X0.8749 Y2.1722
X0.8716 Y2.1666
X0.8697 Y2.163
X0.8684 Y2.16
X0.8673 Y2.157
G3 X0.8869 Y2.1435 I0.012 J-0.0036
G1 X1.0132 Y2.2413
G3 X1.005 Y2.2637 I-0.0077 J0.0099
G1 X0.9912 Y2.2626
X0.9905 Y2.2627
X0.9889 Y2.263
X0.983 Y2.2638 F23.4
X0.977 Y2.263 F26
X0.9712 Y2.2617
X0.9654 Y2.2601
X0.9597 Y2.2581
X0.9542 Y2.2559
X0.9487 Y2.2534
X0.9433 Y2.2507
X0.9381 Y2.2478
X0.9329 Y2.2448
X0.9279 Y2.2415
X0.9229 Y2.2381
X0.9179 Y2.2344
X0.913 Y2.2305
X0.9081 Y2.2265
X0.9033 Y2.2222
X0.8986 Y2.2177
X0.8939 Y2.213
X0.8894 Y2.2081
X0.8885 Y2.2071
X0.8842 Y2.2015
X0.8807 Y2.1953
X0.878 Y2.1888
G3 X0.8971 Y2.1749 I0.012 J-0.0036
G1 X0.8972 Y2.175
X0.9917 Y2.2394
X0.9933 Y2.2405
G3 X0.9889 Y2.263 I-0.0071 J0.0103
G1 X0.9787 Y2.2649
X0.9727 Y2.2657
X0.9667 Y2.2656
X0.9608 Y2.2647
X0.9549 Y2.2634
X0.9492 Y2.2616
X0.9436 Y2.2595
X0.9381 Y2.2571
X0.9327 Y2.2545
X0.9274 Y2.2516
X0.9223 Y2.2485
X0.9172 Y2.2452
X0.9123 Y2.2418
X0.9075 Y2.2382
X0.9028 Y2.2344
X0.901 Y2.2329
X0.8942 Y2.2259
X0.8888 Y2.2178
X0.8848 Y2.2089
G3 X0.9032 Y2.1946 I0.012 J-0.0036
G1 X0.904 Y2.1951
X0.9814 Y2.2414
X0.9824 Y2.242
G3 X0.9787 Y2.2649 I-0.0065 J0.0107
G1 X0.9749 Y2.2656
X0.9737 Y2.2661
X0.9724 Y2.2666
X0.9668 Y2.2688 F23.4
X0.9608 Y2.2694 F26
X0.9549 Y2.2691
X0.9489 Y2.2682
X0.9431 Y2.2667
X0.9374 Y2.2649
X0.9318 Y2.2627
X0.9263 Y2.2603
X0.921 Y2.2576
X0.9157 Y2.2546
X0.9107 Y2.2514
X0.9102 Y2.2511
X0.9016 Y2.2436
X0.8947 Y2.2344
X0.8899 Y2.224
G3 X0.9078 Y2.2094 I0.012 J-0.0036
G1 X0.9091 Y2.2101
X0.9698 Y2.2427
X0.9729 Y2.2444
G3 X0.9724 Y2.2666 I-0.0059 J0.011
G1 X0.9645 Y2.2702
X0.963 Y2.271
X0.9576 Y2.2737 F23.4
X0.9516 Y2.274 F26
X0.9457 Y2.2736
X0.9397 Y2.2726
X0.9339 Y2.2712
X0.9282 Y2.2694
X0.9226 Y2.2672
X0.9218 Y2.2668
X0.9125 Y2.2612
X0.9045 Y2.2538
X0.8982 Y2.245
X0.8937 Y2.2351
G3 X0.9119 Y2.2206 I0.012 J-0.0036
G1 X0.9129 Y2.2212
X0.9583 Y2.247
X0.9626 Y2.2494
G3 X0.963 Y2.271 I-0.0061 J0.0109
G1 X0.9596 Y2.2729
X0.9587 Y2.2737
X0.9564 Y2.2757 F23.4
X0.9508 Y2.2777 F26
X0.9448 Y2.2784
X0.9342 Y2.2771
X0.9241 Y2.2737
X0.9149 Y2.2683
X0.907 Y2.2612
X0.9007 Y2.2526
X0.8963 Y2.2428
G3 X0.9148 Y2.2286 I0.012 J-0.0035
G1 X0.9155 Y2.229
X0.9492 Y2.2499
X0.9564 Y2.2543
G3 X0.9588 Y2.2738 I-0.0066 J0.0107
G1 X0.9544 Y2.2778
X0.9498 Y2.2817 F23.4
X0.944 Y2.283
X0.9324 Y2.2818 F26
X0.9215 Y2.2777
X0.9119 Y2.2711
X0.9044 Y2.2622
X0.8993 Y2.2518
G3 X0.9178 Y2.2375 I0.012 J-0.0036
G1 X0.9185 Y2.2379
X0.9448 Y2.254
X0.952 Y2.2583
G3 X0.9544 Y2.2778 I-0.0065 J0.0107
G1 X0.9498 Y2.2821
X0.9453 Y2.286 F23.4
X0.9394 Y2.2872
X0.9296 Y2.2858 F26
X0.9205 Y2.2821
X0.9126 Y2.2763
X0.9063 Y2.2688
X0.902 Y2.2599
G3 X0.9207 Y2.2457 I0.012 J-0.0036
G1 X0.9212 Y2.2461
X0.9403 Y2.2582
X0.9476 Y2.2628
G3 X0.9498 Y2.282 I-0.0067 J0.0105
G1 X0.9449 Y2.2867
X0.9427 Y2.2887 F23.4
X0.9369 Y2.2906
X0.9286 Y2.2896 F26
X0.9207 Y2.2866
X0.9138 Y2.2818
X0.9084 Y2.2754
X0.9047 Y2.2678
G3 X0.9176 Y2.2433 I0.0189 J-0.0057
X0.945 Y2.2868 I0.0081 J0.0253
G1 X0.9442 Y2.2875
X0.9431 Y2.289
X0.9413 Y2.2914 F23.4
X0.9358 Y2.2938
X0.9284 Y2.2933 F26
X0.9213 Y2.2909
X0.9151 Y2.2867
X0.9102 Y2.2811
X0.9069 Y2.2744
G3 X0.9142 Y2.2573 I0.0138 J-0.0042
X0.9432 Y2.2891 I0.0101 J0.0199
G1 X0.9423 Y2.2903
X0.9413 Y2.2919
X0.9405 Y2.2932 F23.4
X0.9382 Y2.2952
X0.9326 Y2.2973
X0.925 Y2.2961
X0.9181 Y2.2927
X0.9126 Y2.2873
X0.909 Y2.2805 F26
G3 X0.9142 Y2.2665 I0.0118 J-0.0036
X0.9413 Y2.2919 I0.0103 J0.0162
G1 X0.9396 Y2.2948
X0.938 Y2.2973 F23.4
X0.9355 Y2.2989
X0.9297 Y2.3006
X0.9236 Y2.2992
X0.9181 Y2.2961
X0.9137 Y2.2915
X0.9108 Y2.2859 F26
G3 X0.9149 Y2.2734 I0.011 J-0.0033
X0.9396 Y2.2948 I0.0101 J0.0133
G1 X0.9375 Y2.2985
X0.9366 Y2.2997
X0.9355 Y2.3009
X0.9334 Y2.3026
X0.9321 Y2.3035
X0.931 Y2.3031
G3 X0.9117 Y2.2865 I0.0148 J-0.0366
X0.9364 Y2.2699 I0.0129 J-0.0075
X0.9357 Y2.301 I-0.0196 J0.0151
G1 X0.9345 Y2.3018
X0.9333 Y2.3028
X0.9321 Y2.3035
X0.9309 Y2.304
X0.9297 Y2.3044
X0.9283 Y2.3048
X0.926 Y2.3049
X0.925 Y2.3048
X0.9239 Y2.3047
G3 X0.9181 Y2.2968 I0.0023 J-0.0078
X0.9343 Y2.297 I0.0081 J0.0001
X0.9283 Y2.3047 I-0.0081 J-0.0001
G1 X0.9268 Y2.3049
X0.9254
X0.9239 Y2.3047
X0.9225 Y2.3044
X0.921 Y2.3038
X0.9196 Y2.303
X0.9179 Y2.3016
X0.9166 Y2.3004
X0.9157 Y2.2986
X0.9153 Y2.2966
X0.9155 Y2.2946
X0.9161 Y2.2927
X0.9172 Y2.2911
G3 X0.9288 Y2.3013 I0.0058 J0.0051
X0.9196 Y2.3031 I-0.0058 J-0.0051
G1 X0.918 Y2.3018 F23.4
X0.9166 Y2.3004
X0.9156 Y2.299
X0.9148 Y2.2975
X0.9143 Y2.2961 F26
X0.8526 Y2.1134
X0.8501 Y2.1045
X0.8486 Y2.0987
X0.8474 Y2.0928
X0.8464 Y2.0869
X0.8457 Y2.0809
X0.8451 Y2.0749
X0.8447 Y2.069
X0.8446 Y2.063
Y2.0569
X0.8448 Y2.0508
X0.8452 Y2.0446
X0.8459 Y2.0383
X0.8467 Y2.032
X0.8477 Y2.0257
X0.849 Y2.0194
X0.8504 Y2.0131
X0.852 Y2.0068
X0.8539 Y2.0006
X0.856 Y1.9944
X0.8582 Y1.9882
X0.8607 Y1.9821
X0.8633 Y1.9761
X0.8662 Y1.9702
X0.8692 Y1.9643
X0.8724 Y1.9586
X0.8758 Y1.9529
X0.8794 Y1.9474
X0.8831 Y1.942
X0.887 Y1.9367
X0.8911 Y1.9315
X0.8954 Y1.9265
X0.8998 Y1.9216
X0.9043 Y1.9168
X0.909 Y1.9122
X0.9138 Y1.9077
X0.9188 Y1.9034
X0.9239 Y1.8993
X0.9292 Y1.8953
X0.9346 Y1.8915
X0.94 Y1.8878
X0.9457 Y1.8843
X0.9514 Y1.881
X0.9572 Y1.8779
X0.9631 Y1.875
X0.9691 Y1.8722
X0.9752 Y1.8697
X0.9814 Y1.8673
X0.9876 Y1.8652
X0.9939 Y1.8632
X1.0003 Y1.8614
X1.0067 Y1.8599
X1.0132 Y1.8585
X1.0197 Y1.8574
X1.0262 Y1.8564
X1.0327 Y1.8557
X1.0393 Y1.8552
X1.0459 Y1.8548
X1.0525 Y1.8547
X1.0592 Y1.8548
X1.0658 Y1.8551
X1.0724 Y1.8556
X1.079 Y1.8563
X1.0856 Y1.8573
X1.0921 Y1.8584
X1.0987 Y1.8598
X1.1051 Y1.8613
X1.1116 Y1.8631
X1.118 Y1.865
X1.1243 Y1.8672
X1.1305 Y1.8696
X1.1367 Y1.8721
X1.1428 Y1.8749
X1.1453 Y1.8761
X1.1488 Y1.878
X1.1523 Y1.8802
X1.1555 Y1.8826
X1.1585 Y1.885
X1.1957 Y1.9139
X1.2025 Y1.9198
X1.207 Y1.9239
X1.2112 Y1.9281
X1.2153 Y1.9325
X1.2192 Y1.9371
X1.2229 Y1.9418
X1.2265 Y1.9466
X1.2299 Y1.9515
X1.2333 Y1.9566
X1.2365 Y1.962
X1.2396 Y1.9675
X1.2426 Y1.9732
X1.2454 Y1.979
X1.2481 Y1.985
X1.2506 Y1.9911
X1.2529 Y1.9973
X1.255 Y2.0036
X1.2569 Y2.01
X1.2587 Y2.0165
X1.2602 Y2.023
X1.2615 Y2.0296
X1.2626 Y2.0363
X1.2635 Y2.043
X1.2642 Y2.0497
X1.2647 Y2.0564
X1.265 Y2.0631
Y2.0698
X1.2649 Y2.0766
X1.2645 Y2.0833
X1.2639 Y2.09
X1.2631 Y2.0966
X1.2621 Y2.1033
X1.2609 Y2.1099
X1.2595 Y2.1165
X1.2578 Y2.123
X1.256 Y2.1294
X1.254 Y2.1358
X1.2517 Y2.1422
X1.2493 Y2.1484
X1.2466 Y2.1546
X1.2438 Y2.1607
X1.2408 Y2.1667
X1.2376 Y2.1726
X1.2342 Y2.1784
X1.2306 Y2.1841
X1.2268 Y2.1897
X1.2229 Y2.1952
X1.2188 Y2.2005
X1.2145 Y2.2057
X1.2101 Y2.2108
X1.2055 Y2.2157
X1.2008 Y2.2204
X1.1959 Y2.2251
X1.1908 Y2.2295
X1.1857 Y2.2338
X1.1803 Y2.238
X1.1749 Y2.242
X1.1693 Y2.2458
X1.1636 Y2.2494
X1.1578 Y2.2528
X1.1519 Y2.2561
X1.1459 Y2.2592
X1.1398 Y2.262
X1.1336 Y2.2647
