%
(Crown_Bottom)
(T1  D=0.0625 CR=0 - ZMIN=-0.064 - flat end mill)
G90
G17
G20
G28 G91 Z0
G90

(2D Contour1 6)
T1 M6
S10000 M3
G54
G0 X1.0303 Y0.125
Z0.6
Z0.2
G1 Z0.0444 F6
Z-0.005
G3 X0.9697 I-0.0303 J0 F18
X1.0303 I0.0303 J0
G1 Z-0.01 F6
G3 X0.9697 I-0.0303 J0 F18
X1.0303 I0.0303 J0
G1 Z-0.015 F6
G3 X0.9697 I-0.0303 J0 F18
X1.0303 I0.0303 J0
G1 Z-0.02 F6
G3 X0.9697 I-0.0303 J0 F18
X1.0303 I0.0303 J0
G1 Z-0.025 F6
G3 X0.9697 I-0.0303 J0 F18
X1.0303 I0.0303 J0
G1 Z-0.03 F6
G3 X0.9697 I-0.0303 J0 F18
X1.0303 I0.0303 J0
G1 Z-0.035 F6
G3 X0.9697 I-0.0303 J0 F18
X1.0303 I0.0303 J0
G1 Z-0.04 F6
G3 X0.9697 I-0.0303 J0 F18
X1.0303 I0.0303 J0
G1 Z-0.045 F6
G3 X0.9697 I-0.0303 J0 F18
X1.0303 I0.0303 J0
G1 Z-0.05 F6
G3 X0.9697 I-0.0303 J0 F18
X1.0303 I0.0303 J0
G1 Z-0.055 F6
G3 X0.9697 I-0.0303 J0 F18
X1.0303 I0.0303 J0
G1 Z-0.06 F6
G3 X0.9697 I-0.0303 J0 F18
X1.0303 I0.0303 J0
G1 Z-0.064 F6
G3 X0.9697 I-0.0303 J0 F18
X1.0303 I0.0303 J0
G0 Z0.6

(2D Contour1 7)
X0.8738 Y0.1281
Z0.6
Z0.2
G1 Z0.0444 F6
Z-0.005
G2 X0.8834 Y0.1733 I0.1262 J-0.0031 F18
X0.9108 Y0.2142 I0.1166 J-0.0483
X0.9517 Y0.2415 I0.0892 J-0.0892
X1 Y0.2511 I0.0483 J-0.1165
X1.0483 Y0.2415 I0 J-0.1261
X1.0892 Y0.2142 I-0.0483 J-0.1165
X1.1165 Y0.1733 I-0.0892 J-0.0892
X1.1261 Y0.125 I-0.1165 J-0.0483
X1.1165 Y0.0767 I-0.1261 J0
X1.0892 Y0.0358 I-0.1165 J0.0483
X1.0483 Y0.0085 I-0.0892 J0.0892
X1 Y-0.0011 I-0.0483 J0.1165
X0.9517 Y0.0085 I0 J0.1261
X0.9108 Y0.0358 I0.0483 J0.1165
X0.8835 Y0.0767 I0.0892 J0.0892
X0.8739 Y0.125 I0.1165 J0.0483
G1 X0.8738 Y0.1281
Z-0.01 F6
G2 X0.8834 Y0.1733 I0.1262 J-0.0031 F18
X0.9108 Y0.2142 I0.1166 J-0.0483
X0.9517 Y0.2415 I0.0892 J-0.0892
X1 Y0.2511 I0.0483 J-0.1165
X1.0483 Y0.2415 I0 J-0.1261
X1.0892 Y0.2142 I-0.0483 J-0.1165
X1.1165 Y0.1733 I-0.0892 J-0.0892
X1.1261 Y0.125 I-0.1165 J-0.0483
X1.1165 Y0.0767 I-0.1261 J0
X1.0892 Y0.0358 I-0.1165 J0.0483
X1.0483 Y0.0085 I-0.0892 J0.0892
X1 Y-0.0011 I-0.0483 J0.1165
X0.9517 Y0.0085 I0 J0.1261
X0.9108 Y0.0358 I0.0483 J0.1165
X0.8835 Y0.0767 I0.0892 J0.0892
X0.8739 Y0.125 I0.1165 J0.0483
G1 X0.8738 Y0.1281
Z-0.014 F6
G2 X0.8834 Y0.1733 I0.1262 J-0.0031 F18
X0.9108 Y0.2142 I0.1166 J-0.0483
X0.9517 Y0.2415 I0.0892 J-0.0892
X1 Y0.2511 I0.0483 J-0.1165
X1.0483 Y0.2415 I0 J-0.1261
X1.0892 Y0.2142 I-0.0483 J-0.1165
X1.1165 Y0.1733 I-0.0892 J-0.0892
X1.1261 Y0.125 I-0.1165 J-0.0483
X1.1165 Y0.0767 I-0.1261 J0
X1.0892 Y0.0358 I-0.1165 J0.0483
X1.0483 Y0.0085 I-0.0892 J0.0892
X1 Y-0.0011 I-0.0483 J0.1165
X0.9517 Y0.0085 I0 J0.1261
X0.9108 Y0.0358 I0.0483 J0.1165
X0.8835 Y0.0767 I0.0892 J0.0892
X0.8739 Y0.125 I0.1165 J0.0483
G1 X0.8738 Y0.1281
G0 Z0.6

(Parallel1 2)
X1.0231 Y0.001
Z0.6
Z0.0744
G1 Z-0.0084 F18
X1.0228 Z-0.0104
X1.0219 Z-0.0121
X1.0206 Z-0.0135
X1.0188 Z-0.0144
X1.0169 Z-0.0147
X1.0165 Z-0.0139
X1.015 Z-0.0125
X1.0096 Z-0.0105
X1.0045 Z-0.0098
X0.9893 Z-0.0104
X0.9878 Z-0.0108
X0.9826 Z-0.0142
X0.9772 Y0.0019 Z-0.0144
X0.9718 Y0.0031 Z-0.0146
X0.9664 Y0.0044 Z-0.0148
X0.9611 Y0.006 Z-0.015
X0.9612 Z-0.0141
X0.9616 Z-0.0132
X0.9638 Z-0.0106
X0.9701 Z-0.0079
X0.9717 Z-0.0074
X0.9862 Z-0.0058
X1.0075 Z-0.0056
X1.0179 Z-0.0061
X1.0285 Z-0.0076
X1.031 Z-0.0084
X1.0366 Z-0.0105
X1.0389 Z-0.0146
X1.0454 Y0.0083
X1.0517 Y0.011
X1.0501 Z-0.0105
X1.0447 Z-0.0076
X1.0358 Z-0.0057
X1.0197 Z-0.005
X0.9735 Z-0.0052
X0.9634 Z-0.0058
X0.9555 Z-0.0075
X0.954 Z-0.0083
X0.9502 Z-0.0107
X0.9482 Z-0.014
X0.9457 Y0.0122 Z-0.0141
X0.9408 Y0.0147 Z-0.0144
X0.9384 Y0.016 Z-0.0145
X0.9399 Z-0.0106
X0.9436 Z-0.0078
X0.9505 Z-0.0058
X0.9582 Z-0.0051
X1.0399 Z-0.005
X1.0492 Z-0.0057
X1.0556 Z-0.0076
X1.0599 Z-0.0105
X1.0611 Z-0.0127
X1.0616 Z-0.015
X1.0657 Y0.0185
X1.0698 Y0.021 Z-0.0149
X1.0691 Z-0.0123
X1.0681 Z-0.0104
X1.0647 Z-0.0076
X1.0589 Z-0.0057
X1.0509 Z-0.005
X0.9466 Z-0.0051
X0.9408 Z-0.0058
X0.9352 Z-0.0078
X0.9316 Z-0.0106
X0.9307 Z-0.0133
X0.9302 Z-0.0149
X0.929 Z-0.0147
X0.928 Z-0.014
X0.9273 Z-0.013
X0.9271 Z-0.0118
X0.9269 Y0.0212 Z-0.0103
X0.9262 Y0.0217 Z-0.009
X0.9253 Y0.0225 Z-0.0082
X0.9241 Y0.0235 Z-0.0079
X0.923 Y0.0245 Z-0.0082
X0.922 Y0.0253 Z-0.009
X0.9213 Y0.0258 Z-0.0103
X0.9211 Y0.026 Z-0.0118
Z-0.0136
X0.9214 Z-0.0143
X0.9221 Z-0.0147
X0.9228 Z-0.0146
X0.9233 Z-0.014
X0.9246 Z-0.0107
X0.9276 Z-0.0078
X0.9322 Z-0.0059
X0.9383 Z-0.0051
X1.06 Z-0.005
X1.0667 Z-0.0056
X1.0719 Z-0.0076
X1.0754 Z-0.0105
X1.0766 Z-0.0146
X1.0812 Y0.0297 Z-0.0142
X1.0827 Y0.031 Z-0.0141
X1.0814 Z-0.0105
X1.0786 Z-0.0076
X1.0739 Z-0.0057
X1.0679 Z-0.005
X0.9302 Z-0.0052
X0.9259 Z-0.0058
X0.9213 Z-0.0078
X0.9183 Z-0.0107
X0.9175 Z-0.0138
X0.9174 Z-0.015
X0.9146 Y0.0335 Z-0.0149
X0.9119 Y0.036 Z-0.0148
X0.912 Z-0.0143
X0.9131 Z-0.0106
X0.9158 Z-0.0076
X0.9195 Z-0.0059
X0.9244 Z-0.0051
X1.0743 Z-0.005
X1.0797 Z-0.0057
X1.084 Z-0.0076
X1.087 Z-0.0106
X1.0881 Z-0.0148
X1.0893 Y0.0372 Z-0.0147
X1.0928 Y0.041 Z-0.0142
X1.0918 Z-0.0105
X1.0891 Z-0.0075
X1.0848 Z-0.0056
X1.0801 Z-0.005
X0.9188 Z-0.0051
X0.9148 Z-0.0058
X0.9108 Z-0.0078
X0.9081 Z-0.0108
X0.9072 Z-0.0143
X0.905 Y0.0435 Z-0.0146
X0.9039 Y0.0447 Z-0.0148
X0.9028 Y0.046 Z-0.0149
X0.9037 Z-0.0107
X0.906 Z-0.008
X0.9098 Z-0.0059
X0.9145 Z-0.0051
X1.0847 Z-0.005
X1.0895 Z-0.0057
X1.0934 Z-0.0076
X1.0958 Z-0.0103
X1.0965 Z-0.0118
X1.0972 Z-0.0148
X1.1009 Y0.051
X1.1 Z-0.0104
X1.0973 Z-0.0074
X1.0939 Z-0.0057
X1.0891 Z-0.005
X0.9096 Z-0.0051
X0.9059 Z-0.0058
X0.9024 Z-0.0078
X0.9 Z-0.0106
X0.899 Z-0.014
X0.8985 Z-0.0146
X0.8979 Z-0.0147
X0.8972 Z-0.0144
X0.897 Z-0.0137
Z-0.0117
X0.8968 Y0.0512 Z-0.0104
X0.8963 Y0.0517 Z-0.0093
X0.8956 Y0.0525 Z-0.0085
X0.8947 Y0.0535 Z-0.0083
X0.8938 Y0.0544 Z-0.0085
X0.8931 Y0.0553 Z-0.0093
X0.8926 Y0.0558 Z-0.0104
X0.8924 Y0.056 Z-0.0117
X0.8926 Z-0.0129
X0.8933 Z-0.0139
X0.8943 Z-0.0146
X0.8955 Z-0.0148
X0.8963 Z-0.0108
X0.8986 Z-0.0078
X0.9021 Z-0.0058
X0.9061 Z-0.0051
X1.0931 Z-0.005
X1.0976 Z-0.0057
X1.101 Z-0.0076
X1.1033 Z-0.0104
X1.1045 Z-0.014
X1.1061 Y0.0585 Z-0.0142
X1.1075 Y0.061 Z-0.0143
X1.1066 Z-0.0104
X1.1043 Z-0.0076
X1.1009 Z-0.0057
X1.0967 Z-0.005
X0.9026 Z-0.0051
X0.8985 Z-0.0059
X0.8955 Z-0.0077
X0.8933 Z-0.0107
X0.8924 Z-0.0142
X0.8917 Y0.0622 Z-0.0143
X0.8909 Y0.0635 Z-0.0145
X0.8902 Y0.0647 Z-0.0147
X0.8895 Y0.066 Z-0.0148
X0.8896 Z-0.0143
X0.8905 Z-0.0106
X0.8926 Z-0.0077
X0.8959 Z-0.0058
X0.8993 Z-0.0051
X1.0997 Z-0.005
X1.1039 Z-0.0057
X1.1072 Z-0.0075
X1.1096 Z-0.0105
X1.1105 Z-0.0148
X1.1117 Z-0.0146
X1.1127 Z-0.0139
X1.1133 Z-0.0129
X1.1136 Z-0.0117
X1.1137 Y0.0662 Z-0.0106
X1.1139 Y0.0669 Z-0.0097
X1.1142 Y0.0679 Z-0.0092
X1.1145 Y0.069
X1.1149 Y0.07 Z-0.0097
X1.1151 Y0.0707 Z-0.0106
X1.1152 Y0.071 Z-0.0117
Z-0.0136
X1.1149 Z-0.0143
X1.1142 Z-0.0147
X1.1135 Z-0.0145
X1.113 Z-0.0139
X1.1119 Z-0.0103
X1.1098 Z-0.0076
X1.1064 Z-0.0056
X1.1023 Z-0.005
X0.8973
X0.8931 Z-0.0058
X0.8897 Z-0.0079
X0.8877 Z-0.0109
X0.8871 Z-0.0149
X0.8848 Y0.076 Z-0.0145
Z-0.0142
X0.8856 Z-0.0108
X0.8877 Z-0.0078
X0.8907 Z-0.0058
X0.894 Z-0.0051
X1.1051 Z-0.005
X1.109 Z-0.0057
X1.1122 Z-0.0076
X1.1143 Z-0.0104
X1.1152 Z-0.0147
X1.1172 Y0.081 Z-0.0144
X1.1163 Z-0.0104
X1.1143 Z-0.0076
X1.1109 Z-0.0056
X1.107 Z-0.005
X0.8915 Z-0.0052
X0.8889 Z-0.0057
X0.8857 Z-0.0077
X0.8836 Z-0.0108
X0.8828 Z-0.0141
X0.8811 Y0.086 Z-0.0147
X0.8817 Z-0.0109
X0.8835 Z-0.0079
X0.8866 Z-0.0059
X0.8902 Z-0.0051
X1.1091 Z-0.005
X1.1129 Z-0.0057
X1.116 Z-0.0076
X1.118 Z-0.0104
X1.119 Z-0.014
X1.1192 Y0.0866 Z-0.0141
X1.1194 Y0.0872 Z-0.0142
X1.1196 Y0.0879 Z-0.0143
X1.1198 Y0.0885 Z-0.0144
X1.1205 Y0.091 Z-0.0148
X1.1197 Z-0.0105
X1.1174 Z-0.0074
X1.1146 Z-0.0057
X1.1109 Z-0.005
X0.8881 Z-0.0051
X0.8851 Z-0.0058
X0.8822 Z-0.0078
X0.8803 Z-0.0106
X0.8795 Z-0.0143
X0.8782 Y0.096
X0.879 Z-0.0106
X0.8809 Z-0.0078
X0.8838 Z-0.0058
X0.8867 Z-0.0052
X0.9889 Z-0.005
Z-0.015
X0.9945 Y0.0944
X1 Y0.0938
X1.0056 Y0.0944
X1.0111 Y0.096
Z-0.005
X1.1123
X1.1157 Z-0.0056
X1.1188 Z-0.0074
X1.121 Z-0.0105
X1.1217 Z-0.015
X1.1225 Y0.0991 Z-0.0144
X1.1227 Y0.0997 Z-0.0142
X1.1228 Y0.1004 Z-0.0141
X1.1229 Y0.101 Z-0.014
X1.1219 Z-0.0104
X1.1199 Z-0.0076
X1.1169 Z-0.0057
X1.1132 Z-0.005
X1.0197
Z-0.015
X1.0148 Y0.0976
X1.0099 Y0.0955
X1.0049 Y0.0942
X1 Y0.0938
X0.9951 Y0.0942
X0.9902 Y0.0955
X0.9852 Y0.0976
X0.9803 Y0.101
Z-0.005
X0.8865
X0.8824 Z-0.0059
X0.8795 Z-0.008
X0.8777 Z-0.0109
X0.8771 Z-0.0149
X0.8767 Y0.1035 Z-0.0145
X0.8765 Y0.1047 Z-0.0144
X0.8763 Y0.106 Z-0.0142
X0.877 Z-0.0108
X0.8789 Z-0.0078
X0.8817 Z-0.0058
X0.8847 Z-0.0051
X0.9754 Z-0.005
Z-0.015
X0.9766 Z-0.0148
X0.9776 Z-0.0141
X0.9783 Z-0.0131
X0.9785 Z-0.0119
X0.9788 Z-0.0107
X0.9794 Z-0.0097
X0.9805 Z-0.009
X0.9817 Z-0.0087
X1.0183
X1.0195 Z-0.009
X1.0206 Z-0.0097
X1.0212 Z-0.0107
X1.0215 Z-0.0119
X1.0217 Z-0.0131
X1.0224 Z-0.0141
X1.0234 Z-0.0148
X1.0246 Z-0.015
Z-0.005
X1.1144
X1.118 Z-0.0057
X1.1208 Z-0.0075
X1.1229 Z-0.0103
X1.1237 Z-0.0144
X1.1239 Y0.1072 Z-0.0145
X1.1244 Y0.111 Z-0.0148
X1.1237 Z-0.0104
X1.1214 Z-0.0074
X1.1187 Z-0.0057
X1.115 Z-0.005
X1.0278
Z-0.015
X1.0266 Z-0.0148
X1.0256 Z-0.0141
X1.0249 Z-0.0131
X1.0247 Z-0.0119
X1.0244 Z-0.0107
X1.0238 Z-0.0097
X1.0227 Z-0.009
X1.0216 Z-0.0087
X0.9784
X0.9772 Z-0.009
X0.9762 Z-0.0097
X0.9756 Z-0.0107
X0.9753 Z-0.0119
X0.9751 Z-0.0131
X0.9744 Z-0.0141
X0.9734 Z-0.0148
X0.9722 Z-0.015
Z-0.005
X0.8837 Z-0.0052
X0.8811 Z-0.0058
X0.8783 Z-0.0078
X0.8763 Z-0.0108
X0.8756 Z-0.0143
X0.8754 Y0.1122 Z-0.0144
X0.8753 Y0.1147 Z-0.0147
X0.8752 Y0.116 Z-0.0148
X0.8757 Z-0.011
X0.8775 Z-0.0079
X0.8803 Z-0.0059
X0.8834 Z-0.0052
X0.9702 Z-0.005
Z-0.015
X0.9714 Z-0.0148
X0.9724 Z-0.0141
X0.9731 Z-0.0131
X0.9734 Z-0.0119
X0.9736 Z-0.0107
X0.9743 Z-0.0097
X0.9753 Z-0.009
X0.9765 Z-0.0087
X1.0235
X1.0247 Z-0.009
X1.0257 Z-0.0097
X1.0264 Z-0.0107
X1.0266 Z-0.0119
X1.0269 Z-0.0131
X1.0276 Z-0.0141
X1.0286 Z-0.0148
X1.0298 Z-0.015
Z-0.005
X1.1155
X1.1191 Z-0.0057
X1.1221 Z-0.0076
X1.1239 Z-0.0103
X1.1249 Z-0.014
X1.125 Y0.1172 Z-0.0141
X1.1251 Y0.1185 Z-0.0142
Y0.1197 Z-0.0143
Y0.121 Z-0.0144
X1.1243 Z-0.0105
X1.1222 Z-0.0075
X1.1195 Z-0.0057
X1.1158 Z-0.005
X1.0308
Z-0.015
X1.0296 Z-0.0148
X1.0286 Z-0.0141
X1.0279 Z-0.0131
X1.0277 Z-0.0119
X1.0275 Z-0.0107
X1.0268 Z-0.0097
X1.0258 Z-0.009
X1.0246 Z-0.0087
X0.9754
X0.9742 Z-0.009
X0.9732 Z-0.0097
X0.9725 Z-0.0107
X0.9723 Z-0.0119
X0.9721 Z-0.0131
X0.9714 Z-0.0141
X0.9704 Z-0.0148
X0.9692 Z-0.015
X0.9691 Z-0.005
X0.883 Z-0.0052
X0.8804 Z-0.0058
X0.8775 Z-0.0077
X0.8756 Z-0.0106
X0.8749 Z-0.0142
X0.8748 Y0.126 Z-0.014
X0.8756 Z-0.0106
X0.8775 Z-0.0077
X0.8803 Z-0.0058
X0.8831 Z-0.0051
X0.9689 Z-0.005
Z-0.015
X0.9701 Z-0.0148
X0.9711 Z-0.0141
X0.9718 Z-0.0131
X0.9721 Z-0.0119
X0.9723 Z-0.0107
X0.973 Z-0.0097
X0.974 Z-0.009
X0.9752 Z-0.0087
X1.0248
X1.026 Z-0.009
X1.027 Z-0.0097
X1.0277 Z-0.0107
X1.028 Z-0.0119
X1.0282 Z-0.0131
X1.0289 Z-0.0141
X1.0299 Z-0.0148
X1.0311 Z-0.015
Z-0.005
X1.116
X1.1193 Z-0.0056
X1.1223 Z-0.0074
X1.1244 Z-0.0103
X1.1252 Z-0.0149
X1.1264 Z-0.0146
X1.1274 Z-0.014
X1.1281 Z-0.0129
X1.1283 Z-0.0117
Y0.1262 Z-0.0106
X1.1281 Y0.1269 Z-0.0097
X1.1277 Y0.1279 Z-0.0092
X1.1274 Y0.129
X1.1271 Y0.13 Z-0.0097
X1.1269 Y0.1307 Z-0.0106
X1.1268 Y0.131 Z-0.0117
Z-0.0138
X1.1266 Z-0.0144
X1.126 Z-0.0147
X1.1254 Z-0.0145
X1.1251 Z-0.014
X1.1241 Z-0.0104
X1.1223 Z-0.0076
X1.1193 Z-0.0057
X1.1157 Z-0.005
X1.0305
Z-0.015
X1.0293 Z-0.0148
X1.0283 Z-0.0141
X1.0276 Z-0.0131
X1.0274 Z-0.0119
X1.0271 Z-0.0107
X1.0265 Z-0.0097
X1.0254 Z-0.009
X1.0243 Z-0.0087
X0.9757
X0.9745 Z-0.009
X0.9735 Z-0.0097
X0.9729 Z-0.0107
X0.9726 Z-0.0119
X0.9724 Z-0.0131
X0.9717 Z-0.0141
X0.9707 Z-0.0148
X0.9695 Z-0.015
Z-0.005
X0.8833 Z-0.0051
X0.8801 Z-0.006
X0.8773 Z-0.008
X0.8755 Z-0.0109
X0.875 Z-0.0144
X0.8753 Y0.136 Z-0.0147
X0.876 Z-0.0106
X0.8779 Z-0.0078
X0.8807 Z-0.0058
X0.8837 Z-0.0051
X0.9709 Z-0.005
Z-0.015
X0.9721 Z-0.0148
X0.9731 Z-0.0141
X0.9738 Z-0.0131
X0.9741 Z-0.0119
X0.9743 Z-0.0107
X0.975 Z-0.0097
X0.976 Z-0.009
X0.9772 Z-0.0087
X1.0228
X1.024 Z-0.009
X1.025 Z-0.0097
X1.0257 Z-0.0107
X1.0259 Z-0.0119
X1.0262 Z-0.0131
X1.0269 Z-0.0141
X1.0279 Z-0.0148
X1.0291 Z-0.015
Z-0.005
X1.1152
X1.1189 Z-0.0056
X1.1218 Z-0.0075
X1.1239 Z-0.0105
X1.1248 Z-0.0146
X1.1241 Y0.141 Z-0.0147
X1.1234 Z-0.0104
X1.1213 Z-0.0075
X1.1182 Z-0.0056
X1.1149 Z-0.005
X1.0266
Z-0.015
X1.0254 Z-0.0148
X1.0244 Z-0.0141
X1.0237 Z-0.0131
X1.0235 Z-0.0119
X1.0233 Z-0.0107
X1.0226 Z-0.0097
X1.0216 Z-0.009
X1.0204 Z-0.0087
X0.9796
X0.9784 Z-0.009
X0.9774 Z-0.0097
X0.9767 Z-0.0107
X0.9765 Z-0.0119
X0.9763 Z-0.0131
X0.9756 Z-0.0141
X0.9746 Z-0.0148
X0.9734 Z-0.015
X0.9733 Z-0.005
X0.8843 Z-0.0051
X0.8816 Z-0.0057
X0.8786 Z-0.0077
X0.8766 Z-0.0106
X0.8758 Z-0.0139
X0.876 Y0.1422 Z-0.0141
X0.8762 Y0.1435 Z-0.0142
X0.8764 Y0.1447 Z-0.0144
X0.8766 Y0.146 Z-0.0145
X0.8773 Z-0.0106
X0.8792 Z-0.0077
X0.8819 Z-0.0059
X0.8851 Z-0.0051
X0.9771 Z-0.005
Z-0.015
X0.9783 Z-0.0148
X0.9793 Z-0.0141
X0.98 Z-0.0131
X0.9802 Z-0.0119
X0.9804 Z-0.0107
X0.9811 Z-0.0097
X0.9821 Z-0.009
X0.9833 Z-0.0087
X1.0167
X1.0179 Z-0.009
X1.0189 Z-0.0097
X1.0196 Z-0.0107
X1.0198 Z-0.0119
X1.02 Z-0.0131
X1.0207 Z-0.0141
X1.0217 Z-0.0148
X1.0229 Z-0.015
Z-0.005
X1.1139
X1.1176 Z-0.0057
X1.1206 Z-0.0076
X1.1226 Z-0.0105
X1.1234 Z-0.0142
X1.1232 Y0.1472 Z-0.0144
X1.1231 Y0.1479 Z-0.0145
X1.123 Y0.1485 Z-0.0146
X1.1229 Y0.1491 Z-0.0147
X1.1228 Y0.1497 Z-0.0148
X1.1226 Y0.1504 Z-0.0149
X1.1225 Y0.151 Z-0.015
X1.122 Z-0.0121
X1.1216 Z-0.0104
X1.1196 Z-0.0076
X1.1166 Z-0.0057
X1.1129 Z-0.005
X1.0171
Z-0.015
X1.0128 Y0.1533
X1.0085 Y0.1549
X1.0043 Y0.1558
X1 Y0.1562
X0.9957 Y0.1558
X0.9915 Y0.1549
X0.9872 Y0.1533
X0.9829 Y0.151
Z-0.005
X0.8863 Z-0.0051
X0.8831 Z-0.0058
X0.8802 Z-0.0078
X0.8782 Z-0.0107
X0.8775 Z-0.0148
X0.8763 Z-0.0146
X0.8753 Z-0.0139
X0.8746 Z-0.0129
X0.8744 Z-0.0117
X0.8745 Y0.1512 Z-0.0105
X0.8748 Y0.1519 Z-0.0095
X0.8753 Y0.1529 Z-0.009
X0.8758 Y0.154
X0.8763 Y0.155 Z-0.0095
X0.8767 Y0.1557 Z-0.0105
X0.8768 Y0.156 Z-0.0117
Z-0.0137
X0.877 Z-0.0144
X0.8776 Z-0.0147
X0.8783 Z-0.0145
X0.8787 Z-0.014
X0.8795 Z-0.0108
X0.8814 Z-0.0078
X0.8843 Z-0.0058
X0.8871 Z-0.0052
X0.9977 Z-0.005
Z-0.015
X1.0023
Z-0.005
X1.1118
X1.1153 Z-0.0056
X1.1183 Z-0.0074
X1.1206 Z-0.0104
X1.1212 Z-0.0146
X1.12 Y0.161 Z-0.0148
X1.1191 Z-0.0106
X1.117 Z-0.0076
X1.114 Z-0.0057
X1.1102 Z-0.005
X0.8892 Z-0.0051
X0.8856 Z-0.0059
X0.8828 Z-0.0077
X0.8808 Z-0.0108
X0.88 Z-0.0149
X0.8809 Y0.1635 Z-0.0147
X0.8818 Y0.166 Z-0.0145
X0.8823 Z-0.0108
X0.8844 Z-0.0077
X0.8874 Z-0.0058
X0.8909 Z-0.0051
X1.1083 Z-0.005
X1.1122 Z-0.0057
X1.1153 Z-0.0076
X1.1173 Z-0.0103
X1.1183 Z-0.014
X1.1179 Y0.1672 Z-0.0141
X1.1164 Y0.171 Z-0.0147
X1.1156 Z-0.0103
X1.1133 Z-0.0074
X1.1103 Z-0.0056
X1.1064 Z-0.005
X0.8922 Z-0.0052
X0.8895 Z-0.0058
X0.8864 Z-0.0078
X0.8844 Z-0.0106
X0.8835 Z-0.014
X0.8837 Y0.1716 Z-0.0141
X0.884 Y0.1722 Z-0.0142
X0.8843 Y0.1729 Z-0.0143
X0.8845 Y0.1735 Z-0.0144
X0.8848 Y0.1741 Z-0.0146
X0.8857 Y0.176 Z-0.0149
Z-0.0141
X0.8865 Z-0.0106
X0.8885 Z-0.0078
X0.8914 Z-0.0059
X0.8952 Z-0.0051
X1.1039 Z-0.005
X1.1079 Z-0.0056
X1.1113 Z-0.0076
X1.1134 Z-0.0105
X1.1144 Z-0.0144
X1.1132 Y0.1785 Z-0.0143
X1.112 Y0.181 Z-0.0141
X1.111 Z-0.0104
X1.1088 Z-0.0076
X1.1056 Z-0.0057
X1.1015 Z-0.005
X0.8978 Z-0.0051
X0.8941 Z-0.0058
X0.8909 Z-0.0078
X0.8887 Z-0.0107
X0.8881 Z-0.0148
X0.8893 Y0.1835 Z-0.0144
X0.8899 Y0.1847 Z-0.0142
X0.8906 Y0.186 Z-0.014
X0.8915 Z-0.0107
X0.8937 Z-0.0078
X0.8969 Z-0.0058
X0.8999 Z-0.0052
X1.0986 Z-0.005
X1.1028 Z-0.0057
X1.1061 Z-0.0075
X1.1086 Z-0.0105
X1.1094 Z-0.0148
X1.1079 Y0.1885 Z-0.0145
X1.1064 Y0.191 Z-0.0141
X1.1053 Z-0.0104
X1.103 Z-0.0076
X1.0994 Z-0.0056
X1.0951 Z-0.005
X0.904 Z-0.0051
X0.8998 Z-0.0059
X0.8965 Z-0.0079
X0.8943 Z-0.0108
X0.8936 Z-0.0145
X0.8968 Y0.196 Z-0.0146
X0.8978 Z-0.0106
X0.9001 Z-0.0078
X0.9035 Z-0.0059
X0.9074 Z-0.0051
X1.0917 Z-0.005
X1.0961 Z-0.0056
X1.0996 Z-0.0075
X1.1019 Z-0.0102
X1.1026 Z-0.0117
X1.1031 Z-0.0147
X1.0994 Y0.201 Z-0.0148
X1.0986 Z-0.0105
X1.096 Z-0.0076
X1.0921 Z-0.0057
X1.0875 Z-0.005
X0.9116 Z-0.0051
X0.9073 Z-0.0058
X0.9038 Z-0.0078
X0.9015 Z-0.0106
X0.9004 Z-0.014
X0.9 Z-0.0146
X0.8994 Z-0.0147
X0.8988 Z-0.0144
X0.8986 Z-0.0138
Z-0.0118
X0.8987 Y0.2012 Z-0.0105
X0.8991 Y0.2019 Z-0.0095
X0.8997 Y0.2029 Z-0.009
X0.9003 Y0.204
X0.9008 Y0.205 Z-0.0095
X0.9012 Y0.2057 Z-0.0105
X0.9014 Y0.206 Z-0.0118
X0.9016 Z-0.0129
X0.9023 Z-0.014
X0.9033 Z-0.0146
X0.9045 Z-0.0149
X0.9053 Z-0.0108
X0.9079 Z-0.0078
X0.9118 Z-0.0058
X0.9163 Z-0.0051
X1.0829 Z-0.005
X1.088 Z-0.0057
X1.0916 Z-0.0075
X1.0942 Z-0.0103
X1.0956 Z-0.014
X1.0944 Y0.2072 Z-0.0141
X1.0933 Y0.2085 Z-0.0142
X1.0921 Y0.2097 Z-0.0144
X1.091 Y0.211 Z-0.0145
X1.09 Z-0.0104
X1.0871 Z-0.0075
X1.0828 Z-0.0056
X1.0773 Z-0.005
X0.9205 Z-0.0052
X0.9169 Z-0.0057
X0.9127 Z-0.0078
X0.9101 Z-0.0106
X0.9089 Z-0.014
X0.9095 Y0.2116 Z-0.0141
X0.9102 Y0.2123 Z-0.0142
X0.9108 Y0.2129 Z-0.0143
X0.9114 Y0.2135 Z-0.0144
X0.9121 Y0.2141 Z-0.0145
X0.914 Y0.216 Z-0.0149
X0.9149 Z-0.0107
X0.9175 Z-0.0079
X0.9221 Z-0.0058
X0.9279 Z-0.005
X1.0716
X1.0773 Z-0.0056
X1.0819 Z-0.0076
X1.0848 Z-0.0105
X1.0861 Z-0.0144
X1.0833 Y0.2185 Z-0.0145
X1.0804 Y0.221 Z-0.0147
X1.0793 Z-0.0105
X1.0761 Z-0.0075
X1.071 Z-0.0057
X1.0651 Z-0.005
X0.9329 Z-0.0052
X0.9283 Z-0.0058
X0.9239 Z-0.0077
X0.9208 Z-0.0107
X0.9197 Z-0.0136
X0.9196 Z-0.0148
X0.9227 Y0.2235 Z-0.0146
X0.926 Y0.226 Z-0.0144
X0.927 Z-0.0108
X0.9302 Z-0.0078
X0.9357 Z-0.0058
X0.9415 Z-0.0051
X1.0569 Z-0.005
X1.0638 Z-0.0056
X1.0691 Z-0.0076
X1.0722 Z-0.0101
X1.0728 Z-0.0109
X1.074 Z-0.0142
X1.0722 Y0.2273 Z-0.0144
X1.0704 Y0.2286 Z-0.0145
X1.0685 Y0.2298 Z-0.0147
X1.0666 Y0.231 Z-0.0149
X1.0654 Z-0.0105
X1.0615 Z-0.0076
X1.0551 Z-0.0057
X1.047 Z-0.005
X0.9517 Z-0.0051
X0.9437 Z-0.0059
X0.9384 Z-0.0078
X0.9348 Z-0.0107
X0.9333 Z-0.0139
Z-0.0142
X0.9354 Y0.2323 Z-0.0144
X0.9376 Y0.2335 Z-0.0145
X0.9397 Y0.2348 Z-0.0147
X0.942 Y0.236 Z-0.0149
X0.9434 Z-0.0106
X0.948 Z-0.0078
X0.955 Z-0.0058
X0.9644 Z-0.0051
X1.0338 Z-0.005
X1.0444 Z-0.0057
X1.0518 Z-0.0076
X1.0561 Z-0.0105
X1.0581 Z-0.014
X1.0568 Y0.2366 Z-0.0141
X1.0541 Y0.2379 Z-0.0143
X1.0527 Y0.2385 Z-0.0145
X1.0487 Y0.2404 Z-0.0148
X1.0473 Y0.241 Z-0.0149
X1.0462 Z-0.0121
X1.0448 Z-0.0104
X1.0392 Z-0.0076
X1.0315 Z-0.006
X1.0283 Z-0.0056
X1.0076 Z-0.005
X0.9818 Z-0.0053
X0.97 Z-0.0058
X0.9602 Z-0.0077
X0.9547 Z-0.0106
X0.9532 Z-0.0136
X0.9527 Z-0.015
X0.9564 Y0.2423 Z-0.0148
X0.9602 Y0.2436 Z-0.0146
X0.9639 Y0.2449 Z-0.0144
X0.9678 Y0.246 Z-0.0142
X0.9703 Z-0.0107
X0.9723 Z-0.0098
X0.9805 Z-0.0078
X0.9875 Z-0.007
X1.0045 Z-0.0066
X1.02 Z-0.0076
X1.0288 Z-0.0105
X1.031 Z-0.0123
X1.0323 Z-0.0145
X1.0328 Z-0.0148
X1.0334 Z-0.0146
X1.0336 Z-0.0141
G0 Z0.6
G28 G91 Z0
G90
G28 G91 X0 Y0
G90
M30
%
