%
(Crown_Top)
(T1  D=0.0625 CR=0 - ZMIN=-0.104 - flat end mill)
(T4  D=0.012 CR=0 - ZMIN=-0.01 - flat end mill)
G90
G17
G20
G28 G91 Z0
G90

(2D Contour1 2)
T1 M6
S10000 M3
G54
G0 X1.1263 Y0.125
Z0.6
Z0.2
G1 Z0.0444 F6
Z-0.005
G2 X0.8737 I-0.1263 J0 F18
X1.1263 I0.1263 J0
G1 Z-0.01 F6
G2 X0.8737 I-0.1263 J0 F18
X1.1263 I0.1263 J0
G1 Z-0.015 F6
G2 X0.8737 I-0.1263 J0 F18
X1.1263 I0.1263 J0
G1 Z-0.018 F6
G2 X0.8737 I-0.1263 J0 F18
X1.1263 I0.1263 J0
G0 Z0.6

(2D Contour1 5)
X1.1263 Y0.125
Z0.6
Z0.2
G1 Z0.0444 F6
Z-0.005
G2 X0.8737 I-0.1263 J0 F18
X1.1263 I0.1263 J0
G1 Z-0.01 F6
G2 X0.8737 I-0.1263 J0 F18
X1.1263 I0.1263 J0
G1 Z-0.015 F6
G2 X0.8737 I-0.1263 J0 F18
X1.1263 I0.1263 J0
G1 Z-0.018 F6
G2 X0.8737 I-0.1263 J0 F18
X1.1263 I0.1263 J0
G0 Z0.6

(2D Contour1 3)
X1.1076 Y0.2019
Z0.6
Z0.2
G1 Z0.0444 F6
Z-0.005
X1.1122 Y0.195 F18
G2 X1.1168 Y0.1734 I-0.0273 J-0.0171
X1.1288 Y0.1549 I-0.0194 J-0.0258
G1 X1.1305 Y0.1467
G2 X1.1265 Y0.125 I-0.0319 J-0.0053
X1.1305 Y0.1033 I-0.0279 J-0.0164
G1 X1.1288 Y0.0951
G2 X1.1168 Y0.0766 I-0.0314 J0.0073
X1.1122 Y0.055 I-0.0319 J-0.0045
G1 X1.1076 Y0.0481
G2 X1.0894 Y0.0356 I-0.0263 J0.0187
X1.0769 Y0.0174 I-0.0312 J0.0081
G1 X1.07 Y0.0128
G2 X1.0484 Y0.0082 I-0.0171 J0.0273
X1.0299 Y-0.0038 I-0.0258 J0.0194
G1 X1.0217 Y-0.0055
G2 X1 Y-0.0015 I-0.0053 J0.0319
X0.9783 Y-0.0055 I-0.0164 J0.0279
G1 X0.9701 Y-0.0038
G2 X0.9516 Y0.0082 I0.0073 J0.0314
X0.93 Y0.0128 I-0.0045 J0.0319
G1 X0.9231 Y0.0174
G2 X0.9106 Y0.0356 I0.0187 J0.0263
X0.8924 Y0.0481 I0.0081 J0.0312
G1 X0.8878 Y0.055
G2 X0.8832 Y0.0766 I0.0273 J0.0171
X0.8712 Y0.0951 I0.0194 J0.0258
G1 X0.8695 Y0.1033
G2 X0.8735 Y0.125 I0.0319 J0.0053
X0.8695 Y0.1467 I0.0279 J0.0164
G1 X0.8712 Y0.1549
G2 X0.8832 Y0.1734 I0.0314 J-0.0073
X0.8878 Y0.195 I0.0319 J0.0045
G1 X0.8924 Y0.2019
G2 X0.9106 Y0.2144 I0.0263 J-0.0187
X0.9231 Y0.2326 I0.0312 J-0.0081
G1 X0.93 Y0.2372
G2 X0.9516 Y0.2418 I0.0171 J-0.0273
X0.9701 Y0.2538 I0.0258 J-0.0194
G1 X0.9783 Y0.2555
G2 X1 Y0.2515 I0.0053 J-0.0319
X1.0217 Y0.2555 I0.0164 J-0.0279
G1 X1.0299 Y0.2538
G2 X1.0484 Y0.2418 I-0.0073 J-0.0314
X1.07 Y0.2372 I0.0045 J-0.0319
G1 X1.0769 Y0.2326
G2 X1.0894 Y0.2144 I-0.0187 J-0.0263
X1.1076 Y0.2019 I-0.0081 J-0.0312
G1 Z-0.01 F6
X1.1122 Y0.195 F18
G2 X1.1168 Y0.1734 I-0.0273 J-0.0171
X1.1288 Y0.1549 I-0.0194 J-0.0258
G1 X1.1305 Y0.1467
G2 X1.1265 Y0.125 I-0.0319 J-0.0053
X1.1305 Y0.1033 I-0.0279 J-0.0164
G1 X1.1288 Y0.0951
G2 X1.1168 Y0.0766 I-0.0314 J0.0073
X1.1122 Y0.055 I-0.0319 J-0.0045
G1 X1.1076 Y0.0481
G2 X1.0894 Y0.0356 I-0.0263 J0.0187
X1.0769 Y0.0174 I-0.0312 J0.0081
G1 X1.07 Y0.0128
G2 X1.0484 Y0.0082 I-0.0171 J0.0273
X1.0299 Y-0.0038 I-0.0258 J0.0194
G1 X1.0217 Y-0.0055
G2 X1 Y-0.0015 I-0.0053 J0.0319
X0.9783 Y-0.0055 I-0.0164 J0.0279
G1 X0.9701 Y-0.0038
G2 X0.9516 Y0.0082 I0.0073 J0.0314
X0.93 Y0.0128 I-0.0045 J0.0319
G1 X0.9231 Y0.0174
G2 X0.9106 Y0.0356 I0.0187 J0.0263
X0.8924 Y0.0481 I0.0081 J0.0312
G1 X0.8878 Y0.055
G2 X0.8832 Y0.0766 I0.0273 J0.0171
X0.8712 Y0.0951 I0.0194 J0.0258
G1 X0.8695 Y0.1033
G2 X0.8735 Y0.125 I0.0319 J0.0053
X0.8695 Y0.1467 I0.0279 J0.0164
G1 X0.8712 Y0.1549
G2 X0.8832 Y0.1734 I0.0314 J-0.0073
X0.8878 Y0.195 I0.0319 J0.0045
G1 X0.8924 Y0.2019
G2 X0.9106 Y0.2144 I0.0263 J-0.0187
X0.9231 Y0.2326 I0.0312 J-0.0081
G1 X0.93 Y0.2372
G2 X0.9516 Y0.2418 I0.0171 J-0.0273
X0.9701 Y0.2538 I0.0258 J-0.0194
G1 X0.9783 Y0.2555
G2 X1 Y0.2515 I0.0053 J-0.0319
X1.0217 Y0.2555 I0.0164 J-0.0279
G1 X1.0299 Y0.2538
G2 X1.0484 Y0.2418 I-0.0073 J-0.0314
X1.07 Y0.2372 I0.0045 J-0.0319
G1 X1.0769 Y0.2326
G2 X1.0894 Y0.2144 I-0.0187 J-0.0263
X1.1076 Y0.2019 I-0.0081 J-0.0312
G1 Z-0.015 F6
X1.1122 Y0.195 F18
G2 X1.1168 Y0.1734 I-0.0273 J-0.0171
X1.1288 Y0.1549 I-0.0194 J-0.0258
G1 X1.1305 Y0.1467
G2 X1.1265 Y0.125 I-0.0319 J-0.0053
X1.1305 Y0.1033 I-0.0279 J-0.0164
G1 X1.1288 Y0.0951
G2 X1.1168 Y0.0766 I-0.0314 J0.0073
X1.1122 Y0.055 I-0.0319 J-0.0045
G1 X1.1076 Y0.0481
G2 X1.0894 Y0.0356 I-0.0263 J0.0187
X1.0769 Y0.0174 I-0.0312 J0.0081
G1 X1.07 Y0.0128
G2 X1.0484 Y0.0082 I-0.0171 J0.0273
X1.0299 Y-0.0038 I-0.0258 J0.0194
G1 X1.0217 Y-0.0055
G2 X1 Y-0.0015 I-0.0053 J0.0319
X0.9783 Y-0.0055 I-0.0164 J0.0279
G1 X0.9701 Y-0.0038
G2 X0.9516 Y0.0082 I0.0073 J0.0314
X0.93 Y0.0128 I-0.0045 J0.0319
G1 X0.9231 Y0.0174
G2 X0.9106 Y0.0356 I0.0187 J0.0263
X0.8924 Y0.0481 I0.0081 J0.0312
G1 X0.8878 Y0.055
G2 X0.8832 Y0.0766 I0.0273 J0.0171
X0.8712 Y0.0951 I0.0194 J0.0258
G1 X0.8695 Y0.1033
G2 X0.8735 Y0.125 I0.0319 J0.0053
X0.8695 Y0.1467 I0.0279 J0.0164
G1 X0.8712 Y0.1549
G2 X0.8832 Y0.1734 I0.0314 J-0.0073
X0.8878 Y0.195 I0.0319 J0.0045
G1 X0.8924 Y0.2019
G2 X0.9106 Y0.2144 I0.0263 J-0.0187
X0.9231 Y0.2326 I0.0312 J-0.0081
G1 X0.93 Y0.2372
G2 X0.9516 Y0.2418 I0.0171 J-0.0273
X0.9701 Y0.2538 I0.0258 J-0.0194
G1 X0.9783 Y0.2555
G2 X1 Y0.2515 I0.0053 J-0.0319
X1.0217 Y0.2555 I0.0164 J-0.0279
G1 X1.0299 Y0.2538
G2 X1.0484 Y0.2418 I-0.0073 J-0.0314
X1.07 Y0.2372 I0.0045 J-0.0319
G1 X1.0769 Y0.2326
G2 X1.0894 Y0.2144 I-0.0187 J-0.0263
X1.1076 Y0.2019 I-0.0081 J-0.0312
G1 Z-0.02 F6
X1.1122 Y0.195 F18
G2 X1.1168 Y0.1734 I-0.0273 J-0.0171
X1.1288 Y0.1549 I-0.0194 J-0.0258
G1 X1.1305 Y0.1467
G2 X1.1265 Y0.125 I-0.0319 J-0.0053
X1.1305 Y0.1033 I-0.0279 J-0.0164
G1 X1.1288 Y0.0951
G2 X1.1168 Y0.0766 I-0.0314 J0.0073
X1.1122 Y0.055 I-0.0319 J-0.0045
G1 X1.1076 Y0.0481
G2 X1.0894 Y0.0356 I-0.0263 J0.0187
X1.0769 Y0.0174 I-0.0312 J0.0081
G1 X1.07 Y0.0128
G2 X1.0484 Y0.0082 I-0.0171 J0.0273
X1.0299 Y-0.0038 I-0.0258 J0.0194
G1 X1.0217 Y-0.0055
G2 X1 Y-0.0015 I-0.0053 J0.0319
X0.9783 Y-0.0055 I-0.0164 J0.0279
G1 X0.9701 Y-0.0038
G2 X0.9516 Y0.0082 I0.0073 J0.0314
X0.93 Y0.0128 I-0.0045 J0.0319
G1 X0.9231 Y0.0174
G2 X0.9106 Y0.0356 I0.0187 J0.0263
X0.8924 Y0.0481 I0.0081 J0.0312
G1 X0.8878 Y0.055
G2 X0.8832 Y0.0766 I0.0273 J0.0171
X0.8712 Y0.0951 I0.0194 J0.0258
G1 X0.8695 Y0.1033
G2 X0.8735 Y0.125 I0.0319 J0.0053
X0.8695 Y0.1467 I0.0279 J0.0164
G1 X0.8712 Y0.1549
G2 X0.8832 Y0.1734 I0.0314 J-0.0073
X0.8878 Y0.195 I0.0319 J0.0045
G1 X0.8924 Y0.2019
G2 X0.9106 Y0.2144 I0.0263 J-0.0187
X0.9231 Y0.2326 I0.0312 J-0.0081
G1 X0.93 Y0.2372
G2 X0.9516 Y0.2418 I0.0171 J-0.0273
X0.9701 Y0.2538 I0.0258 J-0.0194
G1 X0.9783 Y0.2555
G2 X1 Y0.2515 I0.0053 J-0.0319
X1.0217 Y0.2555 I0.0164 J-0.0279
G1 X1.0299 Y0.2538
G2 X1.0484 Y0.2418 I-0.0073 J-0.0314
X1.07 Y0.2372 I0.0045 J-0.0319
G1 X1.0769 Y0.2326
G2 X1.0894 Y0.2144 I-0.0187 J-0.0263
X1.1076 Y0.2019 I-0.0081 J-0.0312
G1 Z-0.025 F6
X1.1122 Y0.195 F18
G2 X1.1168 Y0.1734 I-0.0273 J-0.0171
X1.1288 Y0.1549 I-0.0194 J-0.0258
G1 X1.1305 Y0.1467
G2 X1.1265 Y0.125 I-0.0319 J-0.0053
X1.1305 Y0.1033 I-0.0279 J-0.0164
G1 X1.1288 Y0.0951
G2 X1.1168 Y0.0766 I-0.0314 J0.0073
X1.1122 Y0.055 I-0.0319 J-0.0045
G1 X1.1076 Y0.0481
G2 X1.0894 Y0.0356 I-0.0263 J0.0187
X1.0769 Y0.0174 I-0.0312 J0.0081
G1 X1.07 Y0.0128
G2 X1.0484 Y0.0082 I-0.0171 J0.0273
X1.0299 Y-0.0038 I-0.0258 J0.0194
G1 X1.0217 Y-0.0055
G2 X1 Y-0.0015 I-0.0053 J0.0319
X0.9783 Y-0.0055 I-0.0164 J0.0279
G1 X0.9701 Y-0.0038
G2 X0.9516 Y0.0082 I0.0073 J0.0314
X0.93 Y0.0128 I-0.0045 J0.0319
G1 X0.9231 Y0.0174
G2 X0.9106 Y0.0356 I0.0187 J0.0263
X0.8924 Y0.0481 I0.0081 J0.0312
G1 X0.8878 Y0.055
G2 X0.8832 Y0.0766 I0.0273 J0.0171
X0.8712 Y0.0951 I0.0194 J0.0258
G1 X0.8695 Y0.1033
G2 X0.8735 Y0.125 I0.0319 J0.0053
X0.8695 Y0.1467 I0.0279 J0.0164
G1 X0.8712 Y0.1549
G2 X0.8832 Y0.1734 I0.0314 J-0.0073
X0.8878 Y0.195 I0.0319 J0.0045
G1 X0.8924 Y0.2019
G2 X0.9106 Y0.2144 I0.0263 J-0.0187
X0.9231 Y0.2326 I0.0312 J-0.0081
G1 X0.93 Y0.2372
G2 X0.9516 Y0.2418 I0.0171 J-0.0273
X0.9701 Y0.2538 I0.0258 J-0.0194
G1 X0.9783 Y0.2555
G2 X1 Y0.2515 I0.0053 J-0.0319
X1.0217 Y0.2555 I0.0164 J-0.0279
G1 X1.0299 Y0.2538
G2 X1.0484 Y0.2418 I-0.0073 J-0.0314
X1.07 Y0.2372 I0.0045 J-0.0319
G1 X1.0769 Y0.2326
G2 X1.0894 Y0.2144 I-0.0187 J-0.0263
X1.1076 Y0.2019 I-0.0081 J-0.0312
G1 Z-0.03 F6
X1.1122 Y0.195 F18
G2 X1.1168 Y0.1734 I-0.0273 J-0.0171
X1.1288 Y0.1549 I-0.0194 J-0.0258
G1 X1.1305 Y0.1467
G2 X1.1265 Y0.125 I-0.0319 J-0.0053
X1.1305 Y0.1033 I-0.0279 J-0.0164
G1 X1.1288 Y0.0951
G2 X1.1168 Y0.0766 I-0.0314 J0.0073
X1.1122 Y0.055 I-0.0319 J-0.0045
G1 X1.1076 Y0.0481
G2 X1.0894 Y0.0356 I-0.0263 J0.0187
X1.0769 Y0.0174 I-0.0312 J0.0081
G1 X1.07 Y0.0128
G2 X1.0484 Y0.0082 I-0.0171 J0.0273
X1.0299 Y-0.0038 I-0.0258 J0.0194
G1 X1.0217 Y-0.0055
G2 X1 Y-0.0015 I-0.0053 J0.0319
X0.9783 Y-0.0055 I-0.0164 J0.0279
G1 X0.9701 Y-0.0038
G2 X0.9516 Y0.0082 I0.0073 J0.0314
X0.93 Y0.0128 I-0.0045 J0.0319
G1 X0.9231 Y0.0174
G2 X0.9106 Y0.0356 I0.0187 J0.0263
X0.8924 Y0.0481 I0.0081 J0.0312
G1 X0.8878 Y0.055
G2 X0.8832 Y0.0766 I0.0273 J0.0171
X0.8712 Y0.0951 I0.0194 J0.0258
G1 X0.8695 Y0.1033
G2 X0.8735 Y0.125 I0.0319 J0.0053
X0.8695 Y0.1467 I0.0279 J0.0164
G1 X0.8712 Y0.1549
G2 X0.8832 Y0.1734 I0.0314 J-0.0073
X0.8878 Y0.195 I0.0319 J0.0045
G1 X0.8924 Y0.2019
G2 X0.9106 Y0.2144 I0.0263 J-0.0187
X0.9231 Y0.2326 I0.0312 J-0.0081
G1 X0.93 Y0.2372
G2 X0.9516 Y0.2418 I0.0171 J-0.0273
X0.9701 Y0.2538 I0.0258 J-0.0194
G1 X0.9783 Y0.2555
G2 X1 Y0.2515 I0.0053 J-0.0319
X1.0217 Y0.2555 I0.0164 J-0.0279
G1 X1.0299 Y0.2538
G2 X1.0484 Y0.2418 I-0.0073 J-0.0314
X1.07 Y0.2372 I0.0045 J-0.0319
G1 X1.0769 Y0.2326
G2 X1.0894 Y0.2144 I-0.0187 J-0.0263
X1.1076 Y0.2019 I-0.0081 J-0.0312
G1 Z-0.035 F6
X1.1122 Y0.195 F18
G2 X1.1168 Y0.1734 I-0.0273 J-0.0171
X1.1288 Y0.1549 I-0.0194 J-0.0258
G1 X1.1305 Y0.1467
G2 X1.1265 Y0.125 I-0.0319 J-0.0053
X1.1305 Y0.1033 I-0.0279 J-0.0164
G1 X1.1288 Y0.0951
G2 X1.1168 Y0.0766 I-0.0314 J0.0073
X1.1122 Y0.055 I-0.0319 J-0.0045
G1 X1.1076 Y0.0481
G2 X1.0894 Y0.0356 I-0.0263 J0.0187
X1.0769 Y0.0174 I-0.0312 J0.0081
G1 X1.07 Y0.0128
G2 X1.0484 Y0.0082 I-0.0171 J0.0273
X1.0299 Y-0.0038 I-0.0258 J0.0194
G1 X1.0217 Y-0.0055
G2 X1 Y-0.0015 I-0.0053 J0.0319
X0.9783 Y-0.0055 I-0.0164 J0.0279
G1 X0.9701 Y-0.0038
G2 X0.9516 Y0.0082 I0.0073 J0.0314
X0.93 Y0.0128 I-0.0045 J0.0319
G1 X0.9231 Y0.0174
G2 X0.9106 Y0.0356 I0.0187 J0.0263
X0.8924 Y0.0481 I0.0081 J0.0312
G1 X0.8878 Y0.055
G2 X0.8832 Y0.0766 I0.0273 J0.0171
X0.8712 Y0.0951 I0.0194 J0.0258
G1 X0.8695 Y0.1033
G2 X0.8735 Y0.125 I0.0319 J0.0053
X0.8695 Y0.1467 I0.0279 J0.0164
G1 X0.8712 Y0.1549
G2 X0.8832 Y0.1734 I0.0314 J-0.0073
X0.8878 Y0.195 I0.0319 J0.0045
G1 X0.8924 Y0.2019
G2 X0.9106 Y0.2144 I0.0263 J-0.0187
X0.9231 Y0.2326 I0.0312 J-0.0081
G1 X0.93 Y0.2372
G2 X0.9516 Y0.2418 I0.0171 J-0.0273
X0.9701 Y0.2538 I0.0258 J-0.0194
G1 X0.9783 Y0.2555
G2 X1 Y0.2515 I0.0053 J-0.0319
X1.0217 Y0.2555 I0.0164 J-0.0279
G1 X1.0299 Y0.2538
G2 X1.0484 Y0.2418 I-0.0073 J-0.0314
X1.07 Y0.2372 I0.0045 J-0.0319
G1 X1.0769 Y0.2326
G2 X1.0894 Y0.2144 I-0.0187 J-0.0263
X1.1076 Y0.2019 I-0.0081 J-0.0312
G1 Z-0.04 F6
X1.1122 Y0.195 F18
G2 X1.1168 Y0.1734 I-0.0273 J-0.0171
X1.1288 Y0.1549 I-0.0194 J-0.0258
G1 X1.1305 Y0.1467
G2 X1.1265 Y0.125 I-0.0319 J-0.0053
X1.1305 Y0.1033 I-0.0279 J-0.0164
G1 X1.1288 Y0.0951
G2 X1.1168 Y0.0766 I-0.0314 J0.0073
X1.1122 Y0.055 I-0.0319 J-0.0045
G1 X1.1076 Y0.0481
G2 X1.0894 Y0.0356 I-0.0263 J0.0187
X1.0769 Y0.0174 I-0.0312 J0.0081
G1 X1.07 Y0.0128
G2 X1.0484 Y0.0082 I-0.0171 J0.0273
X1.0299 Y-0.0038 I-0.0258 J0.0194
G1 X1.0217 Y-0.0055
G2 X1 Y-0.0015 I-0.0053 J0.0319
X0.9783 Y-0.0055 I-0.0164 J0.0279
G1 X0.9701 Y-0.0038
G2 X0.9516 Y0.0082 I0.0073 J0.0314
X0.93 Y0.0128 I-0.0045 J0.0319
G1 X0.9231 Y0.0174
G2 X0.9106 Y0.0356 I0.0187 J0.0263
X0.8924 Y0.0481 I0.0081 J0.0312
G1 X0.8878 Y0.055
G2 X0.8832 Y0.0766 I0.0273 J0.0171
X0.8712 Y0.0951 I0.0194 J0.0258
G1 X0.8695 Y0.1033
G2 X0.8735 Y0.125 I0.0319 J0.0053
X0.8695 Y0.1467 I0.0279 J0.0164
G1 X0.8712 Y0.1549
G2 X0.8832 Y0.1734 I0.0314 J-0.0073
X0.8878 Y0.195 I0.0319 J0.0045
G1 X0.8924 Y0.2019
G2 X0.9106 Y0.2144 I0.0263 J-0.0187
X0.9231 Y0.2326 I0.0312 J-0.0081
G1 X0.93 Y0.2372
G2 X0.9516 Y0.2418 I0.0171 J-0.0273
X0.9701 Y0.2538 I0.0258 J-0.0194
G1 X0.9783 Y0.2555
G2 X1 Y0.2515 I0.0053 J-0.0319
X1.0217 Y0.2555 I0.0164 J-0.0279
G1 X1.0299 Y0.2538
G2 X1.0484 Y0.2418 I-0.0073 J-0.0314
X1.07 Y0.2372 I0.0045 J-0.0319
G1 X1.0769 Y0.2326
G2 X1.0894 Y0.2144 I-0.0187 J-0.0263
X1.1076 Y0.2019 I-0.0081 J-0.0312
G1 Z-0.045 F6
X1.1122 Y0.195 F18
G2 X1.1168 Y0.1734 I-0.0273 J-0.0171
X1.1288 Y0.1549 I-0.0194 J-0.0258
G1 X1.1305 Y0.1467
G2 X1.1265 Y0.125 I-0.0319 J-0.0053
X1.1305 Y0.1033 I-0.0279 J-0.0164
G1 X1.1288 Y0.0951
G2 X1.1168 Y0.0766 I-0.0314 J0.0073
X1.1122 Y0.055 I-0.0319 J-0.0045
G1 X1.1076 Y0.0481
G2 X1.0894 Y0.0356 I-0.0263 J0.0187
X1.0769 Y0.0174 I-0.0312 J0.0081
G1 X1.07 Y0.0128
G2 X1.0484 Y0.0082 I-0.0171 J0.0273
X1.0299 Y-0.0038 I-0.0258 J0.0194
G1 X1.0217 Y-0.0055
G2 X1 Y-0.0015 I-0.0053 J0.0319
X0.9783 Y-0.0055 I-0.0164 J0.0279
G1 X0.9701 Y-0.0038
G2 X0.9516 Y0.0082 I0.0073 J0.0314
X0.93 Y0.0128 I-0.0045 J0.0319
G1 X0.9231 Y0.0174
G2 X0.9106 Y0.0356 I0.0187 J0.0263
X0.8924 Y0.0481 I0.0081 J0.0312
G1 X0.8878 Y0.055
G2 X0.8832 Y0.0766 I0.0273 J0.0171
X0.8712 Y0.0951 I0.0194 J0.0258
G1 X0.8695 Y0.1033
G2 X0.8735 Y0.125 I0.0319 J0.0053
X0.8695 Y0.1467 I0.0279 J0.0164
G1 X0.8712 Y0.1549
G2 X0.8832 Y0.1734 I0.0314 J-0.0073
X0.8878 Y0.195 I0.0319 J0.0045
G1 X0.8924 Y0.2019
G2 X0.9106 Y0.2144 I0.0263 J-0.0187
X0.9231 Y0.2326 I0.0312 J-0.0081
G1 X0.93 Y0.2372
G2 X0.9516 Y0.2418 I0.0171 J-0.0273
X0.9701 Y0.2538 I0.0258 J-0.0194
G1 X0.9783 Y0.2555
G2 X1 Y0.2515 I0.0053 J-0.0319
X1.0217 Y0.2555 I0.0164 J-0.0279
G1 X1.0299 Y0.2538
G2 X1.0484 Y0.2418 I-0.0073 J-0.0314
X1.07 Y0.2372 I0.0045 J-0.0319
G1 X1.0769 Y0.2326
G2 X1.0894 Y0.2144 I-0.0187 J-0.0263
X1.1076 Y0.2019 I-0.0081 J-0.0312
G1 Z-0.05 F6
X1.1122 Y0.195 F18
G2 X1.1168 Y0.1734 I-0.0273 J-0.0171
X1.1288 Y0.1549 I-0.0194 J-0.0258
G1 X1.1305 Y0.1467
G2 X1.1265 Y0.125 I-0.0319 J-0.0053
X1.1305 Y0.1033 I-0.0279 J-0.0164
G1 X1.1288 Y0.0951
G2 X1.1168 Y0.0766 I-0.0314 J0.0073
X1.1122 Y0.055 I-0.0319 J-0.0045
G1 X1.1076 Y0.0481
G2 X1.0894 Y0.0356 I-0.0263 J0.0187
X1.0769 Y0.0174 I-0.0312 J0.0081
G1 X1.07 Y0.0128
G2 X1.0484 Y0.0082 I-0.0171 J0.0273
X1.0299 Y-0.0038 I-0.0258 J0.0194
G1 X1.0217 Y-0.0055
G2 X1 Y-0.0015 I-0.0053 J0.0319
X0.9783 Y-0.0055 I-0.0164 J0.0279
G1 X0.9701 Y-0.0038
G2 X0.9516 Y0.0082 I0.0073 J0.0314
X0.93 Y0.0128 I-0.0045 J0.0319
G1 X0.9231 Y0.0174
G2 X0.9106 Y0.0356 I0.0187 J0.0263
X0.8924 Y0.0481 I0.0081 J0.0312
G1 X0.8878 Y0.055
G2 X0.8832 Y0.0766 I0.0273 J0.0171
X0.8712 Y0.0951 I0.0194 J0.0258
G1 X0.8695 Y0.1033
G2 X0.8735 Y0.125 I0.0319 J0.0053
X0.8695 Y0.1467 I0.0279 J0.0164
G1 X0.8712 Y0.1549
G2 X0.8832 Y0.1734 I0.0314 J-0.0073
X0.8878 Y0.195 I0.0319 J0.0045
G1 X0.8924 Y0.2019
G2 X0.9106 Y0.2144 I0.0263 J-0.0187
X0.9231 Y0.2326 I0.0312 J-0.0081
G1 X0.93 Y0.2372
G2 X0.9516 Y0.2418 I0.0171 J-0.0273
X0.9701 Y0.2538 I0.0258 J-0.0194
G1 X0.9783 Y0.2555
G2 X1 Y0.2515 I0.0053 J-0.0319
X1.0217 Y0.2555 I0.0164 J-0.0279
G1 X1.0299 Y0.2538
G2 X1.0484 Y0.2418 I-0.0073 J-0.0314
X1.07 Y0.2372 I0.0045 J-0.0319
G1 X1.0769 Y0.2326
G2 X1.0894 Y0.2144 I-0.0187 J-0.0263
X1.1076 Y0.2019 I-0.0081 J-0.0312
G1 Z-0.055 F6
X1.1122 Y0.195 F18
G2 X1.1168 Y0.1734 I-0.0273 J-0.0171
X1.1288 Y0.1549 I-0.0194 J-0.0258
G1 X1.1305 Y0.1467
G2 X1.1265 Y0.125 I-0.0319 J-0.0053
X1.1305 Y0.1033 I-0.0279 J-0.0164
G1 X1.1288 Y0.0951
G2 X1.1168 Y0.0766 I-0.0314 J0.0073
X1.1122 Y0.055 I-0.0319 J-0.0045
G1 X1.1076 Y0.0481
G2 X1.0894 Y0.0356 I-0.0263 J0.0187
X1.0769 Y0.0174 I-0.0312 J0.0081
G1 X1.07 Y0.0128
G2 X1.0484 Y0.0082 I-0.0171 J0.0273
X1.0299 Y-0.0038 I-0.0258 J0.0194
G1 X1.0217 Y-0.0055
G2 X1 Y-0.0015 I-0.0053 J0.0319
X0.9783 Y-0.0055 I-0.0164 J0.0279
G1 X0.9701 Y-0.0038
G2 X0.9516 Y0.0082 I0.0073 J0.0314
X0.93 Y0.0128 I-0.0045 J0.0319
G1 X0.9231 Y0.0174
G2 X0.9106 Y0.0356 I0.0187 J0.0263
X0.8924 Y0.0481 I0.0081 J0.0312
G1 X0.8878 Y0.055
G2 X0.8832 Y0.0766 I0.0273 J0.0171
X0.8712 Y0.0951 I0.0194 J0.0258
G1 X0.8695 Y0.1033
G2 X0.8735 Y0.125 I0.0319 J0.0053
X0.8695 Y0.1467 I0.0279 J0.0164
G1 X0.8712 Y0.1549
G2 X0.8832 Y0.1734 I0.0314 J-0.0073
X0.8878 Y0.195 I0.0319 J0.0045
G1 X0.8924 Y0.2019
G2 X0.9106 Y0.2144 I0.0263 J-0.0187
X0.9231 Y0.2326 I0.0312 J-0.0081
G1 X0.93 Y0.2372
G2 X0.9516 Y0.2418 I0.0171 J-0.0273
X0.9701 Y0.2538 I0.0258 J-0.0194
G1 X0.9783 Y0.2555
G2 X1 Y0.2515 I0.0053 J-0.0319
X1.0217 Y0.2555 I0.0164 J-0.0279
G1 X1.0299 Y0.2538
G2 X1.0484 Y0.2418 I-0.0073 J-0.0314
X1.07 Y0.2372 I0.0045 J-0.0319
G1 X1.0769 Y0.2326
G2 X1.0894 Y0.2144 I-0.0187 J-0.0263
X1.1076 Y0.2019 I-0.0081 J-0.0312
G1 Z-0.06 F6
X1.1122 Y0.195 F18
G2 X1.1168 Y0.1734 I-0.0273 J-0.0171
X1.1288 Y0.1549 I-0.0194 J-0.0258
G1 X1.1305 Y0.1467
G2 X1.1265 Y0.125 I-0.0319 J-0.0053
X1.1305 Y0.1033 I-0.0279 J-0.0164
G1 X1.1288 Y0.0951
G2 X1.1168 Y0.0766 I-0.0314 J0.0073
X1.1122 Y0.055 I-0.0319 J-0.0045
G1 X1.1076 Y0.0481
G2 X1.0894 Y0.0356 I-0.0263 J0.0187
X1.0769 Y0.0174 I-0.0312 J0.0081
G1 X1.07 Y0.0128
G2 X1.0484 Y0.0082 I-0.0171 J0.0273
X1.0299 Y-0.0038 I-0.0258 J0.0194
G1 X1.0217 Y-0.0055
G2 X1 Y-0.0015 I-0.0053 J0.0319
X0.9783 Y-0.0055 I-0.0164 J0.0279
G1 X0.9701 Y-0.0038
G2 X0.9516 Y0.0082 I0.0073 J0.0314
X0.93 Y0.0128 I-0.0045 J0.0319
G1 X0.9231 Y0.0174
G2 X0.9106 Y0.0356 I0.0187 J0.0263
X0.8924 Y0.0481 I0.0081 J0.0312
G1 X0.8878 Y0.055
G2 X0.8832 Y0.0766 I0.0273 J0.0171
X0.8712 Y0.0951 I0.0194 J0.0258
G1 X0.8695 Y0.1033
G2 X0.8735 Y0.125 I0.0319 J0.0053
X0.8695 Y0.1467 I0.0279 J0.0164
G1 X0.8712 Y0.1549
G2 X0.8832 Y0.1734 I0.0314 J-0.0073
X0.8878 Y0.195 I0.0319 J0.0045
G1 X0.8924 Y0.2019
G2 X0.9106 Y0.2144 I0.0263 J-0.0187
X0.9231 Y0.2326 I0.0312 J-0.0081
G1 X0.93 Y0.2372
G2 X0.9516 Y0.2418 I0.0171 J-0.0273
X0.9701 Y0.2538 I0.0258 J-0.0194
G1 X0.9783 Y0.2555
G2 X1 Y0.2515 I0.0053 J-0.0319
X1.0217 Y0.2555 I0.0164 J-0.0279
G1 X1.0299 Y0.2538
G2 X1.0484 Y0.2418 I-0.0073 J-0.0314
X1.07 Y0.2372 I0.0045 J-0.0319
G1 X1.0769 Y0.2326
G2 X1.0894 Y0.2144 I-0.0187 J-0.0263
X1.1076 Y0.2019 I-0.0081 J-0.0312
G1 Z-0.065 F6
X1.1122 Y0.195 F18
G2 X1.1168 Y0.1734 I-0.0273 J-0.0171
X1.1288 Y0.1549 I-0.0194 J-0.0258
G1 X1.1305 Y0.1467
G2 X1.1265 Y0.125 I-0.0319 J-0.0053
X1.1305 Y0.1033 I-0.0279 J-0.0164
G1 X1.1288 Y0.0951
G2 X1.1168 Y0.0766 I-0.0314 J0.0073
X1.1122 Y0.055 I-0.0319 J-0.0045
G1 X1.1076 Y0.0481
G2 X1.0894 Y0.0356 I-0.0263 J0.0187
X1.0769 Y0.0174 I-0.0312 J0.0081
G1 X1.07 Y0.0128
G2 X1.0484 Y0.0082 I-0.0171 J0.0273
X1.0299 Y-0.0038 I-0.0258 J0.0194
G1 X1.0217 Y-0.0055
G2 X1 Y-0.0015 I-0.0053 J0.0319
X0.9783 Y-0.0055 I-0.0164 J0.0279
G1 X0.9701 Y-0.0038
G2 X0.9516 Y0.0082 I0.0073 J0.0314
X0.93 Y0.0128 I-0.0045 J0.0319
G1 X0.9231 Y0.0174
G2 X0.9106 Y0.0356 I0.0187 J0.0263
X0.8924 Y0.0481 I0.0081 J0.0312
G1 X0.8878 Y0.055
G2 X0.8832 Y0.0766 I0.0273 J0.0171
X0.8712 Y0.0951 I0.0194 J0.0258
G1 X0.8695 Y0.1033
G2 X0.8735 Y0.125 I0.0319 J0.0053
X0.8695 Y0.1467 I0.0279 J0.0164
G1 X0.8712 Y0.1549
G2 X0.8832 Y0.1734 I0.0314 J-0.0073
X0.8878 Y0.195 I0.0319 J0.0045
G1 X0.8924 Y0.2019
G2 X0.9106 Y0.2144 I0.0263 J-0.0187
X0.9231 Y0.2326 I0.0312 J-0.0081
G1 X0.93 Y0.2372
G2 X0.9516 Y0.2418 I0.0171 J-0.0273
X0.9701 Y0.2538 I0.0258 J-0.0194
G1 X0.9783 Y0.2555
G2 X1 Y0.2515 I0.0053 J-0.0319
X1.0217 Y0.2555 I0.0164 J-0.0279
G1 X1.0299 Y0.2538
G2 X1.0484 Y0.2418 I-0.0073 J-0.0314
X1.07 Y0.2372 I0.0045 J-0.0319
G1 X1.0769 Y0.2326
G2 X1.0894 Y0.2144 I-0.0187 J-0.0263
X1.1076 Y0.2019 I-0.0081 J-0.0312
G1 Z-0.07 F6
X1.1122 Y0.195 F18
G2 X1.1168 Y0.1734 I-0.0273 J-0.0171
X1.1288 Y0.1549 I-0.0194 J-0.0258
G1 X1.1305 Y0.1467
G2 X1.1265 Y0.125 I-0.0319 J-0.0053
X1.1305 Y0.1033 I-0.0279 J-0.0164
G1 X1.1288 Y0.0951
G2 X1.1168 Y0.0766 I-0.0314 J0.0073
X1.1122 Y0.055 I-0.0319 J-0.0045
G1 X1.1076 Y0.0481
G2 X1.0894 Y0.0356 I-0.0263 J0.0187
X1.0769 Y0.0174 I-0.0312 J0.0081
G1 X1.07 Y0.0128
G2 X1.0484 Y0.0082 I-0.0171 J0.0273
X1.0299 Y-0.0038 I-0.0258 J0.0194
G1 X1.0217 Y-0.0055
G2 X1 Y-0.0015 I-0.0053 J0.0319
X0.9783 Y-0.0055 I-0.0164 J0.0279
G1 X0.9701 Y-0.0038
G2 X0.9516 Y0.0082 I0.0073 J0.0314
X0.93 Y0.0128 I-0.0045 J0.0319
G1 X0.9231 Y0.0174
G2 X0.9106 Y0.0356 I0.0187 J0.0263
X0.8924 Y0.0481 I0.0081 J0.0312
G1 X0.8878 Y0.055
G2 X0.8832 Y0.0766 I0.0273 J0.0171
X0.8712 Y0.0951 I0.0194 J0.0258
G1 X0.8695 Y0.1033
G2 X0.8735 Y0.125 I0.0319 J0.0053
X0.8695 Y0.1467 I0.0279 J0.0164
G1 X0.8712 Y0.1549
G2 X0.8832 Y0.1734 I0.0314 J-0.0073
X0.8878 Y0.195 I0.0319 J0.0045
G1 X0.8924 Y0.2019
G2 X0.9106 Y0.2144 I0.0263 J-0.0187
X0.9231 Y0.2326 I0.0312 J-0.0081
G1 X0.93 Y0.2372
G2 X0.9516 Y0.2418 I0.0171 J-0.0273
X0.9701 Y0.2538 I0.0258 J-0.0194
G1 X0.9783 Y0.2555
G2 X1 Y0.2515 I0.0053 J-0.0319
X1.0217 Y0.2555 I0.0164 J-0.0279
G1 X1.0299 Y0.2538
G2 X1.0484 Y0.2418 I-0.0073 J-0.0314
X1.07 Y0.2372 I0.0045 J-0.0319
G1 X1.0769 Y0.2326
G2 X1.0894 Y0.2144 I-0.0187 J-0.0263
X1.1076 Y0.2019 I-0.0081 J-0.0312
G1 Z-0.075 F6
X1.1122 Y0.195 F18
G2 X1.1168 Y0.1734 I-0.0273 J-0.0171
X1.1288 Y0.1549 I-0.0194 J-0.0258
G1 X1.1305 Y0.1467
G2 X1.1265 Y0.125 I-0.0319 J-0.0053
X1.1305 Y0.1033 I-0.0279 J-0.0164
G1 X1.1288 Y0.0951
G2 X1.1168 Y0.0766 I-0.0314 J0.0073
X1.1122 Y0.055 I-0.0319 J-0.0045
G1 X1.1076 Y0.0481
G2 X1.0894 Y0.0356 I-0.0263 J0.0187
X1.0769 Y0.0174 I-0.0312 J0.0081
G1 X1.07 Y0.0128
G2 X1.0484 Y0.0082 I-0.0171 J0.0273
X1.0299 Y-0.0038 I-0.0258 J0.0194
G1 X1.0217 Y-0.0055
G2 X1 Y-0.0015 I-0.0053 J0.0319
X0.9783 Y-0.0055 I-0.0164 J0.0279
G1 X0.9701 Y-0.0038
G2 X0.9516 Y0.0082 I0.0073 J0.0314
X0.93 Y0.0128 I-0.0045 J0.0319
G1 X0.9231 Y0.0174
G2 X0.9106 Y0.0356 I0.0187 J0.0263
X0.8924 Y0.0481 I0.0081 J0.0312
G1 X0.8878 Y0.055
G2 X0.8832 Y0.0766 I0.0273 J0.0171
X0.8712 Y0.0951 I0.0194 J0.0258
G1 X0.8695 Y0.1033
G2 X0.8735 Y0.125 I0.0319 J0.0053
X0.8695 Y0.1467 I0.0279 J0.0164
G1 X0.8712 Y0.1549
G2 X0.8832 Y0.1734 I0.0314 J-0.0073
X0.8878 Y0.195 I0.0319 J0.0045
G1 X0.8924 Y0.2019
G2 X0.9106 Y0.2144 I0.0263 J-0.0187
X0.9231 Y0.2326 I0.0312 J-0.0081
G1 X0.93 Y0.2372
G2 X0.9516 Y0.2418 I0.0171 J-0.0273
X0.9701 Y0.2538 I0.0258 J-0.0194
G1 X0.9783 Y0.2555
G2 X1 Y0.2515 I0.0053 J-0.0319
X1.0217 Y0.2555 I0.0164 J-0.0279
G1 X1.0299 Y0.2538
G2 X1.0484 Y0.2418 I-0.0073 J-0.0314
X1.07 Y0.2372 I0.0045 J-0.0319
G1 X1.0769 Y0.2326
G2 X1.0894 Y0.2144 I-0.0187 J-0.0263
X1.1076 Y0.2019 I-0.0081 J-0.0312
G1 Z-0.08 F6
X1.1122 Y0.195 F18
G2 X1.1168 Y0.1734 I-0.0273 J-0.0171
X1.1288 Y0.1549 I-0.0194 J-0.0258
G1 X1.1305 Y0.1467
G2 X1.1265 Y0.125 I-0.0319 J-0.0053
X1.1305 Y0.1033 I-0.0279 J-0.0164
G1 X1.1288 Y0.0951
G2 X1.1168 Y0.0766 I-0.0314 J0.0073
X1.1122 Y0.055 I-0.0319 J-0.0045
G1 X1.1076 Y0.0481
G2 X1.0894 Y0.0356 I-0.0263 J0.0187
X1.0769 Y0.0174 I-0.0312 J0.0081
G1 X1.07 Y0.0128
G2 X1.0484 Y0.0082 I-0.0171 J0.0273
X1.0299 Y-0.0038 I-0.0258 J0.0194
G1 X1.0217 Y-0.0055
G2 X1 Y-0.0015 I-0.0053 J0.0319
X0.9783 Y-0.0055 I-0.0164 J0.0279
G1 X0.9701 Y-0.0038
G2 X0.9516 Y0.0082 I0.0073 J0.0314
X0.93 Y0.0128 I-0.0045 J0.0319
G1 X0.9231 Y0.0174
G2 X0.9106 Y0.0356 I0.0187 J0.0263
X0.8924 Y0.0481 I0.0081 J0.0312
G1 X0.8878 Y0.055
G2 X0.8832 Y0.0766 I0.0273 J0.0171
X0.8712 Y0.0951 I0.0194 J0.0258
G1 X0.8695 Y0.1033
G2 X0.8735 Y0.125 I0.0319 J0.0053
X0.8695 Y0.1467 I0.0279 J0.0164
G1 X0.8712 Y0.1549
G2 X0.8832 Y0.1734 I0.0314 J-0.0073
X0.8878 Y0.195 I0.0319 J0.0045
G1 X0.8924 Y0.2019
G2 X0.9106 Y0.2144 I0.0263 J-0.0187
X0.9231 Y0.2326 I0.0312 J-0.0081
G1 X0.93 Y0.2372
G2 X0.9516 Y0.2418 I0.0171 J-0.0273
X0.9701 Y0.2538 I0.0258 J-0.0194
G1 X0.9783 Y0.2555
G2 X1 Y0.2515 I0.0053 J-0.0319
X1.0217 Y0.2555 I0.0164 J-0.0279
G1 X1.0299 Y0.2538
G2 X1.0484 Y0.2418 I-0.0073 J-0.0314
X1.07 Y0.2372 I0.0045 J-0.0319
G1 X1.0769 Y0.2326
G2 X1.0894 Y0.2144 I-0.0187 J-0.0263
X1.1076 Y0.2019 I-0.0081 J-0.0312
G1 Z-0.085 F6
X1.1122 Y0.195 F18
G2 X1.1168 Y0.1734 I-0.0273 J-0.0171
X1.1288 Y0.1549 I-0.0194 J-0.0258
G1 X1.1305 Y0.1467
G2 X1.1265 Y0.125 I-0.0319 J-0.0053
X1.1305 Y0.1033 I-0.0279 J-0.0164
G1 X1.1288 Y0.0951
G2 X1.1168 Y0.0766 I-0.0314 J0.0073
X1.1122 Y0.055 I-0.0319 J-0.0045
G1 X1.1076 Y0.0481
G2 X1.0894 Y0.0356 I-0.0263 J0.0187
X1.0769 Y0.0174 I-0.0312 J0.0081
G1 X1.07 Y0.0128
G2 X1.0484 Y0.0082 I-0.0171 J0.0273
X1.0299 Y-0.0038 I-0.0258 J0.0194
G1 X1.0217 Y-0.0055
G2 X1 Y-0.0015 I-0.0053 J0.0319
X0.9783 Y-0.0055 I-0.0164 J0.0279
G1 X0.9701 Y-0.0038
G2 X0.9516 Y0.0082 I0.0073 J0.0314
X0.93 Y0.0128 I-0.0045 J0.0319
G1 X0.9231 Y0.0174
G2 X0.9106 Y0.0356 I0.0187 J0.0263
X0.8924 Y0.0481 I0.0081 J0.0312
G1 X0.8878 Y0.055
G2 X0.8832 Y0.0766 I0.0273 J0.0171
X0.8712 Y0.0951 I0.0194 J0.0258
G1 X0.8695 Y0.1033
G2 X0.8735 Y0.125 I0.0319 J0.0053
X0.8695 Y0.1467 I0.0279 J0.0164
G1 X0.8712 Y0.1549
G2 X0.8832 Y0.1734 I0.0314 J-0.0073
X0.8878 Y0.195 I0.0319 J0.0045
G1 X0.8924 Y0.2019
G2 X0.9106 Y0.2144 I0.0263 J-0.0187
X0.9231 Y0.2326 I0.0312 J-0.0081
G1 X0.93 Y0.2372
G2 X0.9516 Y0.2418 I0.0171 J-0.0273
X0.9701 Y0.2538 I0.0258 J-0.0194
G1 X0.9783 Y0.2555
G2 X1 Y0.2515 I0.0053 J-0.0319
X1.0217 Y0.2555 I0.0164 J-0.0279
G1 X1.0299 Y0.2538
G2 X1.0484 Y0.2418 I-0.0073 J-0.0314
X1.07 Y0.2372 I0.0045 J-0.0319
G1 X1.0769 Y0.2326
G2 X1.0894 Y0.2144 I-0.0187 J-0.0263
X1.1076 Y0.2019 I-0.0081 J-0.0312
G1 Z-0.09 F6
X1.1122 Y0.195 F18
G2 X1.1168 Y0.1734 I-0.0273 J-0.0171
X1.1288 Y0.1549 I-0.0194 J-0.0258
G1 X1.1305 Y0.1467
G2 X1.1265 Y0.125 I-0.0319 J-0.0053
X1.1305 Y0.1033 I-0.0279 J-0.0164
G1 X1.1288 Y0.0951
G2 X1.1168 Y0.0766 I-0.0314 J0.0073
X1.1122 Y0.055 I-0.0319 J-0.0045
G1 X1.1076 Y0.0481
G2 X1.0894 Y0.0356 I-0.0263 J0.0187
X1.0769 Y0.0174 I-0.0312 J0.0081
G1 X1.07 Y0.0128
G2 X1.0484 Y0.0082 I-0.0171 J0.0273
X1.0299 Y-0.0038 I-0.0258 J0.0194
G1 X1.0217 Y-0.0055
G2 X1 Y-0.0015 I-0.0053 J0.0319
X0.9783 Y-0.0055 I-0.0164 J0.0279
G1 X0.9701 Y-0.0038
G2 X0.9516 Y0.0082 I0.0073 J0.0314
X0.93 Y0.0128 I-0.0045 J0.0319
G1 X0.9231 Y0.0174
G2 X0.9106 Y0.0356 I0.0187 J0.0263
X0.8924 Y0.0481 I0.0081 J0.0312
G1 X0.8878 Y0.055
G2 X0.8832 Y0.0766 I0.0273 J0.0171
X0.8712 Y0.0951 I0.0194 J0.0258
G1 X0.8695 Y0.1033
G2 X0.8735 Y0.125 I0.0319 J0.0053
X0.8695 Y0.1467 I0.0279 J0.0164
G1 X0.8712 Y0.1549
G2 X0.8832 Y0.1734 I0.0314 J-0.0073
X0.8878 Y0.195 I0.0319 J0.0045
G1 X0.8924 Y0.2019
G2 X0.9106 Y0.2144 I0.0263 J-0.0187
X0.9231 Y0.2326 I0.0312 J-0.0081
G1 X0.93 Y0.2372
G2 X0.9516 Y0.2418 I0.0171 J-0.0273
X0.9701 Y0.2538 I0.0258 J-0.0194
G1 X0.9783 Y0.2555
G2 X1 Y0.2515 I0.0053 J-0.0319
X1.0217 Y0.2555 I0.0164 J-0.0279
G1 X1.0299 Y0.2538
G2 X1.0484 Y0.2418 I-0.0073 J-0.0314
X1.07 Y0.2372 I0.0045 J-0.0319
G1 X1.0769 Y0.2326
G2 X1.0894 Y0.2144 I-0.0187 J-0.0263
X1.1076 Y0.2019 I-0.0081 J-0.0312
G1 Z-0.095 F6
X1.1122 Y0.195 F18
G2 X1.1168 Y0.1734 I-0.0273 J-0.0171
X1.1288 Y0.1549 I-0.0194 J-0.0258
G1 X1.1305 Y0.1467
G2 X1.1265 Y0.125 I-0.0319 J-0.0053
X1.1305 Y0.1033 I-0.0279 J-0.0164
G1 X1.1288 Y0.0951
G2 X1.1168 Y0.0766 I-0.0314 J0.0073
X1.1122 Y0.055 I-0.0319 J-0.0045
G1 X1.1076 Y0.0481
G2 X1.0894 Y0.0356 I-0.0263 J0.0187
X1.0769 Y0.0174 I-0.0312 J0.0081
G1 X1.07 Y0.0128
G2 X1.0484 Y0.0082 I-0.0171 J0.0273
X1.0299 Y-0.0038 I-0.0258 J0.0194
G1 X1.0217 Y-0.0055
G2 X1 Y-0.0015 I-0.0053 J0.0319
X0.9783 Y-0.0055 I-0.0164 J0.0279
G1 X0.9701 Y-0.0038
G2 X0.9516 Y0.0082 I0.0073 J0.0314
X0.93 Y0.0128 I-0.0045 J0.0319
G1 X0.9231 Y0.0174
G2 X0.9106 Y0.0356 I0.0187 J0.0263
X0.8924 Y0.0481 I0.0081 J0.0312
G1 X0.8878 Y0.055
G2 X0.8832 Y0.0766 I0.0273 J0.0171
X0.8712 Y0.0951 I0.0194 J0.0258
G1 X0.8695 Y0.1033
G2 X0.8735 Y0.125 I0.0319 J0.0053
X0.8695 Y0.1467 I0.0279 J0.0164
G1 X0.8712 Y0.1549
G2 X0.8832 Y0.1734 I0.0314 J-0.0073
X0.8878 Y0.195 I0.0319 J0.0045
G1 X0.8924 Y0.2019
G2 X0.9106 Y0.2144 I0.0263 J-0.0187
X0.9231 Y0.2326 I0.0312 J-0.0081
G1 X0.93 Y0.2372
G2 X0.9516 Y0.2418 I0.0171 J-0.0273
X0.9701 Y0.2538 I0.0258 J-0.0194
G1 X0.9783 Y0.2555
G2 X1 Y0.2515 I0.0053 J-0.0319
X1.0217 Y0.2555 I0.0164 J-0.0279
G1 X1.0299 Y0.2538
G2 X1.0484 Y0.2418 I-0.0073 J-0.0314
X1.07 Y0.2372 I0.0045 J-0.0319
G1 X1.0769 Y0.2326
G2 X1.0894 Y0.2144 I-0.0187 J-0.0263
X1.1076 Y0.2019 I-0.0081 J-0.0312
G1 Z-0.1 F6
X1.1122 Y0.195 F18
G2 X1.1168 Y0.1734 I-0.0273 J-0.0171
X1.1288 Y0.1549 I-0.0194 J-0.0258
G1 X1.1305 Y0.1467
G2 X1.1265 Y0.125 I-0.0319 J-0.0053
X1.1305 Y0.1033 I-0.0279 J-0.0164
G1 X1.1288 Y0.0951
G2 X1.1168 Y0.0766 I-0.0314 J0.0073
X1.1122 Y0.055 I-0.0319 J-0.0045
G1 X1.1076 Y0.0481
G2 X1.0894 Y0.0356 I-0.0263 J0.0187
X1.0769 Y0.0174 I-0.0312 J0.0081
G1 X1.07 Y0.0128
G2 X1.0484 Y0.0082 I-0.0171 J0.0273
X1.0299 Y-0.0038 I-0.0258 J0.0194
G1 X1.0217 Y-0.0055
G2 X1 Y-0.0015 I-0.0053 J0.0319
X0.9783 Y-0.0055 I-0.0164 J0.0279
G1 X0.9701 Y-0.0038
G2 X0.9516 Y0.0082 I0.0073 J0.0314
X0.93 Y0.0128 I-0.0045 J0.0319
G1 X0.9231 Y0.0174
G2 X0.9106 Y0.0356 I0.0187 J0.0263
X0.8924 Y0.0481 I0.0081 J0.0312
G1 X0.8878 Y0.055
G2 X0.8832 Y0.0766 I0.0273 J0.0171
X0.8712 Y0.0951 I0.0194 J0.0258
G1 X0.8695 Y0.1033
G2 X0.8735 Y0.125 I0.0319 J0.0053
X0.8695 Y0.1467 I0.0279 J0.0164
G1 X0.8712 Y0.1549
G2 X0.8832 Y0.1734 I0.0314 J-0.0073
X0.8878 Y0.195 I0.0319 J0.0045
G1 X0.8924 Y0.2019
G2 X0.9106 Y0.2144 I0.0263 J-0.0187
X0.9231 Y0.2326 I0.0312 J-0.0081
G1 X0.93 Y0.2372
G2 X0.9516 Y0.2418 I0.0171 J-0.0273
X0.9701 Y0.2538 I0.0258 J-0.0194
G1 X0.9783 Y0.2555
G2 X1 Y0.2515 I0.0053 J-0.0319
X1.0217 Y0.2555 I0.0164 J-0.0279
G1 X1.0299 Y0.2538
G2 X1.0484 Y0.2418 I-0.0073 J-0.0314
X1.07 Y0.2372 I0.0045 J-0.0319
G1 X1.0769 Y0.2326
G2 X1.0894 Y0.2144 I-0.0187 J-0.0263
X1.1076 Y0.2019 I-0.0081 J-0.0312
G1 Z-0.104 F6
X1.1122 Y0.195 F18
G2 X1.1168 Y0.1734 I-0.0273 J-0.0171
X1.1288 Y0.1549 I-0.0194 J-0.0258
G1 X1.1305 Y0.1467
G2 X1.1265 Y0.125 I-0.0319 J-0.0053
X1.1305 Y0.1033 I-0.0279 J-0.0164
G1 X1.1288 Y0.0951
G2 X1.1168 Y0.0766 I-0.0314 J0.0073
X1.1122 Y0.055 I-0.0319 J-0.0045
G1 X1.1076 Y0.0481
G2 X1.0894 Y0.0356 I-0.0263 J0.0187
X1.0769 Y0.0174 I-0.0312 J0.0081
G1 X1.07 Y0.0128
G2 X1.0484 Y0.0082 I-0.0171 J0.0273
X1.0299 Y-0.0038 I-0.0258 J0.0194
G1 X1.0217 Y-0.0055
G2 X1 Y-0.0015 I-0.0053 J0.0319
X0.9783 Y-0.0055 I-0.0164 J0.0279
G1 X0.9701 Y-0.0038
G2 X0.9516 Y0.0082 I0.0073 J0.0314
X0.93 Y0.0128 I-0.0045 J0.0319
G1 X0.9231 Y0.0174
G2 X0.9106 Y0.0356 I0.0187 J0.0263
X0.8924 Y0.0481 I0.0081 J0.0312
G1 X0.8878 Y0.055
G2 X0.8832 Y0.0766 I0.0273 J0.0171
X0.8712 Y0.0951 I0.0194 J0.0258
G1 X0.8695 Y0.1033
G2 X0.8735 Y0.125 I0.0319 J0.0053
X0.8695 Y0.1467 I0.0279 J0.0164
G1 X0.8712 Y0.1549
G2 X0.8832 Y0.1734 I0.0314 J-0.0073
X0.8878 Y0.195 I0.0319 J0.0045
G1 X0.8924 Y0.2019
G2 X0.9106 Y0.2144 I0.0263 J-0.0187
X0.9231 Y0.2326 I0.0312 J-0.0081
G1 X0.93 Y0.2372
G2 X0.9516 Y0.2418 I0.0171 J-0.0273
X0.9701 Y0.2538 I0.0258 J-0.0194
G1 X0.9783 Y0.2555
G2 X1 Y0.2515 I0.0053 J-0.0319
X1.0217 Y0.2555 I0.0164 J-0.0279
G1 X1.0299 Y0.2538
G2 X1.0484 Y0.2418 I-0.0073 J-0.0314
X1.07 Y0.2372 I0.0045 J-0.0319
G1 X1.0769 Y0.2326
G2 X1.0894 Y0.2144 I-0.0187 J-0.0263
X1.1076 Y0.2019 I-0.0081 J-0.0312
G0 Z0.6

(2D Contour1 4)
X0.9237 Y0.0564
Z0.6
Z0.2
G1 Z0.0444 F6
Z-0.005
X0.9233 Y0.0599 F18
X0.923 Y0.0628
X0.9229 Y0.0657
Y0.068
X0.9231 Y0.0702
X0.9234 Y0.0725
X0.9238 Y0.0756
X0.9247 Y0.0786
X0.9252 Y0.0804
Y0.0805
X0.9249 Y0.0845
X0.9251 Y0.0885
G2 X0.9275 Y0.1021 I0.0312 J0.0014
G1 X0.9279 Y0.1029
G2 X0.9365 Y0.1145 I0.0288 J-0.0123
G1 X0.9391 Y0.1174
X0.942 Y0.12
X0.9429 Y0.1207
X0.9453 Y0.1224
X0.948 Y0.1239
X0.9493 Y0.1276
X0.9494 Y0.1279
G2 X0.9546 Y0.1443 I0.0313 J-0.0009
G1 X0.9585 Y0.1501
G2 X0.9628 Y0.1604 I0.0305 J-0.0066
G1 X0.9627 Y0.1608
Y0.1636
Y0.166
X0.9629 Y0.1683
X0.9632 Y0.1704
X0.9639 Y0.1743
X0.9651 Y0.1779
Y0.181
X0.9652 Y0.1839
X0.9655 Y0.1871
X0.9661 Y0.1903
G2 X0.9966 Y0.2282 I0.0305 J0.0067
G1 X1.0328
G2 X1.064 Y0.1954 I0 J-0.0312
G1 X1.0626 Y0.1663
G2 X1.0687 Y0.1544 I-0.0242 J-0.0198
G1 X1.069 Y0.1527
X1.0698 Y0.1486
X1.07 Y0.1445
Y0.1423
X1.0698 Y0.1392
X1.0693 Y0.1362
X1.0684 Y0.1318
X1.0683 Y0.1317
X1.069 Y0.129
X1.0695 Y0.1261
X1.0699 Y0.1218
G2 X1.0693 Y0.1118 I-0.031 J-0.0033
G1 X1.0684 Y0.1073
X1.0676 Y0.1043
X1.0665 Y0.1014
X1.0662 Y0.1006
X1.0661 Y0.0979
Y0.0972
X1.0656 Y0.0933
X1.0658 Y0.0926
X1.0667 Y0.089
X1.0671 Y0.0869
G2 X1.0669 Y0.0749 I-0.0308 J-0.0055
X1.0656 Y0.0574 I-0.0306 J-0.0066
X1.0345 Y0.0291 I-0.0311 J0.0029
G1 X0.9547
G2 X0.9238 Y0.0564 I0 J0.0312
G1 X0.9237 Z-0.01 F6
X0.9233 Y0.0599 F18
X0.923 Y0.0628
X0.9229 Y0.0657
Y0.068
X0.9231 Y0.0702
X0.9234 Y0.0725
X0.9238 Y0.0756
X0.9247 Y0.0786
X0.9252 Y0.0804
Y0.0805
X0.9249 Y0.0845
X0.9251 Y0.0885
G2 X0.9275 Y0.1021 I0.0312 J0.0014
G1 X0.9279 Y0.1029
G2 X0.9365 Y0.1145 I0.0288 J-0.0123
G1 X0.9391 Y0.1174
X0.942 Y0.12
X0.9429 Y0.1207
X0.9453 Y0.1224
X0.948 Y0.1239
X0.9493 Y0.1276
X0.9494 Y0.1279
G2 X0.9546 Y0.1443 I0.0313 J-0.0009
G1 X0.9585 Y0.1501
G2 X0.9628 Y0.1604 I0.0305 J-0.0066
G1 X0.9627 Y0.1608
Y0.1636
Y0.166
X0.9629 Y0.1683
X0.9632 Y0.1704
X0.9639 Y0.1743
X0.9651 Y0.1779
Y0.181
X0.9652 Y0.1839
X0.9655 Y0.1871
X0.9661 Y0.1903
G2 X0.9966 Y0.2282 I0.0305 J0.0067
G1 X1.0328
G2 X1.064 Y0.1954 I0 J-0.0312
G1 X1.0626 Y0.1663
G2 X1.0687 Y0.1544 I-0.0242 J-0.0198
G1 X1.069 Y0.1527
X1.0698 Y0.1486
X1.07 Y0.1445
Y0.1423
X1.0698 Y0.1392
X1.0693 Y0.1362
X1.0684 Y0.1318
X1.0683 Y0.1317
X1.069 Y0.129
X1.0695 Y0.1261
X1.0699 Y0.1218
G2 X1.0693 Y0.1118 I-0.031 J-0.0033
G1 X1.0684 Y0.1073
X1.0676 Y0.1043
X1.0665 Y0.1014
X1.0662 Y0.1006
X1.0661 Y0.0979
Y0.0972
X1.0656 Y0.0933
X1.0658 Y0.0926
X1.0667 Y0.089
X1.0671 Y0.0869
G2 X1.0669 Y0.0749 I-0.0308 J-0.0055
X1.0656 Y0.0574 I-0.0306 J-0.0066
X1.0345 Y0.0291 I-0.0311 J0.0029
G1 X0.9547
G2 X0.9238 Y0.0564 I0 J0.0312
G0 X0.9237 Z0.6

(Parallel1)
X1.0238 Y-0.004
Z0.6
Z0.0686
G1 Z-0.0137 F18
X1.0234 Z-0.0157
X1.0226 Z-0.0174
X1.0212 Z-0.0188
X1.0194 Z-0.0197
X1.0175 Z-0.02
X1.0154
X0.9846
X0.9825
X0.9818 Z-0.0199
X0.9811 Z-0.0197
X0.9805 Z-0.0194
X0.9797
X0.96
X0.959 Y-0.0037
X0.9581 Y-0.0031
X0.9576 Y-0.0021
Y-0.0009
X0.9581 Y0.0001
X0.959 Y0.0008
X0.96 Y0.001
X0.9608
X0.9614 Z-0.0197
X0.9621 Z-0.0199
X0.9628 Z-0.02
X0.983
X0.9832 Z-0.0193
X0.9846 Z-0.0177
X0.9897 Z-0.0157
X0.9918 Z-0.0153
X0.9972 Z-0.0148
X1.0117 Z-0.0155
X1.0172 Z-0.0191
X1.0174 Z-0.02
X1.0372
X1.0379 Z-0.0199
X1.0386 Z-0.0197
X1.0392 Z-0.0194
X1.04
X1.0479
X1.049 Y0.0012
X1.0499 Y0.0019
X1.0503 Y0.0029
Y0.0041
X1.0499 Y0.0051
X1.049 Y0.0058
X1.0479 Y0.006
X1.0472
X1.0465 Z-0.0197
X1.0459 Z-0.0199
X1.0452 Z-0.02
X1.0389
X1.0384 Z-0.0183
X1.036 Z-0.0155
X1.0291 Z-0.0126
X1.0199 Z-0.0114
X1.0121 Z-0.0107
X0.9889
X0.9784 Z-0.0116
X0.9708 Z-0.0128
X0.9641 Z-0.0152
X0.963 Z-0.0159
X0.9611 Z-0.0196
X0.961 Z-0.02
X0.9548
X0.9541 Z-0.0199
X0.9535 Z-0.0197
X0.9528 Z-0.0194
X0.9521
X0.9358
X0.9347 Y0.0062
X0.9339 Y0.0069
X0.9334 Y0.0079
Y0.0091
X0.9339 Y0.0101
X0.9347 Y0.0108
X0.9358 Y0.011
X0.9365
X0.9372 Z-0.0197
X0.9379 Z-0.0199
X0.9386 Z-0.02
X0.9482
X0.9483 Z-0.0196
X0.9498 Z-0.0156
X0.9551 Z-0.0127
X0.9633 Z-0.0108
X0.9753 Z-0.0101
X0.9711 Y0.0121
X0.9669 Y0.0133
X0.9627 Y0.0145
X0.9586 Y0.016
X0.9502 Z-0.0108
X0.944 Z-0.0128
X0.94 Z-0.0156
X0.9388 Z-0.0181
X0.9384 Z-0.02
X0.9285
X0.9278 Z-0.0199
X0.9271 Z-0.0197
X0.9265 Z-0.0194
X0.9258
X0.9189
X0.9178 Y0.0162
X0.9169 Y0.0169
X0.9164 Y0.0179
Y0.0191
X0.9169 Y0.0201
X0.9178 Y0.0208
X0.9189 Y0.021
X0.9196
X0.9202 Z-0.0197
X0.9209 Z-0.0199
X0.9216 Z-0.02
X0.9302
X0.9303 Z-0.019
X0.9317 Z-0.0156
X0.9348 Z-0.0129
X0.9406 Z-0.0108
X0.9472 Z-0.0101
X0.9429 Y0.0234
X0.9386 Y0.026
X0.9328 Z-0.0108
X0.9278 Z-0.0128
X0.9245 Z-0.0156
X0.9234 Z-0.0196
Z-0.02
X0.9171
X0.9164 Z-0.0199
X0.9157 Z-0.0197
X0.915 Z-0.0194
X0.9143
X0.9105
X0.9094 Y0.0262
X0.9086 Y0.0269
X0.9081 Y0.0279
Y0.0291
X0.9086 Y0.0301
X0.9094 Y0.0307
X0.9105 Y0.031
X0.9112
X0.9119 Z-0.0197
X0.9126 Z-0.0199
X0.9133 Z-0.02
X0.9173
Z-0.0191
X0.9185 Z-0.0156
X0.9212 Z-0.0128
X0.9255 Z-0.0109
X0.931 Z-0.0101
X0.9279 Y0.0335
X0.9249 Y0.036
X0.92 Z-0.0108
X0.9158 Z-0.0128
X0.913 Z-0.0157
X0.9118 Z-0.02
X0.9115
X0.9108 Z-0.0199
X0.9101 Z-0.0197
X0.9094 Z-0.0194
X0.9087
X0.8997
X0.8986 Y0.0362
X0.8978 Y0.0369
X0.8973 Y0.0379
Y0.0391
X0.8978 Y0.0401
X0.8986 Y0.0407
X0.8997 Y0.041
X0.9004
X0.9011 Z-0.0197
X0.9018 Z-0.0199
X0.9025 Z-0.02
X0.9072
Z-0.0193
X0.9082 Z-0.0156
X0.9105 Z-0.0129
X0.9143 Z-0.0109
X0.9191 Z-0.0101
X0.9144 Y0.046
X0.9101 Z-0.0108
X0.9063 Z-0.0128
X0.9038 Z-0.0158
X0.9029 Z-0.0189
X0.9027 Z-0.02
X0.8966
X0.8959 Z-0.0199
X0.8952 Z-0.0197
X0.8945 Z-0.0194
X0.8938
X0.8899
X0.8889 Y0.0462
X0.888 Y0.0469
X0.8875 Y0.0479
Y0.049
X0.888 Y0.0501
X0.8889 Y0.0507
X0.8899 Y0.051
X0.8907
X0.8913 Z-0.0197
X0.892 Z-0.0199
X0.8927 Z-0.02
X0.8991
X0.8998 Z-0.0158
X0.902 Z-0.0129
X0.9058 Z-0.0108
X0.9098 Z-0.0101
X0.9061 Y0.056
X0.9021 Z-0.0108
X0.8987 Z-0.0128
X0.8965 Z-0.0158
X0.8955 Z-0.019
X0.8954 Z-0.02
X0.8894
X0.8887 Z-0.0199
X0.888 Z-0.0197
X0.8873 Z-0.0194
X0.8866
X0.8841
X0.883 Y0.0562
X0.8822 Y0.0569
X0.8817 Y0.0579
Y0.059
X0.8822 Y0.06
X0.883 Y0.0607
X0.8841 Y0.061
X0.8848
X0.8855 Z-0.0197
X0.8862 Z-0.0199
X0.8869 Z-0.02
X0.8924
X0.8925 Z-0.0194
X0.8932 Z-0.0158
X0.8955 Z-0.0128
X0.8989 Z-0.0108
X0.9026 Z-0.0101
X0.8994 Y0.066
X0.8955 Z-0.0109
X0.8923 Z-0.0129
X0.8903 Z-0.0158
X0.8895 Z-0.02
X0.8853
X0.8846 Z-0.0199
X0.884 Z-0.0197
X0.8833 Z-0.0194
X0.8826
X0.8812
X0.8801 Y0.0662
X0.8792 Y0.0669
X0.8787 Y0.0679
Y0.069
X0.8792 Y0.07
X0.8801 Y0.0707
X0.8812 Y0.071
X0.8819
X0.8825 Z-0.0197
X0.8832 Z-0.0199
X0.8839 Z-0.02
X0.887
Z-0.0189
X0.8879 Z-0.0156
X0.89 Z-0.0128
X0.8931 Z-0.0108
X0.8968 Z-0.0101
X0.8942 Y0.076
X0.8907 Z-0.0108
X0.8876 Z-0.0127
X0.8855 Z-0.0157
X0.8847 Z-0.02
X0.8841
X0.8834 Z-0.0199
X0.8827 Z-0.0197
X0.882 Z-0.0194
X0.8813
X0.8771
X0.876 Y0.0762
X0.8751 Y0.0769
X0.8746 Y0.0779
Y0.079
X0.8751 Y0.08
X0.876 Y0.0807
X0.8771 Y0.081
X0.8778
X0.8785 Z-0.0197
X0.8791 Z-0.0199
X0.8798 Z-0.02
X0.8827
X0.8828 Z-0.0195
X0.8836 Z-0.0156
X0.8855 Z-0.0128
X0.8884 Z-0.0109
X0.892 Z-0.0101
X0.8922 Z-0.0094
X0.8921 Y0.0812 Z-0.0083
X0.8919 Y0.0819 Z-0.0073
X0.8915 Y0.0829 Z-0.0068
X0.8911 Y0.084
X0.8908 Y0.085 Z-0.0073
X0.8905 Y0.0857 Z-0.0083
X0.8904 Y0.086 Z-0.0094
Z-0.0095
X0.8903 Z-0.0101
X0.8868 Z-0.0108
X0.8839 Z-0.0128
X0.8819 Z-0.0156
X0.881 Z-0.019
Z-0.02
X0.877
X0.8763 Z-0.0199
X0.8756 Z-0.0197
X0.875 Z-0.0194
X0.8743
X0.8717
X0.8706 Y0.0862
X0.8697 Y0.0869
X0.8693 Y0.0879
Y0.089
X0.8697 Y0.09
X0.8706 Y0.0907
X0.8717 Y0.091
X0.8724
X0.8731 Z-0.0197
X0.8737 Z-0.0199
X0.8745 Z-0.02
X0.8795
X0.8802 Z-0.0158
X0.8822 Z-0.0128
X0.8851 Z-0.0108
X0.8885 Z-0.0101
X0.8871 Y0.096
X0.8835 Z-0.0109
X0.8809 Z-0.0126
X0.8789 Z-0.0158
X0.8783 Z-0.02
X0.8729
X0.8722 Z-0.0199
X0.8715 Z-0.0197
X0.8708 Z-0.0194
X0.8701
X0.8692
X0.8681 Y0.0962
X0.8672 Y0.0969
X0.8667 Y0.0979
Y0.099
X0.8672 Y0.1
X0.8681 Y0.1007
X0.8692 Y0.101
X0.8699
X0.8705 Z-0.0197
X0.8712 Z-0.0199
X0.8719 Z-0.02
X0.8771
Z-0.019
X0.8779 Z-0.0158
X0.8798 Z-0.0128
X0.8828 Z-0.0108
X0.886 Z-0.0101
X0.885 Y0.106
X0.8817 Z-0.0108
X0.8789 Z-0.0128
X0.8769 Z-0.0158
X0.8763 Z-0.0193
Z-0.02
X0.8711
X0.8704 Z-0.0199
X0.8697 Z-0.0197
X0.8691 Z-0.0194
X0.8683
X0.8672 Y0.1062
X0.8664 Y0.1069
X0.8659 Y0.1079
Y0.109
X0.8664 Y0.11
X0.8672 Y0.1107
X0.8683 Y0.111
X0.869
X0.8697 Z-0.0197
X0.8704 Z-0.0199
X0.8711 Z-0.02
X0.8755
X0.8762 Z-0.016
X0.878 Z-0.013
X0.8808 Z-0.0109
X0.8842 Z-0.0101
X0.8839 Y0.116
X0.8807 Z-0.0108
X0.8778 Z-0.0128
X0.8759 Z-0.0158
X0.8751 Z-0.019
Z-0.02
X0.8717
X0.871 Z-0.0199
X0.8703 Z-0.0197
X0.8697 Z-0.0194
X0.869
X0.8679 Y0.1162
X0.867 Y0.1169
X0.8665 Y0.1179
Y0.119
X0.867 Y0.12
X0.8679 Y0.1207
X0.869 Y0.121
X0.8699
X0.8706
X0.8713 Z-0.0197
X0.872 Z-0.0199
X0.8727 Z-0.02
X0.8748
X0.8749 Z-0.0193
X0.8756 Z-0.0156
X0.8775 Z-0.0128
X0.8803 Z-0.0108
X0.8835 Z-0.0101
X0.8833 Y0.126
X0.88 Z-0.0109
X0.8772 Z-0.013
X0.8754 Z-0.0158
X0.8747 Z-0.02
X0.8741
X0.8734 Z-0.0199
X0.8727 Z-0.0197
X0.8721 Z-0.0194
X0.8714
X0.8692
X0.8682 Y0.1262
X0.8673 Y0.1269
X0.8668 Y0.1279
Y0.129
X0.8673 Y0.13
X0.8682 Y0.1307
X0.8692 Y0.131
X0.8699
X0.8706 Z-0.0197
X0.8713 Z-0.0199
X0.872 Z-0.02
X0.8749
Z-0.0191
X0.8757 Z-0.0157
X0.8776 Z-0.0127
X0.8804 Z-0.0108
X0.8837 Z-0.0101
X0.884 Y0.136
X0.8807 Z-0.0108
X0.8779 Z-0.0128
X0.8761 Z-0.0156
X0.8752 Z-0.0196
Z-0.02
X0.8715
X0.8707 Z-0.0199
X0.8701 Z-0.0197
X0.8694 Z-0.0194
X0.8687
X0.8682
X0.8671 Y0.1362
X0.8663 Y0.1369
X0.8658 Y0.1379
Y0.139
X0.8663 Y0.14
X0.8671 Y0.1407
X0.8682 Y0.141
X0.8689
X0.8696 Z-0.0197
X0.8703 Z-0.0199
X0.871 Z-0.02
X0.8758
X0.8764 Z-0.0158
X0.8782 Z-0.013
X0.881 Z-0.0109
X0.8844 Z-0.0101
X0.8854 Y0.146
X0.8821 Z-0.0108
X0.8792 Z-0.0128
X0.8774 Z-0.0156
X0.8766 Z-0.0191
Z-0.02
X0.8713
X0.8706 Z-0.0199
X0.87 Z-0.0197
X0.8693 Z-0.0194
X0.8686
X0.8675 Y0.1462
X0.8666 Y0.1469
X0.8662 Y0.1479
Y0.149
X0.8666 Y0.15
X0.8675 Y0.1507
X0.8686 Y0.151
X0.8695
X0.8702
X0.8709 Z-0.0197
X0.8716 Z-0.0199
X0.8723 Z-0.02
X0.8775
Z-0.019
X0.8783 Z-0.0156
X0.8802 Z-0.0128
X0.8831 Z-0.0108
X0.8864 Z-0.0101
X0.8875 Y0.156
X0.8841 Z-0.0109
X0.8812 Z-0.0129
X0.8793 Z-0.0159
X0.8787 Z-0.02
X0.8734
X0.8727 Z-0.0199
X0.872 Z-0.0197
X0.8714 Z-0.0194
X0.8707
X0.8696 Y0.1562
X0.8687 Y0.1569
X0.8682 Y0.1579
Y0.159
X0.8687 Y0.16
X0.8696 Y0.1607
X0.8707 Y0.161
X0.8726
X0.8733
X0.874 Z-0.0197
X0.8746 Z-0.0199
X0.8753 Z-0.02
X0.88
X0.8802 Z-0.0187
X0.8809 Z-0.0156
X0.8828 Z-0.0128
X0.8858 Z-0.0108
X0.8892 Z-0.0101
X0.891 Y0.166
X0.8877 Z-0.0107
X0.8845 Z-0.0128
X0.8826 Z-0.0156
X0.8817 Z-0.0189
Z-0.02
X0.8781
X0.8774 Z-0.0199
X0.8767 Z-0.0197
X0.8761 Z-0.0194
X0.8754
X0.8743 Y0.1662
X0.8734 Y0.1669
X0.8729 Y0.1679
Y0.169
X0.8734 Y0.17
X0.8743 Y0.1707
X0.8754 Y0.171
X0.8791
X0.8798
X0.8805 Z-0.0197
X0.8812 Z-0.0199
X0.8819 Z-0.02
X0.8835
X0.8842 Z-0.0159
X0.8861 Z-0.013
X0.8891 Z-0.0109
X0.8928 Z-0.0101
X0.8952 Y0.176
X0.8917 Z-0.0108
X0.8885 Z-0.0128
X0.8865 Z-0.0156
X0.8856 Z-0.0194
Z-0.02
X0.884
X0.8833 Z-0.0199
X0.8826 Z-0.0197
X0.8819 Z-0.0194
X0.8812
X0.8801 Y0.1762
X0.8793 Y0.1769
X0.8788 Y0.1779
Y0.179
X0.8793 Y0.18
X0.8801 Y0.1807
X0.8812 Y0.181
X0.8817
X0.8824
X0.8831 Z-0.0197
X0.8837 Z-0.0199
X0.8844 Z-0.02
X0.8879
X0.888 Z-0.0191
X0.8889 Z-0.0156
X0.8909 Z-0.0128
X0.8943 Z-0.0107
X0.8978 Z-0.0101
X0.9005 Y0.186
X0.897 Z-0.0108
X0.8934 Z-0.0129
X0.8913 Z-0.0158
X0.8906 Z-0.02
X0.8859
X0.8852 Z-0.0199
X0.8845 Z-0.0197
X0.8838 Z-0.0194
X0.8831
X0.882 Y0.1862
X0.8812 Y0.1869
X0.8807 Y0.1879
Y0.189
X0.8812 Y0.19
X0.882 Y0.1907
X0.8831 Y0.191
X0.885
X0.8857
X0.8864 Z-0.0197
X0.887 Z-0.0199
X0.8877 Z-0.02
X0.8936
Z-0.0192
X0.8945 Z-0.0157
X0.8968 Z-0.0128
X0.9001 Z-0.0108
X0.904 Z-0.0101
X0.9075 Y0.196
X0.9033 Z-0.0109
X0.9 Z-0.0127
X0.8978 Z-0.0157
X0.897 Z-0.0187
X0.8968 Z-0.02
X0.8907
X0.89 Z-0.0199
X0.8893 Z-0.0197
X0.8886 Z-0.0194
X0.8879
X0.8868 Y0.1962
X0.886 Y0.1969
X0.8855 Y0.1979
Y0.199
X0.886 Y0.2
X0.8868 Y0.2007
X0.8879 Y0.201
X0.8913
X0.892
X0.8927 Z-0.0197
X0.8934 Z-0.0199
X0.8941 Z-0.02
X0.9005
X0.9013 Z-0.0157
X0.9037 Z-0.0128
X0.9075 Z-0.0108
X0.9116 Z-0.0101
X0.9162 Y0.206
X0.9117 Z-0.0108
X0.908 Z-0.0128
X0.9056 Z-0.0156
X0.9044 Z-0.019
Z-0.02
X0.8986
X0.8979 Z-0.0199
X0.8973 Z-0.0197
X0.8966 Z-0.0194
X0.8959
X0.8948 Y0.2062
X0.8939 Y0.2069
X0.8934 Y0.2079
Y0.209
X0.8939 Y0.21
X0.8948 Y0.2107
X0.8959 Y0.211
X0.902
X0.9027
X0.9034 Z-0.0197
X0.9041 Z-0.0199
X0.9048 Z-0.02
X0.9089
X0.9098 Z-0.0159
X0.9124 Z-0.0128
X0.9167 Z-0.0108
X0.9211 Z-0.0101
X0.9242 Y0.2135
X0.9273 Y0.216
X0.9221 Z-0.0108
X0.9179 Z-0.0128
X0.9151 Z-0.0157
X0.914 Z-0.0191
X0.9139 Z-0.02
X0.9121
X0.9114 Z-0.0199
X0.9108 Z-0.0197
X0.9101 Z-0.0194
X0.9094
X0.9083 Y0.2162
X0.9074 Y0.2169
X0.907 Y0.2179
Y0.219
X0.9074 Y0.22
X0.9083 Y0.2207
X0.9094 Y0.221
X0.9118
X0.9125
X0.9132 Z-0.0197
X0.9139 Z-0.0199
X0.9146 Z-0.02
X0.9195
X0.9206 Z-0.0158
X0.9234 Z-0.0129
X0.9284 Z-0.0108
X0.9337 Z-0.0101
X0.9378 Y0.2235
X0.9419 Y0.226
X0.9354 Z-0.0108
X0.9306 Z-0.0128
X0.9273 Z-0.0157
X0.9261 Z-0.0187
X0.9259 Z-0.02
X0.9187
X0.9179 Z-0.0199
X0.9173 Z-0.0197
X0.9166 Z-0.0194
X0.9159
X0.9148 Y0.2262
X0.9139 Y0.2269
X0.9135 Y0.2279
Y0.229
X0.9139 Y0.23
X0.9148 Y0.2307
X0.9159 Y0.231
X0.9214
X0.9221
X0.9227 Z-0.0197
X0.9234 Z-0.0199
X0.9241 Z-0.02
X0.9334
X0.9345 Z-0.0158
X0.9382 Z-0.0128
X0.9443 Z-0.0108
X0.9516 Z-0.0101
X0.952 Z-0.0093
X0.9521 Z-0.0084
X0.9524 Y0.2311 Z-0.0065
X0.9531 Y0.2314 Z-0.0047
X0.9543 Y0.2318 Z-0.0033
X0.9558 Y0.2324 Z-0.0022
X0.9575 Y0.2331 Z-0.0017
X0.9594 Y0.2338
X0.9611 Y0.2345 Z-0.0022
X0.9626 Y0.2351 Z-0.0033
X0.9638 Y0.2356 Z-0.0047
X0.9645 Y0.2359 Z-0.0065
X0.9648 Y0.236 Z-0.0084
X0.9647 Z-0.0093
X0.9643 Z-0.0101
X0.9549 Z-0.0108
X0.9478 Z-0.0127
X0.9438 Z-0.0156
X0.9419 Z-0.019
Z-0.02
X0.9316
X0.9297 Z-0.0197
X0.9279 Z-0.0188
X0.9265 Z-0.0174
X0.9256 Z-0.0157
X0.9253 Z-0.0137
G0 Z0.2
X1.0238 Y0.011
Z0.0729
G1 Z-0.0068 F18
X1.024 Z-0.0085
X1.0247 Z-0.0101
X1.0362 Z-0.0107
X1.0448 Z-0.0126
X1.0496 Z-0.0155
X1.0516 Z-0.0186
X1.0518 Z-0.02
X1.0614
X1.0621 Z-0.0199
X1.0628 Z-0.0197
X1.0635 Z-0.0194
X1.0642
X1.0742
X1.0753 Y0.0112
X1.0762 Y0.0119
X1.0767 Y0.0129
Y0.0141
X1.0762 Y0.0151
X1.0753 Y0.0158
X1.0742 Y0.016
X1.0735
X1.0729 Z-0.0197
X1.0722 Z-0.0199
X1.0715 Z-0.02
X1.0616
X1.0609 Z-0.0173
X1.06 Z-0.0155
X1.0559 Z-0.0126
X1.0486 Z-0.0106
X1.0414 Z-0.0101
X1.0471 Y0.0185
X1.0528 Y0.021
X1.0588 Z-0.0107
X1.0645 Z-0.0126
X1.0672 Z-0.0146
X1.0685 Z-0.0158
X1.0698 Z-0.02
X1.0784
X1.0791 Z-0.0199
X1.0798 Z-0.0197
X1.0804 Z-0.0194
X1.0811
X1.0857
X1.0867 Y0.0212
X1.0876 Y0.0219
X1.0881 Y0.0229
Y0.0241
X1.0876 Y0.0251
X1.0867 Y0.0257
X1.0857 Y0.026
X1.085
X1.0843 Z-0.0197
X1.0836 Z-0.0199
X1.0829 Z-0.02
X1.0767
X1.0763 Z-0.018
X1.0752 Z-0.0154
X1.072 Z-0.0125
X1.0667 Z-0.0106
X1.0614 Z-0.0101
X1.061 Z-0.0093
X1.0609 Z-0.0085
X1.0611 Y0.0261 Z-0.0069
X1.0618 Y0.0266 Z-0.0055
X1.0628 Y0.0272 Z-0.0045
X1.064 Y0.0281 Z-0.004
X1.0654 Y0.0289
X1.0666 Y0.0297 Z-0.0045
X1.0676 Y0.0304 Z-0.0055
X1.0683 Y0.0308 Z-0.0069
X1.0685 Y0.031 Z-0.0085
X1.0687 Z-0.0093
X1.069 Z-0.0101
X1.0735 Z-0.0107
X1.0784 Z-0.0126
X1.0817 Z-0.0157
X1.0826 Z-0.02
X1.0867
X1.0874 Z-0.0199
X1.0881 Z-0.0197
X1.0888 Z-0.0194
X1.0895
X1.0913
X1.0924 Y0.0312
X1.0932 Y0.0319
X1.0937 Y0.0329
Y0.0341
X1.0932 Y0.0351
X1.0924 Y0.0357
X1.0913 Y0.036
X1.0906
X1.0899 Z-0.0197
X1.0892 Z-0.0199
X1.0885 Z-0.02
X1.0881
X1.0873 Z-0.0166
X1.0866 Z-0.0152
X1.0842 Z-0.0126
X1.0798 Z-0.0107
X1.0751 Z-0.0101
X1.0748 Z-0.0093
X1.0747 Z-0.0084
X1.0749 Y0.0362 Z-0.007
X1.0755 Y0.0367 Z-0.0057
X1.0765 Y0.0375 Z-0.0049
X1.0776 Y0.0385 Z-0.0046
X1.0787 Y0.0395 Z-0.0049
X1.0796 Y0.0403 Z-0.0057
X1.0802 Y0.0408 Z-0.007
X1.0805 Y0.041 Z-0.0084
Z-0.0085
X1.0806 Z-0.0093
X1.0809 Z-0.0101
X1.0849 Z-0.0107
X1.089 Z-0.0126
X1.0917 Z-0.0155
X1.0921 Z-0.0166
X1.0928 Z-0.02
X1.0975
X1.0982 Z-0.0199
X1.0989 Z-0.0197
X1.0996 Z-0.0194
X1.1003
X1.1062
X1.1073 Y0.0412
X1.1081 Y0.0419
X1.1086 Y0.0429
Y0.0441
X1.1081 Y0.0451
X1.1073 Y0.0457
X1.1062 Y0.046
X1.1055
X1.1048 Z-0.0197
X1.1041 Z-0.0199
X1.1034 Z-0.02
X1.0972
X1.0961 Z-0.0154
X1.0933 Z-0.0124
X1.0894 Z-0.0106
X1.0856 Z-0.0101
X1.0902 Y0.051
X1.0938 Z-0.0107
X1.0973 Z-0.0125
X1.0998 Z-0.0153
X1.1007 Z-0.0179
X1.101 Z-0.02
X1.1073
X1.108 Z-0.0199
X1.1087 Z-0.0197
X1.1093 Z-0.0194
X1.1101
X1.1134
X1.1144 Y0.0512
X1.1153 Y0.0519
X1.1158 Y0.0529
Y0.054
X1.1153 Y0.0551
X1.1144 Y0.0557
X1.1134 Y0.056
X1.1127
X1.112 Z-0.0197
X1.1113 Z-0.0199
X1.1106 Z-0.02
X1.1045
X1.1036 Z-0.0154
X1.101 Z-0.0125
X1.0975 Z-0.0107
X1.0939 Z-0.0101
X1.0974 Y0.061
X1.1007 Z-0.0106
X1.1042 Z-0.0125
X1.1065 Z-0.0152
X1.1071 Z-0.0168
X1.1076 Z-0.02
X1.1131
X1.1138 Z-0.0199
X1.1145 Z-0.0197
X1.1152 Z-0.0194
X1.1159
X1.1174
X1.1185 Y0.0612
X1.1194 Y0.0619
X1.1198 Y0.0629
Y0.064
X1.1194 Y0.065
X1.1185 Y0.0657
X1.1174 Y0.066
X1.1167
X1.116 Z-0.0197
X1.1154 Z-0.0199
X1.1147 Z-0.02
X1.1105
X1.1098 Z-0.0165
X1.1093 Z-0.0153
X1.1072 Z-0.0126
X1.1037 Z-0.0106
X1.1006 Z-0.0101
X1.1032 Y0.071
X1.1065 Z-0.0106
X1.1097 Z-0.0124
X1.1121 Z-0.0154
X1.1129 Z-0.02
X1.1161
X1.1168 Z-0.0199
X1.1174 Z-0.0197
X1.1181 Z-0.0194
X1.1188
X1.1199 Y0.0712
X1.1208 Y0.0719
X1.1213 Y0.0729
Y0.074
X1.1208 Y0.075
X1.1199 Y0.0757
X1.1188 Y0.076
X1.1187
X1.118
X1.1173 Z-0.0197
X1.1166 Z-0.0199
X1.1159 Z-0.02
X1.1153
X1.1146 Z-0.0164
X1.114 Z-0.0151
X1.1122 Z-0.0126
X1.109 Z-0.0107
X1.1058 Z-0.0101
X1.1079 Y0.081
X1.1109 Z-0.0106
X1.1142 Z-0.0126
X1.1161 Z-0.0152
X1.1166 Z-0.0166
X1.1172 Z-0.02
X1.1202
X1.1209 Z-0.0199
X1.1215 Z-0.0197
X1.1222 Z-0.0194
X1.1229
X1.1257
X1.1268 Y0.0812
X1.1277 Y0.0819
X1.1282 Y0.0829
Y0.084
X1.1277 Y0.085
X1.1268 Y0.0857
X1.1257 Y0.086
X1.125
X1.1244 Z-0.0197
X1.1237 Z-0.0199
X1.123 Z-0.02
X1.119
X1.1182 Z-0.0154
X1.1159 Z-0.0124
X1.1127 Z-0.0106
X1.1097 Z-0.0101
X1.1096 Z-0.0095
Z-0.0094
X1.1097 Y0.0862 Z-0.0082
X1.1099 Y0.0869 Z-0.0073
X1.1103 Y0.0879 Z-0.0068
X1.1107 Y0.089
X1.111 Y0.09 Z-0.0073
X1.1113 Y0.0907 Z-0.0082
Y0.091 Z-0.0094
X1.1116 Z-0.0101
X1.1146 Z-0.0107
X1.1176 Z-0.0126
X1.1195 Z-0.0153
X1.1198 Z-0.0163
X1.1205 Z-0.02
X1.1255
X1.1262 Z-0.0199
X1.1269 Z-0.0197
X1.1276 Z-0.0194
X1.1283
X1.1299
X1.1309 Y0.0912
X1.1318 Y0.0919
X1.1323 Y0.0929
Y0.094
X1.1318 Y0.095
X1.1309 Y0.0957
X1.1299 Y0.096
X1.1292
X1.1285 Z-0.0197
X1.1278 Z-0.0199
X1.1271 Z-0.02
X1.1218
X1.1212 Z-0.0162
X1.1208 Z-0.0153
X1.1189 Z-0.0126
X1.1159 Z-0.0107
X1.1129 Z-0.0101
X1.114 Y0.101
X1.1169 Z-0.0106
X1.1199 Z-0.0124
X1.1221 Z-0.0154
X1.1229 Z-0.0199
X1.1281 Z-0.02
X1.1288 Z-0.0199
X1.1295 Z-0.0197
X1.1302 Z-0.0194
X1.1309
X1.1317
X1.1327 Y0.1012
X1.1336 Y0.1019
X1.1341 Y0.1029
Y0.104
X1.1336 Y0.105
X1.1327 Y0.1057
X1.1317 Y0.106
X1.1309
X1.1303 Z-0.0197
X1.1296 Z-0.0199
X1.1289 Z-0.02
X1.1238
X1.1231 Z-0.0162
X1.1227 Z-0.0152
X1.1209 Z-0.0126
X1.1179 Z-0.0107
X1.115 Z-0.0101
X1.1158 Y0.111
X1.1186 Z-0.0107
X1.1216 Z-0.0126
X1.1233 Z-0.0151
X1.1238 Z-0.0165
X1.1245 Z-0.02
X1.1289
X1.1296 Z-0.0199
X1.1303 Z-0.0197
X1.131 Z-0.0194
X1.1317
X1.1328 Y0.1112
X1.1336 Y0.1119
X1.1341 Y0.1129
Y0.114
X1.1336 Y0.115
X1.1328 Y0.1157
X1.1317 Y0.116
X1.131
X1.1303
X1.1297 Z-0.0197
X1.129 Z-0.0199
X1.1283 Z-0.02
X1.1248
X1.1241 Z-0.0154
X1.122 Z-0.0125
X1.1192 Z-0.0106
X1.1161 Z-0.0101
X1.1165 Y0.121
X1.1194 Z-0.0107
X1.1222 Z-0.0125
X1.123 Z-0.0136
X1.1245 Z-0.016
X1.1251 Z-0.02
X1.1273
X1.128 Z-0.0199
X1.1287 Z-0.0197
X1.1294 Z-0.0194
X1.1301
X1.1312 Y0.1212
X1.132 Y0.1219
X1.1325 Y0.1229
Y0.124
X1.132 Y0.125
X1.1312 Y0.1257
X1.1301 Y0.126
X1.1286
X1.1279
X1.1272 Z-0.0197
X1.1266 Z-0.0199
X1.1259 Z-0.02
X1.1252
X1.1247 Z-0.0167
X1.1241 Z-0.0151
X1.1222 Z-0.0125
X1.1194 Z-0.0107
X1.1167 Z-0.0101
X1.1163 Y0.131
X1.1193 Z-0.0106
X1.1221 Z-0.0124
X1.1243 Z-0.0154
X1.125 Z-0.02
X1.128
X1.1287 Z-0.0199
X1.1294 Z-0.0197
X1.1301 Z-0.0194
X1.1308
X1.1313
X1.1324 Y0.1312
X1.1333 Y0.1319
X1.1337 Y0.1329
Y0.134
X1.1333 Y0.135
X1.1324 Y0.1357
X1.1313 Y0.136
X1.1306
X1.1299 Z-0.0197
X1.1293 Z-0.0199
X1.1285 Z-0.02
X1.1247
X1.1239 Z-0.0155
X1.122 Z-0.0126
X1.119 Z-0.0107
X1.116 Z-0.0101
X1.1156 Y0.141
X1.1183 Z-0.0107
X1.1212 Z-0.0125
X1.1232 Z-0.0153
X1.124 Z-0.0182
X1.1242 Z-0.02
X1.129
X1.1297 Z-0.0199
X1.1304 Z-0.0197
X1.1311 Z-0.0194
X1.1318
X1.1329 Y0.1412
X1.1337 Y0.1419
X1.1342 Y0.1429
Y0.144
X1.1337 Y0.145
X1.1329 Y0.1457
X1.1318 Y0.146
X1.1314
X1.1307
X1.13 Z-0.0197
X1.1294 Z-0.0199
X1.1287 Z-0.02
X1.1234
X1.1226 Z-0.0154
X1.1206 Z-0.0125
X1.1175 Z-0.0106
X1.1146 Z-0.0101
X1.1136 Y0.151
X1.1167 Z-0.0107
X1.1197 Z-0.0126
X1.1217 Z-0.0155
X1.1225 Z-0.02
X1.1277
X1.1284 Z-0.0199
X1.1291 Z-0.0197
X1.1298 Z-0.0194
X1.1305
X1.1316 Y0.1512
X1.1324 Y0.1519
X1.1329 Y0.1529
Y0.154
X1.1324 Y0.155
X1.1316 Y0.1557
X1.1305 Y0.156
X1.1293
X1.1286
X1.128 Z-0.0197
X1.1273 Z-0.0199
X1.1266 Z-0.02
X1.1214
X1.121 Z-0.0175
X1.1204 Z-0.0154
X1.1184 Z-0.0126
X1.1154 Z-0.0107
X1.1125 Z-0.0101
X1.1108 Y0.161
X1.1141 Z-0.0107
X1.1171 Z-0.0126
X1.1191 Z-0.0155
X1.12 Z-0.02
X1.1247
X1.1254 Z-0.0199
X1.126 Z-0.0197
X1.1267 Z-0.0194
X1.1274
X1.1285 Y0.1612
X1.1294 Y0.1619
X1.1299 Y0.1629
Y0.164
X1.1294 Y0.165
X1.1285 Y0.1657
X1.1274 Y0.166
X1.1246
X1.1239
X1.1233 Z-0.0197
X1.1226 Z-0.0199
X1.1219 Z-0.02
X1.1183
X1.1175 Z-0.0154
X1.1155 Z-0.0126
X1.1123 Z-0.0107
X1.1091 Z-0.0101
X1.1072 Y0.171
X1.1102 Z-0.0107
X1.1134 Z-0.0126
X1.1154 Z-0.0153
X1.1161 Z-0.0175
X1.1165 Z-0.02
X1.1181
X1.1189 Z-0.0199
X1.1195 Z-0.0197
X1.1202 Z-0.0194
X1.1209
X1.122 Y0.1712
X1.1229 Y0.1719
X1.1233 Y0.1729
Y0.174
X1.1229 Y0.175
X1.122 Y0.1757
X1.1209 Y0.176
X1.1188
X1.1181
X1.1174 Z-0.0197
X1.1167 Z-0.0199
X1.116 Z-0.02
X1.1143
X1.1136 Z-0.0157
X1.1114 Z-0.0126
X1.1079 Z-0.0106
X1.1048 Z-0.0101
X1.1022 Y0.181
X1.1054 Z-0.0106
X1.1089 Z-0.0126
X1.1111 Z-0.0154
X1.112 Z-0.0199
X1.1156 Z-0.02
X1.1163 Z-0.0199
X1.117 Z-0.0197
X1.1177 Z-0.0194
X1.1184
X1.1195 Y0.1812
X1.1203 Y0.1819
X1.1208 Y0.1829
Y0.184
X1.1203 Y0.185
X1.1195 Y0.1857
X1.1184 Y0.186
X1.1169
X1.1162
X1.1155 Z-0.0197
X1.1148 Z-0.0199
X1.1141 Z-0.02
X1.1094
X1.1091 Z-0.0179
X1.1084 Z-0.0155
X1.1061 Z-0.0126
X1.1027 Z-0.0107
X1.0995 Z-0.0101
X1.096 Y0.191
X1.0994 Z-0.0106
X1.103 Z-0.0124
X1.1056 Z-0.0155
X1.1064 Z-0.02
X1.1123
X1.113 Z-0.0199
X1.1136 Z-0.0197
X1.1143 Z-0.0194
X1.115
X1.1161 Y0.1912
X1.117 Y0.1919
X1.1175 Y0.1929
Y0.194
X1.117 Y0.195
X1.1161 Y0.1957
X1.115 Y0.196
X1.1121
X1.1114
X1.1107 Z-0.0197
X1.11 Z-0.0199
X1.1093 Z-0.02
X1.1032
X1.1022 Z-0.0155
X1.0997 Z-0.0126
X1.096 Z-0.0106
X1.0925 Z-0.0101
X1.0884 Y0.201
X1.0923 Z-0.0107
X1.0958 Z-0.0125
X1.0983 Z-0.0153
X1.0992 Z-0.0177
X1.0996 Z-0.02
X1.1059
X1.1066 Z-0.0199
X1.1073 Z-0.0197
X1.108 Z-0.0194
X1.1087
X1.1097 Y0.2012
X1.1106 Y0.2019
X1.1111 Y0.2029
Y0.204
X1.1106 Y0.205
X1.1097 Y0.2057
X1.1087 Y0.206
X1.1041
X1.1034
X1.1027 Z-0.0197
X1.1021 Z-0.0199
X1.1014 Z-0.02
X1.0955
X1.0945 Z-0.0154
X1.0917 Z-0.0125
X1.0879 Z-0.0107
X1.0837 Z-0.0101
X1.0789 Y0.211
X1.083 Z-0.0107
X1.0871 Z-0.0126
X1.0898 Z-0.0154
X1.0907 Z-0.0178
X1.0911 Z-0.02
X1.0952
X1.0959 Z-0.0199
X1.0966 Z-0.0197
X1.0973 Z-0.0194
X1.098
X1.099 Y0.2112
X1.0999 Y0.2119
X1.1004 Y0.2129
Y0.214
X1.0999 Y0.215
X1.099 Y0.2157
X1.098 Y0.216
X1.0906
X1.0899
X1.0892 Z-0.0197
X1.0886 Z-0.0199
X1.0879 Z-0.02
X1.086
X1.085 Z-0.0155
X1.0819 Z-0.0125
X1.0774 Z-0.0107
X1.0727 Z-0.0101
X1.0724 Z-0.0093
X1.0723 Z-0.0084
X1.072 Y0.2162 Z-0.0069
X1.0713 Y0.2167 Z-0.0056
X1.0703 Y0.2175 Z-0.0047
X1.0691 Y0.2185 Z-0.0044
X1.0678 Y0.2194 Z-0.0047
X1.0668 Y0.2202 Z-0.0056
X1.0661 Y0.2208 Z-0.0069
X1.0658 Y0.221 Z-0.0084
X1.066 Z-0.0093
X1.0663 Z-0.0101
X1.0711 Z-0.0107
X1.076 Z-0.0126
X1.0791 Z-0.0155
X1.0799 Z-0.0173
X1.0805 Z-0.02
X1.0854
X1.0861 Z-0.0199
X1.0868 Z-0.0197
X1.0875 Z-0.0194
X1.0882
X1.0893 Y0.2212
X1.0901 Y0.2219
X1.0906 Y0.2229
Y0.224
X1.0901 Y0.225
X1.0893 Y0.2257
X1.0882 Y0.226
X1.0841
X1.0834
X1.0827 Z-0.0197
X1.0821 Z-0.0199
X1.0813 Z-0.02
X1.074
X1.0729 Z-0.0156
X1.0693 Z-0.0125
X1.0638 Z-0.0107
X1.0581 Z-0.0101
X1.0578 Z-0.0093
X1.0577 Z-0.0085
Z-0.0084
X1.0574 Y0.2261 Z-0.0067
X1.0567 Y0.2264 Z-0.0052
X1.0557 Y0.227 Z-0.004
X1.0543 Y0.2277 Z-0.0032
X1.0528 Y0.2285 Z-0.003
X1.0513 Y0.2292 Z-0.0032
X1.0499 Y0.2299 Z-0.004
X1.0488 Y0.2305 Z-0.0052
X1.0481 Y0.2308 Z-0.0067
X1.0479 Y0.231 Z-0.0084
X1.048 Z-0.0093
X1.0484 Z-0.0101
X1.0554 Z-0.0107
X1.0612 Z-0.0126
X1.065 Z-0.0155
X1.0663 Z-0.018
X1.0668 Z-0.02
X1.0759
X1.0766 Z-0.0199
X1.0773 Z-0.0197
X1.0779 Z-0.0194
X1.0786
X1.0797 Y0.2312
X1.0806 Y0.2319
X1.0811 Y0.2329
Y0.234
X1.0806 Y0.235
X1.0797 Y0.2357
X1.0786 Y0.236
X1.0712
X1.0705
X1.0698 Z-0.0197
X1.0691 Z-0.0199
X1.0684 Z-0.02
X1.0581
X1.0565 Z-0.0155
X1.0518 Z-0.0126
X1.0442 Z-0.0107
X1.0356 Z-0.0101
X1.0353 Z-0.0093
X1.0352 Z-0.0084
Z-0.0083
X1.035 Z-0.0062
X1.0343 Y0.2361 Z-0.0042
X1.0332 Y0.2364 Z-0.0024
X1.0317 Y0.2367 Z-0.0009
X1.03 Y0.237 Z0.0002
X1.028 Y0.2374 Z0.0009
X1.026 Y0.2378 Z0.0011
X1.0198 Y0.2391
X1.0178 Y0.2395 Z0.0009
X1.0159 Y0.2399 Z0.0002
X1.0141 Y0.2403 Z-0.0009
X1.0127 Y0.2405 Z-0.0024
X1.0116 Y0.2408 Z-0.0042
X1.0109 Y0.2409 Z-0.0062
X1.0107 Y0.241 Z-0.0083
X1.0109 Z-0.0093
X1.0116 Z-0.0101
X1.0293 Z-0.0107
X1.0395 Z-0.0126
X1.0451 Z-0.0154
X1.0459 Z-0.0165
X1.0473 Z-0.0199
X1.0546 Z-0.02
X1.0558 Z-0.0198
X1.0569 Z-0.0191
X1.0576 Z-0.0181
X1.0578 Z-0.0169
Z-0.0084
X1.0576 Z-0.0072
X1.0569 Z-0.0062
X1.0559 Z-0.0055
X1.0547 Z-0.0053
X0.992
X0.9908 Z-0.0055
X0.9898 Z-0.0062
X0.9891 Z-0.0072
X0.9889 Z-0.0084
X0.9888 Z-0.0093
X0.9884 Z-0.0101
X0.971 Z-0.0107
X0.9632 Z-0.012
X0.9603 Z-0.0128
X0.955 Z-0.0156
X0.9534 Z-0.018
X0.9526 Z-0.02
X0.9454
X0.9447 Z-0.0199
X0.944 Z-0.0197
X0.9433 Z-0.0194
X0.9426
X0.9415 Y0.2412
X0.9407 Y0.2419
X0.9402 Y0.2429
Y0.244
X0.9407 Y0.245
X0.9415 Y0.2457
X0.9426 Y0.246
X0.9544
X0.9551
X0.9558 Z-0.0197
X0.9565 Z-0.0199
X0.9572 Z-0.02
X0.9677
Z-0.0195
X0.9686 Z-0.0178
X0.971 Z-0.0156
X0.9798 Z-0.0127
X0.9923 Z-0.0118
X0.9994 Z-0.0116
X1.0098 Z-0.0118
X1.0185 Z-0.0126
X1.0245 Z-0.014
X1.0296 Z-0.0156
X1.032 Z-0.0189
X1.0322 Z-0.02
X1.0428
X1.0435 Z-0.0199
X1.0442 Z-0.0197
X1.0449 Z-0.0194
X1.0456
X1.0467 Y0.2462
X1.0475 Y0.2469
X1.048 Y0.2479
Y0.249
X1.0475 Y0.25
X1.0467 Y0.2507
X1.0456 Y0.251
X1.0357
X1.035
X1.0343 Z-0.0197
X1.0337 Z-0.0199
X1.033 Z-0.02
X0.967
X0.9651 Z-0.0197
X0.9634 Z-0.0188
X0.962 Z-0.0174
X0.9611 Z-0.0157
X0.9608 Z-0.0137
G0 Z0.6
M5
G28 G91 Z0
G90

(2D Contour2)
T4 M6
S2000 M3
G54
M7
G0 X0.9454 Y0.0579
Z0.6
Z0.2
G1 Z0.0404 F2
Z0.0002
X0.9455 Z-0.0004 F13
X0.946 Y0.058 Z-0.0008
X0.9465 Y0.0581 Z-0.001
X0.9477 Y0.0582
X0.9483 Y0.0585
X0.9487 Y0.0589
X0.9488 Y0.0596
X0.9483 Y0.0631 F4
Y0.0637
X0.9482 Y0.0666
Y0.0675
X0.9485 Y0.0698
X0.9487 Y0.0709
X0.9493 Y0.0727
X0.9497 Y0.0737
X0.9503 Y0.0746
X0.9528 Y0.0778
X0.9524 Y0.0789
X0.9513 Y0.0807
X0.9508 Y0.0817
X0.9505 Y0.0827
X0.9503 Y0.0838
X0.9502 Y0.0855
X0.9506 Y0.0872
X0.9507 Y0.0875
Y0.0876
X0.9505 Y0.0885
X0.9504 Y0.0904
X0.9508 Y0.0922
X0.9512 Y0.093
X0.9522 Y0.0946
X0.9537 Y0.0958
X0.9544 Y0.0963
X0.955 Y0.0966
X0.9551
X0.9553 Y0.0969
X0.9558 Y0.0979
X0.9565 Y0.0991
X0.9575 Y0.1001
X0.9583 Y0.1007
X0.9595 Y0.1014
X0.9609 Y0.1018
X0.9623 Y0.1019
X0.9624 Y0.102
X0.9634 Y0.1036
X0.9648 Y0.1048
X0.9653 Y0.1051
X0.967 Y0.1057
X0.9687 Y0.1058
X0.9697
X0.9713 Y0.1061
X0.9719 Y0.1063
X0.9718 Y0.1069
X0.9714 Y0.1106
Y0.1122
X0.972 Y0.116
X0.9725 Y0.1175
X0.9738 Y0.1205
X0.974 Y0.1209
X0.9749 Y0.1227
X0.9751 Y0.1236
X0.9747 Y0.1262
Y0.1276
X0.975 Y0.129
X0.9757 Y0.1303
X0.983 Y0.1414
Y0.1435
X0.9833 Y0.1452
X0.984 Y0.1468
X0.9852 Y0.1481
X0.9866 Y0.149
X0.9873 Y0.1493
X0.9875 Y0.1497
X0.9879 Y0.1509
X0.9882 Y0.1528
X0.9883 Y0.1552
X0.988 Y0.1614
Y0.1615
X0.9879 Y0.1643
X0.988 Y0.1652
X0.9882 Y0.1673
X0.9885 Y0.1685
X0.989 Y0.1696
X0.9904 Y0.172
X0.9906 Y0.1723
X0.9907 Y0.1731
X0.9903 Y0.1793
Y0.1799
X0.9904 Y0.1828
X0.9905 Y0.1838
X0.9908 Y0.1847
X0.9915 Y0.1866
X0.9923 Y0.1879
Y0.1885
X0.9924 Y0.1895
X0.9926 Y0.1908
X0.9931 Y0.192
X0.9925 Y0.1926
G2 X0.9966 Y0.203 I0.0041 J0.0044
G1 X1.0328
X1.0347 Y0.2027
X1.0364 Y0.2018
X1.0377 Y0.2004
X1.0386 Y0.1986
X1.0388 Y0.1967
X1.0366 Y0.1533
X1.037
X1.0385 Y0.1532
X1.04 Y0.1527
X1.0413 Y0.1519
X1.0422 Y0.1511
X1.0434 Y0.1497
X1.0442 Y0.148
X1.0446 Y0.1464
X1.0448 Y0.1448
X1.0447 Y0.1426
X1.0446 Y0.1415
X1.0437 Y0.1371
X1.0432 Y0.1358
X1.0425 Y0.1343
X1.0423 Y0.1338
Y0.1286
X1.0426 Y0.128
X1.0431 Y0.1271
X1.044 Y0.125
X1.0444 Y0.1234
X1.0448 Y0.1191
X1.0447 Y0.1172
X1.0437 Y0.1127
X1.0434 Y0.1116
X1.0414 Y0.1071
X1.0413 Y0.1068
X1.0396 Y0.1035
X1.0404 Y0.1022
X1.0408 Y0.1008
X1.0409 Y0.0994
Y0.0986
X1.0406 Y0.0972
X1.04 Y0.0958
X1.0395 Y0.0949
X1.0386 Y0.0938
X1.039 Y0.0931
X1.0391 Y0.0927
X1.0405 Y0.089
X1.0407 Y0.0886
X1.0417 Y0.0853
X1.0418 Y0.0846
X1.0422 Y0.0825
X1.0423 Y0.0811
X1.0421 Y0.0798
X1.0402 Y0.0732
X1.0412 Y0.0718
X1.042 Y0.0703
X1.0423 Y0.0687
X1.0422 Y0.0671
X1.0416 Y0.0656
X1.0407 Y0.0643
X1.0398 Y0.0632
X1.04 Y0.0626
G2 X1.0345 Y0.0543 I-0.0055 J-0.0023
G1 X0.9547
X0.953 Y0.0546
X0.9514 Y0.0553
X0.9502 Y0.0564
X0.9492 Y0.0579
X0.9488 Y0.0596
X0.9485 Y0.0601 F13
X0.948 Y0.0605
X0.9474 Y0.0606
X0.9462 Y0.0604
X0.9456 Z-0.0008
X0.9452 Y0.0603 Z-0.0004
X0.945 Z0.0002
G0 Z0.2
X0.9454 Y0.0579
G1 Z0.0394 F2
Z-0.0008
X0.9455 Z-0.0014 F13
X0.946 Y0.058 Z-0.0018
X0.9465 Y0.0581 Z-0.002
X0.9477 Y0.0582
X0.9483 Y0.0585
X0.9487 Y0.0589
X0.9488 Y0.0596
X0.9483 Y0.0631 F4
Y0.0637
X0.9482 Y0.0666
Y0.0675
X0.9485 Y0.0698
X0.9487 Y0.0709
X0.9493 Y0.0727
X0.9497 Y0.0737
X0.9503 Y0.0746
X0.9528 Y0.0778
X0.9524 Y0.0789
X0.9513 Y0.0807
X0.9508 Y0.0817
X0.9505 Y0.0827
X0.9503 Y0.0838
X0.9502 Y0.0855
X0.9506 Y0.0872
X0.9507 Y0.0875
Y0.0876
X0.9505 Y0.0885
X0.9504 Y0.0904
X0.9508 Y0.0922
X0.9512 Y0.093
X0.9522 Y0.0946
X0.9537 Y0.0958
X0.9544 Y0.0963
X0.955 Y0.0966
X0.9551
X0.9553 Y0.0969
X0.9558 Y0.0979
X0.9565 Y0.0991
X0.9575 Y0.1001
X0.9583 Y0.1007
X0.9595 Y0.1014
X0.9609 Y0.1018
X0.9623 Y0.1019
X0.9624 Y0.102
X0.9634 Y0.1036
X0.9648 Y0.1048
X0.9653 Y0.1051
X0.967 Y0.1057
X0.9687 Y0.1058
X0.9697
X0.9713 Y0.1061
X0.9719 Y0.1063
X0.9718 Y0.1069
X0.9714 Y0.1106
Y0.1122
X0.972 Y0.116
X0.9725 Y0.1175
X0.9738 Y0.1205
X0.974 Y0.1209
X0.9749 Y0.1227
X0.9751 Y0.1236
X0.9747 Y0.1262
Y0.1276
X0.975 Y0.129
X0.9757 Y0.1303
X0.983 Y0.1414
Y0.1435
X0.9833 Y0.1452
X0.984 Y0.1468
X0.9852 Y0.1481
X0.9866 Y0.149
X0.9873 Y0.1493
X0.9875 Y0.1497
X0.9879 Y0.1509
X0.9882 Y0.1528
X0.9883 Y0.1552
X0.988 Y0.1614
Y0.1615
X0.9879 Y0.1643
X0.988 Y0.1652
X0.9882 Y0.1673
X0.9885 Y0.1685
X0.989 Y0.1696
X0.9904 Y0.172
X0.9906 Y0.1723
X0.9907 Y0.1731
X0.9903 Y0.1793
Y0.1799
X0.9904 Y0.1828
X0.9905 Y0.1838
X0.9908 Y0.1847
X0.9915 Y0.1866
X0.9923 Y0.1879
Y0.1885
X0.9924 Y0.1895
X0.9926 Y0.1908
X0.9931 Y0.192
X0.9925 Y0.1926
G2 X0.9966 Y0.203 I0.0041 J0.0044
G1 X1.0328
X1.0347 Y0.2027
X1.0364 Y0.2018
X1.0377 Y0.2004
X1.0386 Y0.1986
X1.0388 Y0.1967
X1.0366 Y0.1533
X1.037
X1.0385 Y0.1532
X1.04 Y0.1527
X1.0413 Y0.1519
X1.0422 Y0.1511
X1.0434 Y0.1497
X1.0442 Y0.148
X1.0446 Y0.1464
X1.0448 Y0.1448
X1.0447 Y0.1426
X1.0446 Y0.1415
X1.0437 Y0.1371
X1.0432 Y0.1358
X1.0425 Y0.1343
X1.0423 Y0.1338
Y0.1286
X1.0426 Y0.128
X1.0431 Y0.1271
X1.044 Y0.125
X1.0444 Y0.1234
X1.0448 Y0.1191
X1.0447 Y0.1172
X1.0437 Y0.1127
X1.0434 Y0.1116
X1.0414 Y0.1071
X1.0413 Y0.1068
X1.0396 Y0.1035
X1.0404 Y0.1022
X1.0408 Y0.1008
X1.0409 Y0.0994
Y0.0986
X1.0406 Y0.0972
X1.04 Y0.0958
X1.0395 Y0.0949
X1.0386 Y0.0938
X1.039 Y0.0931
X1.0391 Y0.0927
X1.0405 Y0.089
X1.0407 Y0.0886
X1.0417 Y0.0853
X1.0418 Y0.0846
X1.0422 Y0.0825
X1.0423 Y0.0811
X1.0421 Y0.0798
X1.0402 Y0.0732
X1.0412 Y0.0718
X1.042 Y0.0703
X1.0423 Y0.0687
X1.0422 Y0.0671
X1.0416 Y0.0656
X1.0407 Y0.0643
X1.0398 Y0.0632
X1.04 Y0.0626
G2 X1.0345 Y0.0543 I-0.0055 J-0.0023
G1 X0.9547
X0.953 Y0.0546
X0.9514 Y0.0553
X0.9502 Y0.0564
X0.9492 Y0.0579
X0.9488 Y0.0596
X0.9485 Y0.0601 F13
X0.948 Y0.0605
X0.9474 Y0.0606
X0.9462 Y0.0604
X0.9456 Z-0.0018
X0.9452 Y0.0603 Z-0.0014
X0.945 Z-0.0008
G0 Z0.2
X0.9454 Y0.0579
G1 Z0.0384 F2
Z-0.0018
X0.9455 Z-0.0024 F13
X0.946 Y0.058 Z-0.0028
X0.9465 Y0.0581 Z-0.003
X0.9477 Y0.0582
X0.9483 Y0.0585
X0.9487 Y0.0589
X0.9488 Y0.0596
X0.9483 Y0.0631 F4
Y0.0637
X0.9482 Y0.0666
Y0.0675
X0.9485 Y0.0698
X0.9487 Y0.0709
X0.9493 Y0.0727
X0.9497 Y0.0737
X0.9503 Y0.0746
X0.9528 Y0.0778
X0.9524 Y0.0789
X0.9513 Y0.0807
X0.9508 Y0.0817
X0.9505 Y0.0827
X0.9503 Y0.0838
X0.9502 Y0.0855
X0.9506 Y0.0872
X0.9507 Y0.0875
Y0.0876
X0.9505 Y0.0885
X0.9504 Y0.0904
X0.9508 Y0.0922
X0.9512 Y0.093
X0.9522 Y0.0946
X0.9537 Y0.0958
X0.9544 Y0.0963
X0.955 Y0.0966
X0.9551
X0.9553 Y0.0969
X0.9558 Y0.0979
X0.9565 Y0.0991
X0.9575 Y0.1001
X0.9583 Y0.1007
X0.9595 Y0.1014
X0.9609 Y0.1018
X0.9623 Y0.1019
X0.9624 Y0.102
X0.9634 Y0.1036
X0.9648 Y0.1048
X0.9653 Y0.1051
X0.967 Y0.1057
X0.9687 Y0.1058
X0.9697
X0.9713 Y0.1061
X0.9719 Y0.1063
X0.9718 Y0.1069
X0.9714 Y0.1106
Y0.1122
X0.972 Y0.116
X0.9725 Y0.1175
X0.9738 Y0.1205
X0.974 Y0.1209
X0.9749 Y0.1227
X0.9751 Y0.1236
X0.9747 Y0.1262
Y0.1276
X0.975 Y0.129
X0.9757 Y0.1303
X0.983 Y0.1414
Y0.1435
X0.9833 Y0.1452
X0.984 Y0.1468
X0.9852 Y0.1481
X0.9866 Y0.149
X0.9873 Y0.1493
X0.9875 Y0.1497
X0.9879 Y0.1509
X0.9882 Y0.1528
X0.9883 Y0.1552
X0.988 Y0.1614
Y0.1615
X0.9879 Y0.1643
X0.988 Y0.1652
X0.9882 Y0.1673
X0.9885 Y0.1685
X0.989 Y0.1696
X0.9904 Y0.172
X0.9906 Y0.1723
X0.9907 Y0.1731
X0.9903 Y0.1793
Y0.1799
X0.9904 Y0.1828
X0.9905 Y0.1838
X0.9908 Y0.1847
X0.9915 Y0.1866
X0.9923 Y0.1879
Y0.1885
X0.9924 Y0.1895
X0.9926 Y0.1908
X0.9931 Y0.192
X0.9925 Y0.1926
G2 X0.9966 Y0.203 I0.0041 J0.0044
G1 X1.0328
X1.0347 Y0.2027
X1.0364 Y0.2018
X1.0377 Y0.2004
X1.0386 Y0.1986
X1.0388 Y0.1967
X1.0366 Y0.1533
X1.037
X1.0385 Y0.1532
X1.04 Y0.1527
X1.0413 Y0.1519
X1.0422 Y0.1511
X1.0434 Y0.1497
X1.0442 Y0.148
X1.0446 Y0.1464
X1.0448 Y0.1448
X1.0447 Y0.1426
X1.0446 Y0.1415
X1.0437 Y0.1371
X1.0432 Y0.1358
X1.0425 Y0.1343
X1.0423 Y0.1338
Y0.1286
X1.0426 Y0.128
X1.0431 Y0.1271
X1.044 Y0.125
X1.0444 Y0.1234
X1.0448 Y0.1191
X1.0447 Y0.1172
X1.0437 Y0.1127
X1.0434 Y0.1116
X1.0414 Y0.1071
X1.0413 Y0.1068
X1.0396 Y0.1035
X1.0404 Y0.1022
X1.0408 Y0.1008
X1.0409 Y0.0994
Y0.0986
X1.0406 Y0.0972
X1.04 Y0.0958
X1.0395 Y0.0949
X1.0386 Y0.0938
X1.039 Y0.0931
X1.0391 Y0.0927
X1.0405 Y0.089
X1.0407 Y0.0886
X1.0417 Y0.0853
X1.0418 Y0.0846
X1.0422 Y0.0825
X1.0423 Y0.0811
X1.0421 Y0.0798
X1.0402 Y0.0732
X1.0412 Y0.0718
X1.042 Y0.0703
X1.0423 Y0.0687
X1.0422 Y0.0671
X1.0416 Y0.0656
X1.0407 Y0.0643
X1.0398 Y0.0632
X1.04 Y0.0626
G2 X1.0345 Y0.0543 I-0.0055 J-0.0023
G1 X0.9547
X0.953 Y0.0546
X0.9514 Y0.0553
X0.9502 Y0.0564
X0.9492 Y0.0579
X0.9488 Y0.0596
X0.9485 Y0.0601 F13
X0.948 Y0.0605
X0.9474 Y0.0606
X0.9462 Y0.0604
X0.9456 Z-0.0028
X0.9452 Y0.0603 Z-0.0024
X0.945 Z-0.0018
G0 Z0.2
X0.9454 Y0.0579
G1 Z0.0374 F2
Z-0.0028
X0.9455 Z-0.0034 F13
X0.946 Y0.058 Z-0.0038
X0.9465 Y0.0581 Z-0.004
X0.9477 Y0.0582
X0.9483 Y0.0585
X0.9487 Y0.0589
X0.9488 Y0.0596
X0.9483 Y0.0631 F4
Y0.0637
X0.9482 Y0.0666
Y0.0675
X0.9485 Y0.0698
X0.9487 Y0.0709
X0.9493 Y0.0727
X0.9497 Y0.0737
X0.9503 Y0.0746
X0.9528 Y0.0778
X0.9524 Y0.0789
X0.9513 Y0.0807
X0.9508 Y0.0817
X0.9505 Y0.0827
X0.9503 Y0.0838
X0.9502 Y0.0855
X0.9506 Y0.0872
X0.9507 Y0.0875
Y0.0876
X0.9505 Y0.0885
X0.9504 Y0.0904
X0.9508 Y0.0922
X0.9512 Y0.093
X0.9522 Y0.0946
X0.9537 Y0.0958
X0.9544 Y0.0963
X0.955 Y0.0966
X0.9551
X0.9553 Y0.0969
X0.9558 Y0.0979
X0.9565 Y0.0991
X0.9575 Y0.1001
X0.9583 Y0.1007
X0.9595 Y0.1014
X0.9609 Y0.1018
X0.9623 Y0.1019
X0.9624 Y0.102
X0.9634 Y0.1036
X0.9648 Y0.1048
X0.9653 Y0.1051
X0.967 Y0.1057
X0.9687 Y0.1058
X0.9697
X0.9713 Y0.1061
X0.9719 Y0.1063
X0.9718 Y0.1069
X0.9714 Y0.1106
Y0.1122
X0.972 Y0.116
X0.9725 Y0.1175
X0.9738 Y0.1205
X0.974 Y0.1209
X0.9749 Y0.1227
X0.9751 Y0.1236
X0.9747 Y0.1262
Y0.1276
X0.975 Y0.129
X0.9757 Y0.1303
X0.983 Y0.1414
Y0.1435
X0.9833 Y0.1452
X0.984 Y0.1468
X0.9852 Y0.1481
X0.9866 Y0.149
X0.9873 Y0.1493
X0.9875 Y0.1497
X0.9879 Y0.1509
X0.9882 Y0.1528
X0.9883 Y0.1552
X0.988 Y0.1614
Y0.1615
X0.9879 Y0.1643
X0.988 Y0.1652
X0.9882 Y0.1673
X0.9885 Y0.1685
X0.989 Y0.1696
X0.9904 Y0.172
X0.9906 Y0.1723
X0.9907 Y0.1731
X0.9903 Y0.1793
Y0.1799
X0.9904 Y0.1828
X0.9905 Y0.1838
X0.9908 Y0.1847
X0.9915 Y0.1866
X0.9923 Y0.1879
Y0.1885
X0.9924 Y0.1895
X0.9926 Y0.1908
X0.9931 Y0.192
X0.9925 Y0.1926
G2 X0.9966 Y0.203 I0.0041 J0.0044
G1 X1.0328
X1.0347 Y0.2027
X1.0364 Y0.2018
X1.0377 Y0.2004
X1.0386 Y0.1986
X1.0388 Y0.1967
X1.0366 Y0.1533
X1.037
X1.0385 Y0.1532
X1.04 Y0.1527
X1.0413 Y0.1519
X1.0422 Y0.1511
X1.0434 Y0.1497
X1.0442 Y0.148
X1.0446 Y0.1464
X1.0448 Y0.1448
X1.0447 Y0.1426
X1.0446 Y0.1415
X1.0437 Y0.1371
X1.0432 Y0.1358
X1.0425 Y0.1343
X1.0423 Y0.1338
Y0.1286
X1.0426 Y0.128
X1.0431 Y0.1271
X1.044 Y0.125
X1.0444 Y0.1234
X1.0448 Y0.1191
X1.0447 Y0.1172
X1.0437 Y0.1127
X1.0434 Y0.1116
X1.0414 Y0.1071
X1.0413 Y0.1068
X1.0396 Y0.1035
X1.0404 Y0.1022
X1.0408 Y0.1008
X1.0409 Y0.0994
Y0.0986
X1.0406 Y0.0972
X1.04 Y0.0958
X1.0395 Y0.0949
X1.0386 Y0.0938
X1.039 Y0.0931
X1.0391 Y0.0927
X1.0405 Y0.089
X1.0407 Y0.0886
X1.0417 Y0.0853
X1.0418 Y0.0846
X1.0422 Y0.0825
X1.0423 Y0.0811
X1.0421 Y0.0798
X1.0402 Y0.0732
X1.0412 Y0.0718
X1.042 Y0.0703
X1.0423 Y0.0687
X1.0422 Y0.0671
X1.0416 Y0.0656
X1.0407 Y0.0643
X1.0398 Y0.0632
X1.04 Y0.0626
G2 X1.0345 Y0.0543 I-0.0055 J-0.0023
G1 X0.9547
X0.953 Y0.0546
X0.9514 Y0.0553
X0.9502 Y0.0564
X0.9492 Y0.0579
X0.9488 Y0.0596
X0.9485 Y0.0601 F13
X0.948 Y0.0605
X0.9474 Y0.0606
X0.9462 Y0.0604
X0.9456 Z-0.0038
X0.9452 Y0.0603 Z-0.0034
X0.945 Z-0.0028
G0 Z0.2
X0.9454 Y0.0579
G1 Z0.0364 F2
Z-0.0038
X0.9455 Z-0.0044 F13
X0.946 Y0.058 Z-0.0048
X0.9465 Y0.0581 Z-0.005
X0.9477 Y0.0582
X0.9483 Y0.0585
X0.9487 Y0.0589
X0.9488 Y0.0596
X0.9483 Y0.0631 F4
Y0.0637
X0.9482 Y0.0666
Y0.0675
X0.9485 Y0.0698
X0.9487 Y0.0709
X0.9493 Y0.0727
X0.9497 Y0.0737
X0.9503 Y0.0746
X0.9528 Y0.0778
X0.9524 Y0.0789
X0.9513 Y0.0807
X0.9508 Y0.0817
X0.9505 Y0.0827
X0.9503 Y0.0838
X0.9502 Y0.0855
X0.9506 Y0.0872
X0.9507 Y0.0875
Y0.0876
X0.9505 Y0.0885
X0.9504 Y0.0904
X0.9508 Y0.0922
X0.9512 Y0.093
X0.9522 Y0.0946
X0.9537 Y0.0958
X0.9544 Y0.0963
X0.955 Y0.0966
X0.9551
X0.9553 Y0.0969
X0.9558 Y0.0979
X0.9565 Y0.0991
X0.9575 Y0.1001
X0.9583 Y0.1007
X0.9595 Y0.1014
X0.9609 Y0.1018
X0.9623 Y0.1019
X0.9624 Y0.102
X0.9634 Y0.1036
X0.9648 Y0.1048
X0.9653 Y0.1051
X0.967 Y0.1057
X0.9687 Y0.1058
X0.9697
X0.9713 Y0.1061
X0.9719 Y0.1063
X0.9718 Y0.1069
X0.9714 Y0.1106
Y0.1122
X0.972 Y0.116
X0.9725 Y0.1175
X0.9738 Y0.1205
X0.974 Y0.1209
X0.9749 Y0.1227
X0.9751 Y0.1236
X0.9747 Y0.1262
Y0.1276
X0.975 Y0.129
X0.9757 Y0.1303
X0.983 Y0.1414
Y0.1435
X0.9833 Y0.1452
X0.984 Y0.1468
X0.9852 Y0.1481
X0.9866 Y0.149
X0.9873 Y0.1493
X0.9875 Y0.1497
X0.9879 Y0.1509
X0.9882 Y0.1528
X0.9883 Y0.1552
X0.988 Y0.1614
Y0.1615
X0.9879 Y0.1643
X0.988 Y0.1652
X0.9882 Y0.1673
X0.9885 Y0.1685
X0.989 Y0.1696
X0.9904 Y0.172
X0.9906 Y0.1723
X0.9907 Y0.1731
X0.9903 Y0.1793
Y0.1799
X0.9904 Y0.1828
X0.9905 Y0.1838
X0.9908 Y0.1847
X0.9915 Y0.1866
X0.9923 Y0.1879
Y0.1885
X0.9924 Y0.1895
X0.9926 Y0.1908
X0.9931 Y0.192
X0.9925 Y0.1926
G2 X0.9966 Y0.203 I0.0041 J0.0044
G1 X1.0328
X1.0347 Y0.2027
X1.0364 Y0.2018
X1.0377 Y0.2004
X1.0386 Y0.1986
X1.0388 Y0.1967
X1.0366 Y0.1533
X1.037
X1.0385 Y0.1532
X1.04 Y0.1527
X1.0413 Y0.1519
X1.0422 Y0.1511
X1.0434 Y0.1497
X1.0442 Y0.148
X1.0446 Y0.1464
X1.0448 Y0.1448
X1.0447 Y0.1426
X1.0446 Y0.1415
X1.0437 Y0.1371
X1.0432 Y0.1358
X1.0425 Y0.1343
X1.0423 Y0.1338
Y0.1286
X1.0426 Y0.128
X1.0431 Y0.1271
X1.044 Y0.125
X1.0444 Y0.1234
X1.0448 Y0.1191
X1.0447 Y0.1172
X1.0437 Y0.1127
X1.0434 Y0.1116
X1.0414 Y0.1071
X1.0413 Y0.1068
X1.0396 Y0.1035
X1.0404 Y0.1022
X1.0408 Y0.1008
X1.0409 Y0.0994
Y0.0986
X1.0406 Y0.0972
X1.04 Y0.0958
X1.0395 Y0.0949
X1.0386 Y0.0938
X1.039 Y0.0931
X1.0391 Y0.0927
X1.0405 Y0.089
X1.0407 Y0.0886
X1.0417 Y0.0853
X1.0418 Y0.0846
X1.0422 Y0.0825
X1.0423 Y0.0811
X1.0421 Y0.0798
X1.0402 Y0.0732
X1.0412 Y0.0718
X1.042 Y0.0703
X1.0423 Y0.0687
X1.0422 Y0.0671
X1.0416 Y0.0656
X1.0407 Y0.0643
X1.0398 Y0.0632
X1.04 Y0.0626
G2 X1.0345 Y0.0543 I-0.0055 J-0.0023
G1 X0.9547
X0.953 Y0.0546
X0.9514 Y0.0553
X0.9502 Y0.0564
X0.9492 Y0.0579
X0.9488 Y0.0596
X0.9485 Y0.0601 F13
X0.948 Y0.0605
X0.9474 Y0.0606
X0.9462 Y0.0604
X0.9456 Z-0.0048
X0.9452 Y0.0603 Z-0.0044
X0.945 Z-0.0038
G0 Z0.2
X0.9454 Y0.0579
G1 Z0.0354 F2
Z-0.0048
X0.9455 Z-0.0054 F13
X0.946 Y0.058 Z-0.0058
X0.9465 Y0.0581 Z-0.006
X0.9477 Y0.0582
X0.9483 Y0.0585
X0.9487 Y0.0589
X0.9488 Y0.0596
X0.9483 Y0.0631 F4
Y0.0637
X0.9482 Y0.0666
Y0.0675
X0.9485 Y0.0698
X0.9487 Y0.0709
X0.9493 Y0.0727
X0.9497 Y0.0737
X0.9503 Y0.0746
X0.9528 Y0.0778
X0.9524 Y0.0789
X0.9513 Y0.0807
X0.9508 Y0.0817
X0.9505 Y0.0827
X0.9503 Y0.0838
X0.9502 Y0.0855
X0.9506 Y0.0872
X0.9507 Y0.0875
Y0.0876
X0.9505 Y0.0885
X0.9504 Y0.0904
X0.9508 Y0.0922
X0.9512 Y0.093
X0.9522 Y0.0946
X0.9537 Y0.0958
X0.9544 Y0.0963
X0.955 Y0.0966
X0.9551
X0.9553 Y0.0969
X0.9558 Y0.0979
X0.9565 Y0.0991
X0.9575 Y0.1001
X0.9583 Y0.1007
X0.9595 Y0.1014
X0.9609 Y0.1018
X0.9623 Y0.1019
X0.9624 Y0.102
X0.9634 Y0.1036
X0.9648 Y0.1048
X0.9653 Y0.1051
X0.967 Y0.1057
X0.9687 Y0.1058
X0.9697
X0.9713 Y0.1061
X0.9719 Y0.1063
X0.9718 Y0.1069
X0.9714 Y0.1106
Y0.1122
X0.972 Y0.116
X0.9725 Y0.1175
X0.9738 Y0.1205
X0.974 Y0.1209
X0.9749 Y0.1227
X0.9751 Y0.1236
X0.9747 Y0.1262
Y0.1276
X0.975 Y0.129
X0.9757 Y0.1303
X0.983 Y0.1414
Y0.1435
X0.9833 Y0.1452
X0.984 Y0.1468
X0.9852 Y0.1481
X0.9866 Y0.149
X0.9873 Y0.1493
X0.9875 Y0.1497
X0.9879 Y0.1509
X0.9882 Y0.1528
X0.9883 Y0.1552
X0.988 Y0.1614
Y0.1615
X0.9879 Y0.1643
X0.988 Y0.1652
X0.9882 Y0.1673
X0.9885 Y0.1685
X0.989 Y0.1696
X0.9904 Y0.172
X0.9906 Y0.1723
X0.9907 Y0.1731
X0.9903 Y0.1793
Y0.1799
X0.9904 Y0.1828
X0.9905 Y0.1838
X0.9908 Y0.1847
X0.9915 Y0.1866
X0.9923 Y0.1879
Y0.1885
X0.9924 Y0.1895
X0.9926 Y0.1908
X0.9931 Y0.192
X0.9925 Y0.1926
G2 X0.9966 Y0.203 I0.0041 J0.0044
G1 X1.0328
X1.0347 Y0.2027
X1.0364 Y0.2018
X1.0377 Y0.2004
X1.0386 Y0.1986
X1.0388 Y0.1967
X1.0366 Y0.1533
X1.037
X1.0385 Y0.1532
X1.04 Y0.1527
X1.0413 Y0.1519
X1.0422 Y0.1511
X1.0434 Y0.1497
X1.0442 Y0.148
X1.0446 Y0.1464
X1.0448 Y0.1448
X1.0447 Y0.1426
X1.0446 Y0.1415
X1.0437 Y0.1371
X1.0432 Y0.1358
X1.0425 Y0.1343
X1.0423 Y0.1338
Y0.1286
X1.0426 Y0.128
X1.0431 Y0.1271
X1.044 Y0.125
X1.0444 Y0.1234
X1.0448 Y0.1191
X1.0447 Y0.1172
X1.0437 Y0.1127
X1.0434 Y0.1116
X1.0414 Y0.1071
X1.0413 Y0.1068
X1.0396 Y0.1035
X1.0404 Y0.1022
X1.0408 Y0.1008
X1.0409 Y0.0994
Y0.0986
X1.0406 Y0.0972
X1.04 Y0.0958
X1.0395 Y0.0949
X1.0386 Y0.0938
X1.039 Y0.0931
X1.0391 Y0.0927
X1.0405 Y0.089
X1.0407 Y0.0886
X1.0417 Y0.0853
X1.0418 Y0.0846
X1.0422 Y0.0825
X1.0423 Y0.0811
X1.0421 Y0.0798
X1.0402 Y0.0732
X1.0412 Y0.0718
X1.042 Y0.0703
X1.0423 Y0.0687
X1.0422 Y0.0671
X1.0416 Y0.0656
X1.0407 Y0.0643
X1.0398 Y0.0632
X1.04 Y0.0626
G2 X1.0345 Y0.0543 I-0.0055 J-0.0023
G1 X0.9547
X0.953 Y0.0546
X0.9514 Y0.0553
X0.9502 Y0.0564
X0.9492 Y0.0579
X0.9488 Y0.0596
X0.9485 Y0.0601 F13
X0.948 Y0.0605
X0.9474 Y0.0606
X0.9462 Y0.0604
X0.9456 Z-0.0058
X0.9452 Y0.0603 Z-0.0054
X0.945 Z-0.0048
G0 Z0.2
X0.9454 Y0.0579
G1 Z0.0344 F2
Z-0.0058
X0.9455 Z-0.0064 F13
X0.946 Y0.058 Z-0.0068
X0.9465 Y0.0581 Z-0.007
X0.9477 Y0.0582
X0.9483 Y0.0585
X0.9487 Y0.0589
X0.9488 Y0.0596
X0.9483 Y0.0631 F4
Y0.0637
X0.9482 Y0.0666
Y0.0675
X0.9485 Y0.0698
X0.9487 Y0.0709
X0.9493 Y0.0727
X0.9497 Y0.0737
X0.9503 Y0.0746
X0.9528 Y0.0778
X0.9524 Y0.0789
X0.9513 Y0.0807
X0.9508 Y0.0817
X0.9505 Y0.0827
X0.9503 Y0.0838
X0.9502 Y0.0855
X0.9506 Y0.0872
X0.9507 Y0.0875
Y0.0876
X0.9505 Y0.0885
X0.9504 Y0.0904
X0.9508 Y0.0922
X0.9512 Y0.093
X0.9522 Y0.0946
X0.9537 Y0.0958
X0.9544 Y0.0963
X0.955 Y0.0966
X0.9551
X0.9553 Y0.0969
X0.9558 Y0.0979
X0.9565 Y0.0991
X0.9575 Y0.1001
X0.9583 Y0.1007
X0.9595 Y0.1014
X0.9609 Y0.1018
X0.9623 Y0.1019
X0.9624 Y0.102
X0.9634 Y0.1036
X0.9648 Y0.1048
X0.9653 Y0.1051
X0.967 Y0.1057
X0.9687 Y0.1058
X0.9697
X0.9713 Y0.1061
X0.9719 Y0.1063
X0.9718 Y0.1069
X0.9714 Y0.1106
Y0.1122
X0.972 Y0.116
X0.9725 Y0.1175
X0.9738 Y0.1205
X0.974 Y0.1209
X0.9749 Y0.1227
X0.9751 Y0.1236
X0.9747 Y0.1262
Y0.1276
X0.975 Y0.129
X0.9757 Y0.1303
X0.983 Y0.1414
Y0.1435
X0.9833 Y0.1452
X0.984 Y0.1468
X0.9852 Y0.1481
X0.9866 Y0.149
X0.9873 Y0.1493
X0.9875 Y0.1497
X0.9879 Y0.1509
X0.9882 Y0.1528
X0.9883 Y0.1552
X0.988 Y0.1614
Y0.1615
X0.9879 Y0.1643
X0.988 Y0.1652
X0.9882 Y0.1673
X0.9885 Y0.1685
X0.989 Y0.1696
X0.9904 Y0.172
X0.9906 Y0.1723
X0.9907 Y0.1731
X0.9903 Y0.1793
Y0.1799
X0.9904 Y0.1828
X0.9905 Y0.1838
X0.9908 Y0.1847
X0.9915 Y0.1866
X0.9923 Y0.1879
Y0.1885
X0.9924 Y0.1895
X0.9926 Y0.1908
X0.9931 Y0.192
X0.9925 Y0.1926
G2 X0.9966 Y0.203 I0.0041 J0.0044
G1 X1.0328
X1.0347 Y0.2027
X1.0364 Y0.2018
X1.0377 Y0.2004
X1.0386 Y0.1986
X1.0388 Y0.1967
X1.0366 Y0.1533
X1.037
X1.0385 Y0.1532
X1.04 Y0.1527
X1.0413 Y0.1519
X1.0422 Y0.1511
X1.0434 Y0.1497
X1.0442 Y0.148
X1.0446 Y0.1464
X1.0448 Y0.1448
X1.0447 Y0.1426
X1.0446 Y0.1415
X1.0437 Y0.1371
X1.0432 Y0.1358
X1.0425 Y0.1343
X1.0423 Y0.1338
Y0.1286
X1.0426 Y0.128
X1.0431 Y0.1271
X1.044 Y0.125
X1.0444 Y0.1234
X1.0448 Y0.1191
X1.0447 Y0.1172
X1.0437 Y0.1127
X1.0434 Y0.1116
X1.0414 Y0.1071
X1.0413 Y0.1068
X1.0396 Y0.1035
X1.0404 Y0.1022
X1.0408 Y0.1008
X1.0409 Y0.0994
Y0.0986
X1.0406 Y0.0972
X1.04 Y0.0958
X1.0395 Y0.0949
X1.0386 Y0.0938
X1.039 Y0.0931
X1.0391 Y0.0927
X1.0405 Y0.089
X1.0407 Y0.0886
X1.0417 Y0.0853
X1.0418 Y0.0846
X1.0422 Y0.0825
X1.0423 Y0.0811
X1.0421 Y0.0798
X1.0402 Y0.0732
X1.0412 Y0.0718
X1.042 Y0.0703
X1.0423 Y0.0687
X1.0422 Y0.0671
X1.0416 Y0.0656
X1.0407 Y0.0643
X1.0398 Y0.0632
X1.04 Y0.0626
G2 X1.0345 Y0.0543 I-0.0055 J-0.0023
G1 X0.9547
X0.953 Y0.0546
X0.9514 Y0.0553
X0.9502 Y0.0564
X0.9492 Y0.0579
X0.9488 Y0.0596
X0.9485 Y0.0601 F13
X0.948 Y0.0605
X0.9474 Y0.0606
X0.9462 Y0.0604
X0.9456 Z-0.0068
X0.9452 Y0.0603 Z-0.0064
X0.945 Z-0.0058
G0 Z0.2
X0.9454 Y0.0579
G1 Z0.0334 F2
Z-0.0068
X0.9455 Z-0.0074 F13
X0.946 Y0.058 Z-0.0078
X0.9465 Y0.0581 Z-0.008
X0.9477 Y0.0582
X0.9483 Y0.0585
X0.9487 Y0.0589
X0.9488 Y0.0596
X0.9483 Y0.0631 F4
Y0.0637
X0.9482 Y0.0666
Y0.0675
X0.9485 Y0.0698
X0.9487 Y0.0709
X0.9493 Y0.0727
X0.9497 Y0.0737
X0.9503 Y0.0746
X0.9528 Y0.0778
X0.9524 Y0.0789
X0.9513 Y0.0807
X0.9508 Y0.0817
X0.9505 Y0.0827
X0.9503 Y0.0838
X0.9502 Y0.0855
X0.9506 Y0.0872
X0.9507 Y0.0875
Y0.0876
X0.9505 Y0.0885
X0.9504 Y0.0904
X0.9508 Y0.0922
X0.9512 Y0.093
X0.9522 Y0.0946
X0.9537 Y0.0958
X0.9544 Y0.0963
X0.955 Y0.0966
X0.9551
X0.9553 Y0.0969
X0.9558 Y0.0979
X0.9565 Y0.0991
X0.9575 Y0.1001
X0.9583 Y0.1007
X0.9595 Y0.1014
X0.9609 Y0.1018
X0.9623 Y0.1019
X0.9624 Y0.102
X0.9634 Y0.1036
X0.9648 Y0.1048
X0.9653 Y0.1051
X0.967 Y0.1057
X0.9687 Y0.1058
X0.9697
X0.9713 Y0.1061
X0.9719 Y0.1063
X0.9718 Y0.1069
X0.9714 Y0.1106
Y0.1122
X0.972 Y0.116
X0.9725 Y0.1175
X0.9738 Y0.1205
X0.974 Y0.1209
X0.9749 Y0.1227
X0.9751 Y0.1236
X0.9747 Y0.1262
Y0.1276
X0.975 Y0.129
X0.9757 Y0.1303
X0.983 Y0.1414
Y0.1435
X0.9833 Y0.1452
X0.984 Y0.1468
X0.9852 Y0.1481
X0.9866 Y0.149
X0.9873 Y0.1493
X0.9875 Y0.1497
X0.9879 Y0.1509
X0.9882 Y0.1528
X0.9883 Y0.1552
X0.988 Y0.1614
Y0.1615
X0.9879 Y0.1643
X0.988 Y0.1652
X0.9882 Y0.1673
X0.9885 Y0.1685
X0.989 Y0.1696
X0.9904 Y0.172
X0.9906 Y0.1723
X0.9907 Y0.1731
X0.9903 Y0.1793
Y0.1799
X0.9904 Y0.1828
X0.9905 Y0.1838
X0.9908 Y0.1847
X0.9915 Y0.1866
X0.9923 Y0.1879
Y0.1885
X0.9924 Y0.1895
X0.9926 Y0.1908
X0.9931 Y0.192
X0.9925 Y0.1926
G2 X0.9966 Y0.203 I0.0041 J0.0044
G1 X1.0328
X1.0347 Y0.2027
X1.0364 Y0.2018
X1.0377 Y0.2004
X1.0386 Y0.1986
X1.0388 Y0.1967
X1.0366 Y0.1533
X1.037
X1.0385 Y0.1532
X1.04 Y0.1527
X1.0413 Y0.1519
X1.0422 Y0.1511
X1.0434 Y0.1497
X1.0442 Y0.148
X1.0446 Y0.1464
X1.0448 Y0.1448
X1.0447 Y0.1426
X1.0446 Y0.1415
X1.0437 Y0.1371
X1.0432 Y0.1358
X1.0425 Y0.1343
X1.0423 Y0.1338
Y0.1286
X1.0426 Y0.128
X1.0431 Y0.1271
X1.044 Y0.125
X1.0444 Y0.1234
X1.0448 Y0.1191
X1.0447 Y0.1172
X1.0437 Y0.1127
X1.0434 Y0.1116
X1.0414 Y0.1071
X1.0413 Y0.1068
X1.0396 Y0.1035
X1.0404 Y0.1022
X1.0408 Y0.1008
X1.0409 Y0.0994
Y0.0986
X1.0406 Y0.0972
X1.04 Y0.0958
X1.0395 Y0.0949
X1.0386 Y0.0938
X1.039 Y0.0931
X1.0391 Y0.0927
X1.0405 Y0.089
X1.0407 Y0.0886
X1.0417 Y0.0853
X1.0418 Y0.0846
X1.0422 Y0.0825
X1.0423 Y0.0811
X1.0421 Y0.0798
X1.0402 Y0.0732
X1.0412 Y0.0718
X1.042 Y0.0703
X1.0423 Y0.0687
X1.0422 Y0.0671
X1.0416 Y0.0656
X1.0407 Y0.0643
X1.0398 Y0.0632
X1.04 Y0.0626
G2 X1.0345 Y0.0543 I-0.0055 J-0.0023
G1 X0.9547
X0.953 Y0.0546
X0.9514 Y0.0553
X0.9502 Y0.0564
X0.9492 Y0.0579
X0.9488 Y0.0596
X0.9485 Y0.0601 F13
X0.948 Y0.0605
X0.9474 Y0.0606
X0.9462 Y0.0604
X0.9456 Z-0.0078
X0.9452 Y0.0603 Z-0.0074
X0.945 Z-0.0068
G0 Z0.2
X0.9454 Y0.0579
G1 Z0.0324 F2
Z-0.0078
X0.9455 Z-0.0084 F13
X0.946 Y0.058 Z-0.0088
X0.9465 Y0.0581 Z-0.009
X0.9477 Y0.0582
X0.9483 Y0.0585
X0.9487 Y0.0589
X0.9488 Y0.0596
X0.9483 Y0.0631 F4
Y0.0637
X0.9482 Y0.0666
Y0.0675
X0.9485 Y0.0698
X0.9487 Y0.0709
X0.9493 Y0.0727
X0.9497 Y0.0737
X0.9503 Y0.0746
X0.9528 Y0.0778
X0.9524 Y0.0789
X0.9513 Y0.0807
X0.9508 Y0.0817
X0.9505 Y0.0827
X0.9503 Y0.0838
X0.9502 Y0.0855
X0.9506 Y0.0872
X0.9507 Y0.0875
Y0.0876
X0.9505 Y0.0885
X0.9504 Y0.0904
X0.9508 Y0.0922
X0.9512 Y0.093
X0.9522 Y0.0946
X0.9537 Y0.0958
X0.9544 Y0.0963
X0.955 Y0.0966
X0.9551
X0.9553 Y0.0969
X0.9558 Y0.0979
X0.9565 Y0.0991
X0.9575 Y0.1001
X0.9583 Y0.1007
X0.9595 Y0.1014
X0.9609 Y0.1018
X0.9623 Y0.1019
X0.9624 Y0.102
X0.9634 Y0.1036
X0.9648 Y0.1048
X0.9653 Y0.1051
X0.967 Y0.1057
X0.9687 Y0.1058
X0.9697
X0.9713 Y0.1061
X0.9719 Y0.1063
X0.9718 Y0.1069
X0.9714 Y0.1106
Y0.1122
X0.972 Y0.116
X0.9725 Y0.1175
X0.9738 Y0.1205
X0.974 Y0.1209
X0.9749 Y0.1227
X0.9751 Y0.1236
X0.9747 Y0.1262
Y0.1276
X0.975 Y0.129
X0.9757 Y0.1303
X0.983 Y0.1414
Y0.1435
X0.9833 Y0.1452
X0.984 Y0.1468
X0.9852 Y0.1481
X0.9866 Y0.149
X0.9873 Y0.1493
X0.9875 Y0.1497
X0.9879 Y0.1509
X0.9882 Y0.1528
X0.9883 Y0.1552
X0.988 Y0.1614
Y0.1615
X0.9879 Y0.1643
X0.988 Y0.1652
X0.9882 Y0.1673
X0.9885 Y0.1685
X0.989 Y0.1696
X0.9904 Y0.172
X0.9906 Y0.1723
X0.9907 Y0.1731
X0.9903 Y0.1793
Y0.1799
X0.9904 Y0.1828
X0.9905 Y0.1838
X0.9908 Y0.1847
X0.9915 Y0.1866
X0.9923 Y0.1879
Y0.1885
X0.9924 Y0.1895
X0.9926 Y0.1908
X0.9931 Y0.192
X0.9925 Y0.1926
G2 X0.9966 Y0.203 I0.0041 J0.0044
G1 X1.0328
X1.0347 Y0.2027
X1.0364 Y0.2018
X1.0377 Y0.2004
X1.0386 Y0.1986
X1.0388 Y0.1967
X1.0366 Y0.1533
X1.037
X1.0385 Y0.1532
X1.04 Y0.1527
X1.0413 Y0.1519
X1.0422 Y0.1511
X1.0434 Y0.1497
X1.0442 Y0.148
X1.0446 Y0.1464
X1.0448 Y0.1448
X1.0447 Y0.1426
X1.0446 Y0.1415
X1.0437 Y0.1371
X1.0432 Y0.1358
X1.0425 Y0.1343
X1.0423 Y0.1338
Y0.1286
X1.0426 Y0.128
X1.0431 Y0.1271
X1.044 Y0.125
X1.0444 Y0.1234
X1.0448 Y0.1191
X1.0447 Y0.1172
X1.0437 Y0.1127
X1.0434 Y0.1116
X1.0414 Y0.1071
X1.0413 Y0.1068
X1.0396 Y0.1035
X1.0404 Y0.1022
X1.0408 Y0.1008
X1.0409 Y0.0994
Y0.0986
X1.0406 Y0.0972
X1.04 Y0.0958
X1.0395 Y0.0949
X1.0386 Y0.0938
X1.039 Y0.0931
X1.0391 Y0.0927
X1.0405 Y0.089
X1.0407 Y0.0886
X1.0417 Y0.0853
X1.0418 Y0.0846
X1.0422 Y0.0825
X1.0423 Y0.0811
X1.0421 Y0.0798
X1.0402 Y0.0732
X1.0412 Y0.0718
X1.042 Y0.0703
X1.0423 Y0.0687
X1.0422 Y0.0671
X1.0416 Y0.0656
X1.0407 Y0.0643
X1.0398 Y0.0632
X1.04 Y0.0626
G2 X1.0345 Y0.0543 I-0.0055 J-0.0023
G1 X0.9547
X0.953 Y0.0546
X0.9514 Y0.0553
X0.9502 Y0.0564
X0.9492 Y0.0579
X0.9488 Y0.0596
X0.9485 Y0.0601 F13
X0.948 Y0.0605
X0.9474 Y0.0606
X0.9462 Y0.0604
X0.9456 Z-0.0088
X0.9452 Y0.0603 Z-0.0084
X0.945 Z-0.0078
G0 Z0.2
X0.9454 Y0.0579
G1 Z0.0314 F2
Z-0.0088
X0.9455 Z-0.0094 F13
X0.946 Y0.058 Z-0.0098
X0.9465 Y0.0581 Z-0.01
X0.9477 Y0.0582
X0.9483 Y0.0585
X0.9487 Y0.0589
X0.9488 Y0.0596
X0.9483 Y0.0631 F4
Y0.0637
X0.9482 Y0.0666
Y0.0675
X0.9485 Y0.0698
X0.9487 Y0.0709
X0.9493 Y0.0727
X0.9497 Y0.0737
X0.9503 Y0.0746
X0.9528 Y0.0778
X0.9524 Y0.0789
X0.9513 Y0.0807
X0.9508 Y0.0817
X0.9505 Y0.0827
X0.9503 Y0.0838
X0.9502 Y0.0855
X0.9506 Y0.0872
X0.9507 Y0.0875
Y0.0876
X0.9505 Y0.0885
X0.9504 Y0.0904
X0.9508 Y0.0922
X0.9512 Y0.093
X0.9522 Y0.0946
X0.9537 Y0.0958
X0.9544 Y0.0963
X0.955 Y0.0966
X0.9551
X0.9553 Y0.0969
X0.9558 Y0.0979
X0.9565 Y0.0991
X0.9575 Y0.1001
X0.9583 Y0.1007
X0.9595 Y0.1014
X0.9609 Y0.1018
X0.9623 Y0.1019
X0.9624 Y0.102
X0.9634 Y0.1036
X0.9648 Y0.1048
X0.9653 Y0.1051
X0.967 Y0.1057
X0.9687 Y0.1058
X0.9697
X0.9713 Y0.1061
X0.9719 Y0.1063
X0.9718 Y0.1069
X0.9714 Y0.1106
Y0.1122
X0.972 Y0.116
X0.9725 Y0.1175
X0.9738 Y0.1205
X0.974 Y0.1209
X0.9749 Y0.1227
X0.9751 Y0.1236
X0.9747 Y0.1262
Y0.1276
X0.975 Y0.129
X0.9757 Y0.1303
X0.983 Y0.1414
Y0.1435
X0.9833 Y0.1452
X0.984 Y0.1468
X0.9852 Y0.1481
X0.9866 Y0.149
X0.9873 Y0.1493
X0.9875 Y0.1497
X0.9879 Y0.1509
X0.9882 Y0.1528
X0.9883 Y0.1552
X0.988 Y0.1614
Y0.1615
X0.9879 Y0.1643
X0.988 Y0.1652
X0.9882 Y0.1673
X0.9885 Y0.1685
X0.989 Y0.1696
X0.9904 Y0.172
X0.9906 Y0.1723
X0.9907 Y0.1731
X0.9903 Y0.1793
Y0.1799
X0.9904 Y0.1828
X0.9905 Y0.1838
X0.9908 Y0.1847
X0.9915 Y0.1866
X0.9923 Y0.1879
Y0.1885
X0.9924 Y0.1895
X0.9926 Y0.1908
X0.9931 Y0.192
X0.9925 Y0.1926
G2 X0.9966 Y0.203 I0.0041 J0.0044
G1 X1.0328
X1.0347 Y0.2027
X1.0364 Y0.2018
X1.0377 Y0.2004
X1.0386 Y0.1986
X1.0388 Y0.1967
X1.0366 Y0.1533
X1.037
X1.0385 Y0.1532
X1.04 Y0.1527
X1.0413 Y0.1519
X1.0422 Y0.1511
X1.0434 Y0.1497
X1.0442 Y0.148
X1.0446 Y0.1464
X1.0448 Y0.1448
X1.0447 Y0.1426
X1.0446 Y0.1415
X1.0437 Y0.1371
X1.0432 Y0.1358
X1.0425 Y0.1343
X1.0423 Y0.1338
Y0.1286
X1.0426 Y0.128
X1.0431 Y0.1271
X1.044 Y0.125
X1.0444 Y0.1234
X1.0448 Y0.1191
X1.0447 Y0.1172
X1.0437 Y0.1127
X1.0434 Y0.1116
X1.0414 Y0.1071
X1.0413 Y0.1068
X1.0396 Y0.1035
X1.0404 Y0.1022
X1.0408 Y0.1008
X1.0409 Y0.0994
Y0.0986
X1.0406 Y0.0972
X1.04 Y0.0958
X1.0395 Y0.0949
X1.0386 Y0.0938
X1.039 Y0.0931
X1.0391 Y0.0927
X1.0405 Y0.089
X1.0407 Y0.0886
X1.0417 Y0.0853
X1.0418 Y0.0846
X1.0422 Y0.0825
X1.0423 Y0.0811
X1.0421 Y0.0798
X1.0402 Y0.0732
X1.0412 Y0.0718
X1.042 Y0.0703
X1.0423 Y0.0687
X1.0422 Y0.0671
X1.0416 Y0.0656
X1.0407 Y0.0643
X1.0398 Y0.0632
X1.04 Y0.0626
G2 X1.0345 Y0.0543 I-0.0055 J-0.0023
G1 X0.9547
X0.953 Y0.0546
X0.9514 Y0.0553
X0.9502 Y0.0564
X0.9492 Y0.0579
X0.9488 Y0.0596
X0.9485 Y0.0601 F13
X0.948 Y0.0605
X0.9474 Y0.0606
X0.9462 Y0.0604
X0.9456 Z-0.0098
X0.9452 Y0.0603 Z-0.0094
X0.945 Z-0.0088
G0 Z0.6
M9
G28 G91 Z0
G90
G28 G91 X0 Y0
G90
M30
%
