%
(Step)
(T1  D=0.042 CR=0 TAPER=118deg - ZMIN=-0.1 - drill)
(T2  D=0.125 CR=0 - ZMIN=-0.121 - flat end mill)
(T3  D=0.12 CR=0.001 - ZMIN=-0.0418 - slot mill)
G90
G17
G20
G28 G91 Z0
G90

(Drill1)
T1 M6
S11999 M3
G54
M7
G0 X0 Y0
Z0.6
Z0.2
Z0.08
G1 Z-0.01 F7.559
G0 Z-0.006
G1 Z-0.02 F7.559
G0 Z0.2
Z0.06
G1 Z-0.03 F7.559
G0 Z-0.026
G1 Z-0.04 F7.559
G0 Z-0.036
G1 Z-0.05 F7.559
G0 Z0.2
Z0.03
G1 Z-0.06 F7.559
G0 Z-0.056
G1 Z-0.07 F7.559
G0 Z-0.066
G1 Z-0.08 F7.559
G0 Z0.2
Z0
G1 Z-0.09 F7.559
G0 Z-0.086
G1 Z-0.1 F7.559
G0 Z0.2
Z0.6
M5
G28 G91 Z0
G90

(Contour Center Clearing)
M9
T2 M6
S10000 M3
G54
M7
G0 X0.0502 Y-0.0905
Z0.6
Z0.2
G1 Z0.1 F6
G2 X-0.0502 Y0.0905 Z0.083 I-0.0502 J0.0905 F8
X0.0502 Y-0.0905 Z0.0659 I0.0502 J-0.0905
X-0.0502 Y0.0905 Z0.0489 I-0.0502 J0.0905
X0.0502 Y-0.0905 Z0.0318 I0.0502 J-0.0905
X-0.0502 Y0.0905 Z0.0148 I-0.0502 J0.0905
X0.0502 Y-0.0905 Z-0.0023 I0.0502 J-0.0905
X0 Y-0.1035 Z-0.005 I-0.0502 J0.0905
Y0.1035 I0 J0.1035 F18
Y-0.1035 I0 J-0.1035
X-0.0825 Y-0.0626 Z-0.01 I0 J0.1035 F8
X0.0825 Y0.0626 I0.0825 J0.0626 F18
X-0.0825 Y-0.0626 I-0.0825 J-0.0626
X-0.0997 Y0.0279 Z-0.015 I0.0825 J0.0626 F8
X0.0997 Y-0.0279 I0.0997 J-0.0279 F18
X-0.0997 Y0.0279 I-0.0997 J0.0279
X-0.0381 Y0.0963 Z-0.02 I0.0997 J-0.0279 F8
X0.0381 Y-0.0963 I0.0381 J-0.0963 F18
X-0.0381 Y0.0963 I-0.0381 J0.0963
X0.0537 Y0.0885 Z-0.025 I0.0381 J-0.0963 F8
X-0.0537 Y-0.0885 I-0.0537 J-0.0885 F18
X0.0537 Y0.0885 I0.0537 J0.0885
X0.103 Y0.0107 Z-0.03 I-0.0537 J-0.0885 F8
X-0.103 Y-0.0107 I-0.103 J-0.0107 F18
X0.103 Y0.0107 I0.103 J0.0107
X0.0708 Y-0.0756 Z-0.035 I-0.103 J-0.0107 F8
X-0.0708 Y0.0756 I-0.0708 J0.0756 F18
X0.0708 Y-0.0756 I0.0708 J-0.0756
X-0.0174 Y-0.1021 Z-0.04 I-0.0708 J0.0756 F8
X0.0174 Y0.1021 I0.0174 J0.1021 F18
X-0.0174 Y-0.1021 I-0.0174 J-0.1021
X-0.0919 Y-0.0478 Z-0.045 I0.0174 J0.1021 F8
X0.0919 Y0.0479 I0.0919 J0.0478 F18
X-0.0919 Y-0.0479 I-0.0919 J-0.0479
X-0.0937 Y0.0443 Z-0.05 I0.0919 J0.0479 F8
X0.0937 Y-0.0443 I0.0937 J-0.0443 F18
X-0.0937 Y0.0443 I-0.0937 J0.0443
X-0.0718 Y0.0748 Z-0.052 I0.0937 J-0.0443 F8
X0.0718 Y-0.0748 I0.0718 J-0.0748 F18
X-0.0718 Y0.0748 I-0.0718 J0.0748
G0 X-0.0717 Y0.0747 Z0.6

(Contour Center Clearing 3)
X0.0356 Y-0.1201
Z0.6
Z0.2
G1 Z0.1 F6
G2 X-0.0356 Y0.1201 Z0.0794 I-0.0356 J0.1201 F8
X0.0356 Y-0.1201 Z0.0588 I0.0356 J-0.1201
X-0.0356 Y0.1201 Z0.0381 I-0.0356 J0.1201
X0.0356 Y-0.1201 Z0.0175 I0.0356 J-0.1201
X-0.124 Y-0.018 Z0.0063 I-0.0356 J0.1201
X0 Y0.1253 Z-0.005 I0.124 J0.018
Y-0.1253 I0 J-0.1253 F18
Y0.1253 I0 J0.1253
X0.0865 Y0.0907 Z-0.01 I0 J-0.1253 F8
X-0.0865 Y-0.0907 I-0.0865 J-0.0907 F18
X0.0865 Y0.0907 I0.0865 J0.0907
X0.1252 Y0.0059 Z-0.015 I-0.0865 J-0.0907 F8
X-0.1252 Y-0.0059 I-0.1252 J-0.0059 F18
X0.1252 Y0.0059 I0.1252 J0.0059
X0.0947 Y-0.0821 Z-0.02 I-0.1252 J-0.0059 F8
X-0.0947 Y0.0821 I-0.0947 J0.0821 F18
X0.0947 Y-0.0821 I0.0947 J-0.0821
X0.0119 Y-0.1248 Z-0.025 I-0.0947 J0.0821 F8
X-0.0119 Y0.1248 I-0.0119 J0.1248 F18
X0.0119 Y-0.1248 I0.0119 J-0.1248
X-0.0776 Y-0.0985 Z-0.03 I-0.0119 J0.1248 F8
X0.0776 Y0.0985 I0.0776 J0.0985 F18
X-0.0776 Y-0.0985 I-0.0776 J-0.0985
X-0.1241 Y-0.0178 Z-0.035 I0.0776 J0.0985 F8
X0.1241 Y0.0177 I0.1241 J0.0178 F18
X-0.1241 Y-0.0177 I-0.1241 J-0.0177
X-0.102 Y0.0728 Z-0.04 I0.1241 J0.0177 F8
X0.102 Y-0.0728 I0.102 J-0.0728 F18
X-0.102 Y0.0728 I-0.102 J0.0728
X-0.0236 Y0.1231 Z-0.045 I0.102 J-0.0728 F8
X0.0236 Y-0.1231 I0.0236 J-0.1231 F18
X-0.0236 Y0.1231 I-0.0236 J0.1231
X0.0679 Y0.1054 Z-0.05 I0.0236 J-0.1231 F8
X-0.0679 Y-0.1054 I-0.0679 J-0.1054 F18
X0.0679 Y0.1054 I0.0679 J0.1054
X0.0961 Y0.0805 Z-0.052 I-0.0679 J-0.1054 F8
X-0.0961 Y-0.0805 I-0.0961 J-0.0805 F18
X0.0961 Y0.0805 I0.0961 J0.0805
G0 X0.096 Y0.0804 Z0.6
M9
M5
G28 G91 Z0
G90

(Keyset Contour 3)
T3 M6
S10000 M3
G54
G0 X0.142 Y-0.0097
Z0.6
Z0.2
G1 Z0.112 F13.333
X0.1418 Z0.1093 F18
X0.1409 Y-0.0096 Z0.1068
X0.1395 Y-0.0093 Z0.1045
X0.1376 Y-0.0091 Z0.1026
X0.1353 Y-0.0087 Z0.1012
X0.1328 Y-0.0083 Z0.1003
X0.1302 Y-0.0079 Z0.1
X0.1183 Y-0.0061
G3 X0.1046 Y-0.0161 I-0.0018 J-0.0119
G2 X-0.1046 Y0.0161 Z0.085 I-0.1046 J0.0161 F13.333
X0.1046 Y-0.0161 Z0.07 I0.1046 J-0.0161
X-0.1046 Y0.0161 Z0.055 I-0.1046 J0.0161
X0.1046 Y-0.0161 Z0.04 I0.1046 J-0.0161
X-0.1046 Y0.0161 Z0.025 I-0.1046 J0.0161
X0.1046 Y-0.0161 Z0.01 I0.1046 J-0.0161
X-0.1046 Y0.0161 Z-0.005 I-0.1046 J0.0161
X0.1046 Y-0.0161 Z-0.02 I0.1046 J-0.0161
X-0.1046 Y0.0161 Z-0.035 I-0.1046 J0.0161
X0 Y0.1058 Z-0.0418 I0.1046 J-0.0161
Y-0.1058 I0 J-0.1058 F18
Y0.1058 I0 J0.1058
G1 X0.0012 Y0.1057
X0.0023 Y0.1052
X0.0032 Y0.1044
X0.0038 Y0.1033
X0.0047 Y0.102
X0.0059 Y0.101
X0.0075 Y0.1006
G2 X-0.0075 Y-0.1006 I-0.0075 J-0.1006
X0.0075 Y0.1006 I0.0075 J0.1006
G1 X0.0092 Y0.1003
X0.0108 Y0.0995
X0.0122 Y0.0984
X0.0133 Y0.097
X0.014 Y0.0954
X0.0149 Y0.0934
X0.0163 Y0.0917
X0.0181 Y0.0904
X0.0202 Y0.0896
G2 X-0.0202 Y-0.0896 I-0.0202 J-0.0896
X0.0202 Y0.0896 I0.0202 J0.0896
G3 X0.0345 Y0.0987 I0.0026 J0.0117
G1 X0.0371 Y0.1104
X0.0377 Y0.113 Z-0.0415
X0.0383 Y0.1155 Z-0.0406
X0.0388 Y0.1177 Z-0.0392
X0.0392 Y0.1196 Z-0.0373
X0.0395 Y0.121 Z-0.035
X0.0397 Y0.1218 Z-0.0324
X0.0398 Y0.1221 Z-0.0298
G0 Z0.6
M5
G28 G91 Z0
G90

(Contour Center Clearing 2)
T2 M6
S10000 M3
G54
M7
G0 X0.0356 Y-0.1201
Z0.6
Z0.2
G1 Z0.1 F6
G2 X-0.0356 Y0.1201 Z0.0794 I-0.0356 J0.1201 F8
X0.0356 Y-0.1201 Z0.0588 I0.0356 J-0.1201
X-0.0356 Y0.1201 Z0.0381 I-0.0356 J0.1201
X0.0356 Y-0.1201 Z0.0175 I0.0356 J-0.1201
X-0.124 Y-0.018 Z0.0063 I-0.0356 J0.1201
X0 Y0.1253 Z-0.005 I0.124 J0.018
Y-0.1253 I0 J-0.1253 F18
Y0.1253 I0 J0.1253
X0.0865 Y0.0907 Z-0.01 I0 J-0.1253 F8
X-0.0865 Y-0.0907 I-0.0865 J-0.0907 F18
X0.0865 Y0.0907 I0.0865 J0.0907
X0.1252 Y0.0059 Z-0.015 I-0.0865 J-0.0907 F8
X-0.1252 Y-0.0059 I-0.1252 J-0.0059 F18
X0.1252 Y0.0059 I0.1252 J0.0059
X0.0947 Y-0.0821 Z-0.02 I-0.1252 J-0.0059 F8
X-0.0947 Y0.0821 I-0.0947 J0.0821 F18
X0.0947 Y-0.0821 I0.0947 J-0.0821
X0.0119 Y-0.1248 Z-0.025 I-0.0947 J0.0821 F8
X-0.0119 Y0.1248 I-0.0119 J0.1248 F18
X0.0119 Y-0.1248 I0.0119 J-0.1248
X-0.0776 Y-0.0985 Z-0.03 I-0.0119 J0.1248 F8
X0.0776 Y0.0985 I0.0776 J0.0985 F18
X-0.0776 Y-0.0985 I-0.0776 J-0.0985
X-0.1241 Y-0.0178 Z-0.035 I0.0776 J0.0985 F8
X0.1241 Y0.0177 I0.1241 J0.0178 F18
X-0.1241 Y-0.0177 I-0.1241 J-0.0177
X-0.102 Y0.0728 Z-0.04 I0.1241 J0.0177 F8
X0.102 Y-0.0728 I0.102 J-0.0728 F18
X-0.102 Y0.0728 I-0.102 J0.0728
X-0.0236 Y0.1231 Z-0.045 I0.102 J-0.0728 F8
X0.0236 Y-0.1231 I0.0236 J-0.1231 F18
X-0.0236 Y0.1231 I-0.0236 J0.1231
X0.0679 Y0.1054 Z-0.05 I0.0236 J-0.1231 F8
X-0.0679 Y-0.1054 I-0.0679 J-0.1054 F18
X0.0679 Y0.1054 I0.0679 J0.1054
X0.1219 Y0.0294 Z-0.055 I-0.0679 J-0.1054 F8
X-0.1219 Y-0.0294 I-0.1219 J-0.0294 F18
X0.1219 Y0.0294 I0.1219 J0.0294
X0.1085 Y-0.0628 Z-0.06 I-0.1219 J-0.0294 F8
X-0.1085 Y0.0628 I-0.1085 J0.0628 F18
X0.1085 Y-0.0628 I0.1085 J-0.0628
X0.0351 Y-0.1203 Z-0.065 I-0.1085 J0.0628 F8
X-0.0351 Y0.1203 I-0.0351 J0.1203 F18
X0.0351 Y-0.1203 I0.0351 J-0.1203
X-0.0576 Y-0.1113 Z-0.07 I-0.0351 J0.1203 F8
X0.0576 Y0.1113 I0.0576 J0.1113 F18
X-0.0576 Y-0.1113 I-0.0576 J-0.1113
X-0.1185 Y-0.0408 Z-0.075 I0.0576 J0.1113 F8
X0.1185 Y0.0408 I0.1185 J0.0408 F18
X-0.1185 Y-0.0408 I-0.1185 J-0.0408
X-0.1139 Y0.0523 Z-0.08 I0.1185 J0.0408 F8
X0.1139 Y-0.0523 I0.1139 J-0.0523 F18
X-0.1139 Y0.0523 I-0.1139 J0.0523
X-0.0464 Y0.1164 Z-0.085 I0.1139 J-0.0523 F8
X0.0463 Y-0.1164 I0.0464 J-0.1164 F18
X-0.0463 Y0.1164 I-0.0463 J0.1164
X0.0468 Y0.1162 Z-0.09 I0.0463 J-0.1164 F8
X-0.0468 Y-0.1162 I-0.0468 J-0.1162 F18
X0.0468 Y0.1162 I0.0468 J0.1162
X0.1141 Y0.0518 Z-0.095 I-0.0468 J-0.1162 F8
X-0.1141 Y-0.0518 I-0.1141 J-0.0518 F18
X0.1141 Y0.0518 I0.1141 J0.0518
X0.1183 Y-0.0413 Z-0.1 I-0.1141 J-0.0518 F8
X-0.1183 Y0.0413 I-0.1183 J0.0413 F18
X0.1183 Y-0.0413 I0.1183 J-0.0413
X0.0571 Y-0.1115 Z-0.105 I-0.1183 J0.0413 F8
X-0.0571 Y0.1115 I-0.0571 J0.1115 F18
X0.0571 Y-0.1115 I0.0571 J-0.1115
X-0.0356 Y-0.1201 Z-0.11 I-0.0571 J0.1115 F8
X0.0356 Y0.1201 I0.0356 J0.1201 F18
X-0.0356 Y-0.1201 I-0.0356 J-0.1201
X-0.1087 Y-0.0623 Z-0.115 I0.0356 J0.1201 F8
X0.1087 Y0.0623 I0.1087 J0.0623 F18
X-0.1087 Y-0.0623 I-0.1087 J-0.0623
X-0.125 Y-0.008 Z-0.118 I0.1087 J0.0623 F8
X0.125 Y0.008 I0.125 J0.008 F18
X-0.125 Y-0.008 I-0.125 J-0.008
X-0.1157 Y0.048 Z-0.121 I0.125 J0.008 F8
X0.1157 Y-0.048 I0.1157 J-0.048 F18
X-0.1157 Y0.048 I-0.1157 J0.048
G0 Z0.6
M9
G28 G91 Z0
G90
G28 G91 X0 Y0
G90
M30
%
