%
(Bezel_Insert_Top)
(T2  D=0.125 CR=0 - ZMIN=-0.092 - flat end mill)
G90
G17
G20
G28 G91 Z0
G90

(Face1 2)
T2 M6
S10000 M3
G54
G0 X1.0268 Y0.2665
Z0.6
Z0.2
G1 Z0.0104 F30
G18 G3 X1.0143 Z-0.0021 I-0.0125 K0
G1 X0.9846
X0.5154
X0.4236
G17 G2 Y0.3059 I0 J0.0197
G1 X1.0764 Y0.306
X1.1436
G3 Y0.3456 I0 J0.0198
G1 X0.3564
X0.3025
G2 Y0.3852 I0 J0.0198
G1 X1.1975
X1.2423
G3 Y0.4246 I0 J0.0197
G1 X0.2577 Y0.4247
X0.2195
G2 Y0.4643 I0 J0.0198
G1 X1.2805
X1.3133
G3 Y0.5039 I0 J0.0198
G1 X0.1867
X0.1584
G2 Y0.5433 I0 J0.0197
G1 X1.3416 Y0.5434
X1.3661
G3 Y0.583 I0 J0.0198
G1 X0.1339
X0.1126
G2 Y0.6226 I0 J0.0198
G1 X1.3874 Y0.6225
X1.4053
G3 Y0.6621 I0 J0.0198
G1 X0.0947
X0.0794
G2 Y0.7017 I0 J0.0198
G1 X1.4206
X1.4333
G3 Y0.7413 I0 J0.0198
G1 X0.0667 Y0.7412
X0.0566
G2 Y0.7808 I0 J0.0198
G1 X1.4434
X1.4511
G3 Y0.8204 I0 J0.0198
G1 X0.0489
X0.0434
G2 Y0.86 I0 J0.0198
G1 X1.4566 Y0.8599
X1.4599
G3 Y0.8995 I0 J0.0198
G1 X0.0401
X0.039
G2 Y0.9391 I0 J0.0198
G1 X1.461
G3 Y0.9785 I0 J0.0197
G1 X0.039 Y0.9786
G2 Y1.0182 I0 J0.0198
G1 X1.461
G3 Y1.0578 I0 J0.0198
G1 X0.039
G2 Y1.0972 I0 J0.0197
G1 X0.0399 Y1.0973
X1.4601
G3 Y1.1369 I0 J0.0198
G1 X1.4569
X0.0431
G2 Y1.1765 I0 J0.0198
G1 X0.0484
X1.4516
G3 Y1.2159 I0 J0.0197
G1 X1.4441 Y1.216
X0.0559
G2 Y1.2556 I0 J0.0198
G1 X0.0658
X1.4342
G3 Y1.2952 I0 J0.0198
G1 X1.4217 Y1.2951
X0.0783
G2 Y1.3347 I0 J0.0198
G1 X0.0934
X1.4066
G3 Y1.3743 I0 J0.0198
G1 X1.3889
X0.1111
G2 Y1.4139 I0 J0.0198
G1 X0.132 Y1.4138
X1.368
G3 Y1.4534 I0 J0.0198
G1 X1.3437
X0.1563
G2 Y1.493 I0 J0.0198
G1 X0.1842
X1.3158
G3 Y1.5324 I0 J0.0197
G1 X1.2832 Y1.5325
X0.2168
G2 Y1.5721 I0 J0.0198
G1 X0.2544
X1.2456
G3 Y1.6117 I0 J0.0198
G1 X1.2015
X0.2985
G2 Y1.6511 I0 J0.0197
G1 X0.3515 Y1.6512
X1.1485
G18 G2 X1.161 Z0.0104 I0 K0.0125
G0 Z0.2
X1.0268 Y0.2665
G1 Z0.0014 F30
G3 X1.0143 Z-0.0111 I-0.0125 K0
G1 X0.9846
X0.5154
X0.4236
G17 G2 Y0.3059 I0 J0.0197
G1 X1.0764 Y0.306
X1.1436
G3 Y0.3456 I0 J0.0198
G1 X0.3564
X0.3025
G2 Y0.3852 I0 J0.0198
G1 X1.1975
X1.2423
G3 Y0.4246 I0 J0.0197
G1 X0.2577 Y0.4247
X0.2195
G2 Y0.4643 I0 J0.0198
G1 X1.2805
X1.3133
G3 Y0.5039 I0 J0.0198
G1 X0.1867
X0.1584
G2 Y0.5433 I0 J0.0197
G1 X1.3416 Y0.5434
X1.3661
G3 Y0.583 I0 J0.0198
G1 X0.1339
X0.1126
G2 Y0.6226 I0 J0.0198
G1 X1.3874 Y0.6225
X1.4053
G3 Y0.6621 I0 J0.0198
G1 X0.0947
X0.0794
G2 Y0.7017 I0 J0.0198
G1 X1.4206
X1.4333
G3 Y0.7413 I0 J0.0198
G1 X0.0667 Y0.7412
X0.0566
G2 Y0.7808 I0 J0.0198
G1 X1.4434
X1.4511
G3 Y0.8204 I0 J0.0198
G1 X0.0489
X0.0434
G2 Y0.86 I0 J0.0198
G1 X1.4566 Y0.8599
X1.4599
G3 Y0.8995 I0 J0.0198
G1 X0.0401
X0.039
G2 Y0.9391 I0 J0.0198
G1 X1.461
G3 Y0.9785 I0 J0.0197
G1 X0.039 Y0.9786
G2 Y1.0182 I0 J0.0198
G1 X1.461
G3 Y1.0578 I0 J0.0198
G1 X0.039
G2 Y1.0972 I0 J0.0197
G1 X0.0399 Y1.0973
X1.4601
G3 Y1.1369 I0 J0.0198
G1 X1.4569
X0.0431
G2 Y1.1765 I0 J0.0198
G1 X0.0484
X1.4516
G3 Y1.2159 I0 J0.0197
G1 X1.4441 Y1.216
X0.0559
G2 Y1.2556 I0 J0.0198
G1 X0.0658
X1.4342
G3 Y1.2952 I0 J0.0198
G1 X1.4217 Y1.2951
X0.0783
G2 Y1.3347 I0 J0.0198
G1 X0.0934
X1.4066
G3 Y1.3743 I0 J0.0198
G1 X1.3889
X0.1111
G2 Y1.4139 I0 J0.0198
G1 X0.132 Y1.4138
X1.368
G3 Y1.4534 I0 J0.0198
G1 X1.3437
X0.1563
G2 Y1.493 I0 J0.0198
G1 X0.1842
X1.3158
G3 Y1.5324 I0 J0.0197
G1 X1.2832 Y1.5325
X0.2168
G2 Y1.5721 I0 J0.0198
G1 X0.2544
X1.2456
G3 Y1.6117 I0 J0.0198
G1 X1.2015
X0.2985
G2 Y1.6511 I0 J0.0197
G1 X0.3515 Y1.6512
X1.1485
G18 G2 X1.161 Z0.0014 I0 K0.0125
G0 Z0.2
X1.0268 Y0.2665
G1 Z-0.0076 F30
G3 X1.0143 Z-0.0201 I-0.0125 K0
G1 X0.9846
X0.5154
X0.4236
G17 G2 Y0.3059 I0 J0.0197
G1 X1.0764 Y0.306
X1.1436
G3 Y0.3456 I0 J0.0198
G1 X0.3564
X0.3025
G2 Y0.3852 I0 J0.0198
G1 X1.1975
X1.2423
G3 Y0.4246 I0 J0.0197
G1 X0.2577 Y0.4247
X0.2195
G2 Y0.4643 I0 J0.0198
G1 X1.2805
X1.3133
G3 Y0.5039 I0 J0.0198
G1 X0.1867
X0.1584
G2 Y0.5433 I0 J0.0197
G1 X1.3416 Y0.5434
X1.3661
G3 Y0.583 I0 J0.0198
G1 X0.1339
X0.1126
G2 Y0.6226 I0 J0.0198
G1 X1.3874 Y0.6225
X1.4053
G3 Y0.6621 I0 J0.0198
G1 X0.0947
X0.0794
G2 Y0.7017 I0 J0.0198
G1 X1.4206
X1.4333
G3 Y0.7413 I0 J0.0198
G1 X0.0667 Y0.7412
X0.0566
G2 Y0.7808 I0 J0.0198
G1 X1.4434
X1.4511
G3 Y0.8204 I0 J0.0198
G1 X0.0489
X0.0434
G2 Y0.86 I0 J0.0198
G1 X1.4566 Y0.8599
X1.4599
G3 Y0.8995 I0 J0.0198
G1 X0.0401
X0.039
G2 Y0.9391 I0 J0.0198
G1 X1.461
G3 Y0.9785 I0 J0.0197
G1 X0.039 Y0.9786
G2 Y1.0182 I0 J0.0198
G1 X1.461
G3 Y1.0578 I0 J0.0198
G1 X0.039
G2 Y1.0972 I0 J0.0197
G1 X0.0399 Y1.0973
X1.4601
G3 Y1.1369 I0 J0.0198
G1 X1.4569
X0.0431
G2 Y1.1765 I0 J0.0198
G1 X0.0484
X1.4516
G3 Y1.2159 I0 J0.0197
G1 X1.4441 Y1.216
X0.0559
G2 Y1.2556 I0 J0.0198
G1 X0.0658
X1.4342
G3 Y1.2952 I0 J0.0198
G1 X1.4217 Y1.2951
X0.0783
G2 Y1.3347 I0 J0.0198
G1 X0.0934
X1.4066
G3 Y1.3743 I0 J0.0198
G1 X1.3889
X0.1111
G2 Y1.4139 I0 J0.0198
G1 X0.132 Y1.4138
X1.368
G3 Y1.4534 I0 J0.0198
G1 X1.3437
X0.1563
G2 Y1.493 I0 J0.0198
G1 X0.1842
X1.3158
G3 Y1.5324 I0 J0.0197
G1 X1.2832 Y1.5325
X0.2168
G2 Y1.5721 I0 J0.0198
G1 X0.2544
X1.2456
G3 Y1.6117 I0 J0.0198
G1 X1.2015
X0.2985
G2 Y1.6511 I0 J0.0197
G1 X0.3515 Y1.6512
X1.1485
G18 G2 X1.161 Z-0.0076 I0 K0.0125
G0 Z0.2
X1.0268 Y0.2665
G1 Z-0.0166 F30
G3 X1.0143 Z-0.0291 I-0.0125 K0
G1 X0.9846
X0.5154
X0.4236
G17 G2 Y0.3059 I0 J0.0197
G1 X1.0764 Y0.306
X1.1436
G3 Y0.3456 I0 J0.0198
G1 X0.3564
X0.3025
G2 Y0.3852 I0 J0.0198
G1 X1.1975
X1.2423
G3 Y0.4246 I0 J0.0197
G1 X0.2577 Y0.4247
X0.2195
G2 Y0.4643 I0 J0.0198
G1 X1.2805
X1.3133
G3 Y0.5039 I0 J0.0198
G1 X0.1867
X0.1584
G2 Y0.5433 I0 J0.0197
G1 X1.3416 Y0.5434
X1.3661
G3 Y0.583 I0 J0.0198
G1 X0.1339
X0.1126
G2 Y0.6226 I0 J0.0198
G1 X1.3874 Y0.6225
X1.4053
G3 Y0.6621 I0 J0.0198
G1 X0.0947
X0.0794
G2 Y0.7017 I0 J0.0198
G1 X1.4206
X1.4333
G3 Y0.7413 I0 J0.0198
G1 X0.0667 Y0.7412
X0.0566
G2 Y0.7808 I0 J0.0198
G1 X1.4434
X1.4511
G3 Y0.8204 I0 J0.0198
G1 X0.0489
X0.0434
G2 Y0.86 I0 J0.0198
G1 X1.4566 Y0.8599
X1.4599
G3 Y0.8995 I0 J0.0198
G1 X0.0401
X0.039
G2 Y0.9391 I0 J0.0198
G1 X1.461
G3 Y0.9785 I0 J0.0197
G1 X0.039 Y0.9786
G2 Y1.0182 I0 J0.0198
G1 X1.461
G3 Y1.0578 I0 J0.0198
G1 X0.039
G2 Y1.0972 I0 J0.0197
G1 X0.0399 Y1.0973
X1.4601
G3 Y1.1369 I0 J0.0198
G1 X1.4569
X0.0431
G2 Y1.1765 I0 J0.0198
G1 X0.0484
X1.4516
G3 Y1.2159 I0 J0.0197
G1 X1.4441 Y1.216
X0.0559
G2 Y1.2556 I0 J0.0198
G1 X0.0658
X1.4342
G3 Y1.2952 I0 J0.0198
G1 X1.4217 Y1.2951
X0.0783
G2 Y1.3347 I0 J0.0198
G1 X0.0934
X1.4066
G3 Y1.3743 I0 J0.0198
G1 X1.3889
X0.1111
G2 Y1.4139 I0 J0.0198
G1 X0.132 Y1.4138
X1.368
G3 Y1.4534 I0 J0.0198
G1 X1.3437
X0.1563
G2 Y1.493 I0 J0.0198
G1 X0.1842
X1.3158
G3 Y1.5324 I0 J0.0197
G1 X1.2832 Y1.5325
X0.2168
G2 Y1.5721 I0 J0.0198
G1 X0.2544
X1.2456
G3 Y1.6117 I0 J0.0198
G1 X1.2015
X0.2985
G2 Y1.6511 I0 J0.0197
G1 X0.3515 Y1.6512
X1.1485
G18 G2 X1.161 Z-0.0166 I0 K0.0125
G0 Z0.2
X1.0268 Y0.2665
G1 Z-0.0256 F30
G3 X1.0143 Z-0.0381 I-0.0125 K0
G1 X0.9846
X0.5154
X0.4236
G17 G2 Y0.3059 I0 J0.0197
G1 X1.0764 Y0.306
X1.1436
G3 Y0.3456 I0 J0.0198
G1 X0.3564
X0.3025
G2 Y0.3852 I0 J0.0198
G1 X1.1975
X1.2423
G3 Y0.4246 I0 J0.0197
G1 X0.2577 Y0.4247
X0.2195
G2 Y0.4643 I0 J0.0198
G1 X1.2805
X1.3133
G3 Y0.5039 I0 J0.0198
G1 X0.1867
X0.1584
G2 Y0.5433 I0 J0.0197
G1 X1.3416 Y0.5434
X1.3661
G3 Y0.583 I0 J0.0198
G1 X0.1339
X0.1126
G2 Y0.6226 I0 J0.0198
G1 X1.3874 Y0.6225
X1.4053
G3 Y0.6621 I0 J0.0198
G1 X0.0947
X0.0794
G2 Y0.7017 I0 J0.0198
G1 X1.4206
X1.4333
G3 Y0.7413 I0 J0.0198
G1 X0.0667 Y0.7412
X0.0566
G2 Y0.7808 I0 J0.0198
G1 X1.4434
X1.4511
G3 Y0.8204 I0 J0.0198
G1 X0.0489
X0.0434
G2 Y0.86 I0 J0.0198
G1 X1.4566 Y0.8599
X1.4599
G3 Y0.8995 I0 J0.0198
G1 X0.0401
X0.039
G2 Y0.9391 I0 J0.0198
G1 X1.461
G3 Y0.9785 I0 J0.0197
G1 X0.039 Y0.9786
G2 Y1.0182 I0 J0.0198
G1 X1.461
G3 Y1.0578 I0 J0.0198
G1 X0.039
G2 Y1.0972 I0 J0.0197
G1 X0.0399 Y1.0973
X1.4601
G3 Y1.1369 I0 J0.0198
G1 X1.4569
X0.0431
G2 Y1.1765 I0 J0.0198
G1 X0.0484
X1.4516
G3 Y1.2159 I0 J0.0197
G1 X1.4441 Y1.216
X0.0559
G2 Y1.2556 I0 J0.0198
G1 X0.0658
X1.4342
G3 Y1.2952 I0 J0.0198
G1 X1.4217 Y1.2951
X0.0783
G2 Y1.3347 I0 J0.0198
G1 X0.0934
X1.4066
G3 Y1.3743 I0 J0.0198
G1 X1.3889
X0.1111
G2 Y1.4139 I0 J0.0198
G1 X0.132 Y1.4138
X1.368
G3 Y1.4534 I0 J0.0198
G1 X1.3437
X0.1563
G2 Y1.493 I0 J0.0198
G1 X0.1842
X1.3158
G3 Y1.5324 I0 J0.0197
G1 X1.2832 Y1.5325
X0.2168
G2 Y1.5721 I0 J0.0198
G1 X0.2544
X1.2456
G3 Y1.6117 I0 J0.0198
G1 X1.2015
X0.2985
G2 Y1.6511 I0 J0.0197
G1 X0.3515 Y1.6512
X1.1485
G18 G2 X1.161 Z-0.0256 I0 K0.0125
G0 Z0.2
X1.0268 Y0.2665
G1 Z-0.0346 F30
G3 X1.0143 Z-0.0471 I-0.0125 K0
G1 X0.9846
X0.5154
X0.4236
G17 G2 Y0.3059 I0 J0.0197
G1 X1.0764 Y0.306
X1.1436
G3 Y0.3456 I0 J0.0198
G1 X0.3564
X0.3025
G2 Y0.3852 I0 J0.0198
G1 X1.1975
X1.2423
G3 Y0.4246 I0 J0.0197
G1 X0.2577 Y0.4247
X0.2195
G2 Y0.4643 I0 J0.0198
G1 X1.2805
X1.3133
G3 Y0.5039 I0 J0.0198
G1 X0.1867
X0.1584
G2 Y0.5433 I0 J0.0197
G1 X1.3416 Y0.5434
X1.3661
G3 Y0.583 I0 J0.0198
G1 X0.1339
X0.1126
G2 Y0.6226 I0 J0.0198
G1 X1.3874 Y0.6225
X1.4053
G3 Y0.6621 I0 J0.0198
G1 X0.0947
X0.0794
G2 Y0.7017 I0 J0.0198
G1 X1.4206
X1.4333
G3 Y0.7413 I0 J0.0198
G1 X0.0667 Y0.7412
X0.0566
G2 Y0.7808 I0 J0.0198
G1 X1.4434
X1.4511
G3 Y0.8204 I0 J0.0198
G1 X0.0489
X0.0434
G2 Y0.86 I0 J0.0198
G1 X1.4566 Y0.8599
X1.4599
G3 Y0.8995 I0 J0.0198
G1 X0.0401
X0.039
G2 Y0.9391 I0 J0.0198
G1 X1.461
G3 Y0.9785 I0 J0.0197
G1 X0.039 Y0.9786
G2 Y1.0182 I0 J0.0198
G1 X1.461
G3 Y1.0578 I0 J0.0198
G1 X0.039
G2 Y1.0972 I0 J0.0197
G1 X0.0399 Y1.0973
X1.4601
G3 Y1.1369 I0 J0.0198
G1 X1.4569
X0.0431
G2 Y1.1765 I0 J0.0198
G1 X0.0484
X1.4516
G3 Y1.2159 I0 J0.0197
G1 X1.4441 Y1.216
X0.0559
G2 Y1.2556 I0 J0.0198
G1 X0.0658
X1.4342
G3 Y1.2952 I0 J0.0198
G1 X1.4217 Y1.2951
X0.0783
G2 Y1.3347 I0 J0.0198
G1 X0.0934
X1.4066
G3 Y1.3743 I0 J0.0198
G1 X1.3889
X0.1111
G2 Y1.4139 I0 J0.0198
G1 X0.132 Y1.4138
X1.368
G3 Y1.4534 I0 J0.0198
G1 X1.3437
X0.1563
G2 Y1.493 I0 J0.0198
G1 X0.1842
X1.3158
G3 Y1.5324 I0 J0.0197
G1 X1.2832 Y1.5325
X0.2168
G2 Y1.5721 I0 J0.0198
G1 X0.2544
X1.2456
G3 Y1.6117 I0 J0.0198
G1 X1.2015
X0.2985
G2 Y1.6511 I0 J0.0197
G1 X0.3515 Y1.6512
X1.1485
G18 G2 X1.161 Z-0.0346 I0 K0.0125
G0 Z0.2
X1.0268 Y0.2665
G1 Z-0.0436 F30
G3 X1.0143 Z-0.0561 I-0.0125 K0
G1 X0.9846
X0.5154
X0.4236
G17 G2 Y0.3059 I0 J0.0197
G1 X1.0764 Y0.306
X1.1436
G3 Y0.3456 I0 J0.0198
G1 X0.3564
X0.3025
G2 Y0.3852 I0 J0.0198
G1 X1.1975
X1.2423
G3 Y0.4246 I0 J0.0197
G1 X0.2577 Y0.4247
X0.2195
G2 Y0.4643 I0 J0.0198
G1 X1.2805
X1.3133
G3 Y0.5039 I0 J0.0198
G1 X0.1867
X0.1584
G2 Y0.5433 I0 J0.0197
G1 X1.3416 Y0.5434
X1.3661
G3 Y0.583 I0 J0.0198
G1 X0.1339
X0.1126
G2 Y0.6226 I0 J0.0198
G1 X1.3874 Y0.6225
X1.4053
G3 Y0.6621 I0 J0.0198
G1 X0.0947
X0.0794
G2 Y0.7017 I0 J0.0198
G1 X1.4206
X1.4333
G3 Y0.7413 I0 J0.0198
G1 X0.0667 Y0.7412
X0.0566
G2 Y0.7808 I0 J0.0198
G1 X1.4434
X1.4511
G3 Y0.8204 I0 J0.0198
G1 X0.0489
X0.0434
G2 Y0.86 I0 J0.0198
G1 X1.4566 Y0.8599
X1.4599
G3 Y0.8995 I0 J0.0198
G1 X0.0401
X0.039
G2 Y0.9391 I0 J0.0198
G1 X1.461
G3 Y0.9785 I0 J0.0197
G1 X0.039 Y0.9786
G2 Y1.0182 I0 J0.0198
G1 X1.461
G3 Y1.0578 I0 J0.0198
G1 X0.039
G2 Y1.0972 I0 J0.0197
G1 X0.0399 Y1.0973
X1.4601
G3 Y1.1369 I0 J0.0198
G1 X1.4569
X0.0431
G2 Y1.1765 I0 J0.0198
G1 X0.0484
X1.4516
G3 Y1.2159 I0 J0.0197
G1 X1.4441 Y1.216
X0.0559
G2 Y1.2556 I0 J0.0198
G1 X0.0658
X1.4342
G3 Y1.2952 I0 J0.0198
G1 X1.4217 Y1.2951
X0.0783
G2 Y1.3347 I0 J0.0198
G1 X0.0934
X1.4066
G3 Y1.3743 I0 J0.0198
G1 X1.3889
X0.1111
G2 Y1.4139 I0 J0.0198
G1 X0.132 Y1.4138
X1.368
G3 Y1.4534 I0 J0.0198
G1 X1.3437
X0.1563
G2 Y1.493 I0 J0.0198
G1 X0.1842
X1.3158
G3 Y1.5324 I0 J0.0197
G1 X1.2832 Y1.5325
X0.2168
G2 Y1.5721 I0 J0.0198
G1 X0.2544
X1.2456
G3 Y1.6117 I0 J0.0198
G1 X1.2015
X0.2985
G2 Y1.6511 I0 J0.0197
G1 X0.3515 Y1.6512
X1.1485
G18 G2 X1.161 Z-0.0436 I0 K0.0125
G0 Z0.6
G17

(Contour Center Clearing 7)
G0 X0.0463 Y1.3211
Z0.6
Z0.2
G1 Z0.1 F30
G2 X1.5235 Y1 Z-0.01 I0.7037 J-0.3211
X-0.0235 I-0.7735 J0
X1.5235 I0.7735 J0
X1.5001 Y0.8111 Z-0.02 I-0.7735 J0
X-0.0001 Y1.1889 I-0.7501 J0.1889
X1.5001 Y0.8111 I0.7501 J-0.1889
X1.4313 Y0.6337 Z-0.03 I-0.7501 J0.1889
X0.0687 Y1.3663 I-0.6813 J0.3663
X1.4313 Y0.6337 I0.6813 J-0.3663
X1.3212 Y0.4784 Z-0.04 I-0.6813 J0.3663
X0.1788 Y1.5216 I-0.5712 J0.5216
X1.3212 Y0.4784 I0.5712 J-0.5216
X1.1765 Y0.3547 Z-0.05 I-0.5712 J0.5216
X0.3235 Y1.6453 I-0.4265 J0.6453
X1.1765 Y0.3547 I0.4265 J-0.6453
X1.006 Y0.2701 Z-0.06 I-0.4265 J0.6453
X0.494 Y1.7299 I-0.256 J0.7299
X1.006 Y0.2701 I0.256 J-0.7299
X0.82 Y0.2297 Z-0.07 I-0.256 J0.7299
X0.68 Y1.7703 I-0.07 J0.7703
X0.82 Y0.2297 I0.07 J-0.7703
X0.6298 Y0.2359 Z-0.08 I-0.07 J0.7703
X0.8702 Y1.7641 I0.1202 J0.7641
X0.6298 Y0.2359 I-0.1202 J-0.7641
X0.5551 Y0.2515 Z-0.084 I0.1202 J0.7641
X0.9449 Y1.7485 I0.1949 J0.7485
X0.5551 Y0.2515 I-0.1949 J-0.7485
G0 Y0.2514 Z0.6

(Contour Center Clearing 8)
X0.7275 Y0.4519
Z0.6
Z0.2
G1 Z0.1 F30
G3 X0.7724 Y1.5481 Z0.0097 I0.0225 J0.5481
X0.4209 Y1.4388 Z-0.01 I-0.0224 J-0.5481
X1.0791 Y0.5612 I0.3291 J-0.4388
X0.4209 Y1.4388 I-0.3291 J0.4388
X0.291 Y1.3003 Z-0.02 I0.3291 J-0.4388
X1.209 Y0.6996 I0.459 J-0.3003
X0.291 Y1.3004 I-0.459 J0.3004
X0.2161 Y1.1259 Z-0.03 I0.459 J-0.3004
X1.2839 Y0.8741 I0.5339 J-0.1259
X0.2161 Y1.1259 I-0.5339 J0.1259
X0.2052 Y0.9364 Z-0.04 I0.5339 J-0.1259
X1.2948 Y1.0636 I0.5448 J0.0636
X0.2052 Y0.9364 I-0.5448 J-0.0636
X0.2595 Y0.7545 Z-0.05 I0.5448 J0.0636
X1.2405 Y1.2455 I0.4905 J0.2455
X0.2595 Y0.7545 I-0.4905 J-0.2455
X0.3725 Y0.602 Z-0.06 I0.4905 J0.2455
X1.1275 Y1.398 I0.3775 J0.398
X0.3725 Y0.602 I-0.3775 J-0.398
X0.5308 Y0.4972 Z-0.07 I0.3775 J0.398
X0.9692 Y1.5028 I0.2192 J0.5028
X0.5308 Y0.4972 I-0.2192 J-0.5028
X0.7153 Y0.4526 Z-0.08 I0.2192 J0.5028
X0.7847 Y1.5474 I0.0347 J0.5474
X0.7153 Y0.4526 I-0.0347 J-0.5474
X0.8294 Y0.4573 Z-0.086 I0.0347 J0.5474
X0.6706 Y1.5427 I-0.0794 J0.5427
X0.8294 Y0.4573 I0.0794 J-0.5427
X0.9402 Y0.4855 Z-0.092 I-0.0794 J0.5427
X0.5598 Y1.5145 I-0.1902 J0.5145
X0.9402 Y0.4855 I0.1902 J-0.5145
G0 Y0.4854 Z0.6

(Parallel7 2)
M7
X0.7873 Y0.2271
Z0.6
Z0.0044
G1 Z-0.0795 F20
G18 G3 X0.7748 Z-0.092 I-0.0125 K0
G1 Z-0.084
X0.7525 Z-0.0837
X0.7205 Z-0.084
Z-0.092
X0.7091 Y0.2278
X0.6921 Y0.2288
X0.6864 Y0.2291
X0.6807 Y0.2297
X0.6524 Y0.2327
X0.6467 Y0.2335
X0.6298 Y0.2361
Z-0.084
X0.654 Z-0.0821
X0.6911 Z-0.0801
X0.7264 Z-0.0791
X0.761 Z-0.079
X0.7945 Z-0.0796
X0.8308 Z-0.0812
X0.8711 Z-0.084
Z-0.092
X0.877 Y0.2371
X0.9003 Y0.2413
X0.9061 Y0.2425
X0.9119 Y0.2438
X0.9177 Y0.2451
Z-0.084
X0.8992 Z-0.0819
X0.8647 Z-0.0787
X0.8305 Z-0.0764
X0.7987 Z-0.0751
X0.7647 Z-0.0745
X0.7204 Z-0.0748
X0.6961 Z-0.0753
X0.6646 Z-0.0767
X0.6308 Z-0.0791
X0.6032 Z-0.0817
X0.5817 Z-0.084
Z-0.092
X0.5726 Y0.2472
X0.5454 Y0.2541
Z-0.084
X0.565 Z-0.0814
X0.5872 Z-0.0787
X0.6092 Z-0.0764
X0.6283 Z-0.0748
X0.6615 Z-0.0729
X0.6905 Z-0.0717
X0.7196 Z-0.0709
X0.7639 Z-0.0707
X0.7945 Z-0.0712
X0.8273 Z-0.0723
X0.8578 Z-0.074
X0.8785 Z-0.0754
X0.8971 Z-0.077
X0.9329 Z-0.0811
X0.954 Z-0.084
Z-0.092
X0.9617 Y0.2562
X0.9694 Y0.2584
X0.977 Y0.2606
X0.9846 Y0.2631
Z-0.084
X0.9658 Z-0.0811
X0.93 Z-0.0761
X0.8949 Z-0.0728
X0.8611 Z-0.0703
X0.8301 Z-0.0687
X0.7954 Z-0.0678
X0.7571 Z-0.0673
X0.7188 Z-0.0675
X0.6924 Z-0.0681
X0.6626 Z-0.069
X0.6295 Z-0.071
X0.5964 Z-0.0735
X0.5684 Z-0.0763
X0.5343 Z-0.081
X0.5154 Z-0.084
Z-0.092
X0.5087 Y0.2651
X0.5021 Y0.2674
X0.4955 Y0.2697
X0.489 Y0.2721
Z-0.084
X0.5015 Z-0.0817
X0.5353 Z-0.0762
X0.5642 Z-0.0729
X0.6018 Z-0.0693
X0.6283 Z-0.0677
X0.6608 Z-0.0662
X0.6927 Z-0.0651
X0.7196 Z-0.0646
X0.7579 Z-0.0644
X0.7962 Z-0.0648
X0.8243 Z-0.0656
X0.8559 Z-0.0669
X0.8937 Z-0.0689
X0.9257 Z-0.0719
X0.9602 Z-0.0756
X0.9721 Z-0.0774
X1.0115 Z-0.084
X1.0116 Z-0.092
X1.035 Y0.2811
Z-0.084
X1 Z-0.0774
X0.9878 Z-0.0755
X0.9571 Z-0.0716
X0.9298 Z-0.0686
X0.8885 Z-0.0657
X0.8542 Z-0.0639
X0.8281 Z-0.063
X0.7866 Z-0.0623
X0.7325 Z-0.0621
X0.6848 Z-0.0627
X0.6534 Z-0.0636
X0.6276 Z-0.0648
X0.597 Z-0.0667
X0.5656 Z-0.0691
X0.532 Z-0.0729
X0.507 Z-0.0762
X0.4702 Z-0.0829
X0.465 Z-0.084
Z-0.092
X0.443 Y0.2901
Z-0.084
X0.4645 Z-0.0796
X0.4823 Z-0.0762
X0.4995 Z-0.0736
X0.5338 Z-0.069
X0.5654 Z-0.0662
X0.5995 Z-0.0637
X0.6287 Z-0.0623
X0.6671 Z-0.061
X0.7142 Z-0.0602
X0.7684 Z-0.06
X0.8145 Z-0.0606
X0.8528 Z-0.0617
X0.8939 Z-0.0633
X0.9198 Z-0.065
X0.9628 Z-0.0687
X0.9879 Z-0.0718
X1.0136 Z-0.0755
X1.0318 Z-0.0789
X1.0566 Z-0.084
X1.0567 Z-0.092
X1.0618 Y0.2923
X1.072 Y0.2968
X1.0771 Y0.2991
Z-0.084
X1.0439 Z-0.0769
X1.0352 Z-0.0752
X1.0121 Z-0.0717
X0.9912 Z-0.0687
X0.9506 Z-0.0647
X0.9318 Z-0.0632
X0.8841 Z-0.0608
X0.8512 Z-0.0595
X0.7921 Z-0.0587
X0.702
X0.6475 Z-0.0596
X0.6002 Z-0.0615
X0.5631 Z-0.0636
X0.5337 Z-0.0662
X0.5052 Z-0.0691
X0.4676 Z-0.0748
X0.4583 Z-0.0765
X0.4346 Z-0.0815
X0.4233 Z-0.084
Z-0.092
X0.409 Y0.3058
X0.4043 Y0.3081
Z-0.084
X0.4393 Z-0.076
X0.4798 Z-0.0693
X0.5022 Z-0.0667
X0.5312 Z-0.0637
X0.5593 Z-0.0618
X0.5968 Z-0.0597
X0.6433 Z-0.0584
X0.7025 Z-0.0574
X0.7876
X0.8443 Z-0.0581
X0.8966 Z-0.0594
X0.9162 Z-0.0603
X0.9634 Z-0.0632
X0.981 Z-0.0649
X1.018 Z-0.069
X1.0576 Z-0.0754
X1.0702 Z-0.0781
X1.0953 Z-0.084
Z-0.092
X1.1043 Y0.3125
X1.1131 Y0.3171
Z-0.084
X1.0809 Z-0.0763
X1.0585 Z-0.0721
X1.0376 Z-0.0687
X1.0084 Z-0.0651
X0.991 Z-0.0633
X0.9446 Z-0.06
X0.9306 Z-0.0593
X0.8752 Z-0.0576
X0.8512 Z-0.057
X0.7273 Z-0.0566
X0.6379 Z-0.0572
X0.5807 Z-0.0589
X0.5586 Z-0.0598
X0.5118 Z-0.063
X0.5015 Z-0.064
X0.4707 Z-0.0676
X0.4581 Z-0.0693
X0.4356 Z-0.0732
X0.4191 Z-0.0763
X0.4006 Z-0.0807
X0.3872 Z-0.084
Z-0.092
X0.3788 Y0.3215
X0.3705 Y0.3261
Z-0.084
X0.3991 Z-0.0768
X0.4065 Z-0.0751
X0.4407 Z-0.0688
X0.4814 Z-0.0635
X0.5268 Z-0.0599
X0.538 Z-0.0593
X0.5945 Z-0.0572
X0.67 Z-0.0564
X0.7979 Z-0.0562
X0.9023 Z-0.0571
X0.9561 Z-0.059
X0.9719 Z-0.0598
X1.0172 Z-0.0634
X1.0582 Z-0.0687
X1.0684 Z-0.0704
X1.0952 Z-0.0755
X1.1058 Z-0.078
X1.1293 Z-0.084
Z-0.092
X1.1372 Y0.3305
X1.1451 Y0.3351
Z-0.084
X1.1141 Z-0.0758
X1.079 Z-0.0689
X1.0403 Z-0.0636
X1.0017 Z-0.0602
X0.9905 Z-0.0594
X0.9375 Z-0.0571
X0.8591 Z-0.0561
X0.8579 Z-0.0551
X0.857 Z-0.0539
X0.8565 Z-0.0525
X0.8563 Z-0.051
X0.8566 Z-0.0477
X0.8574 Y0.3353 Z-0.0445
X0.8588 Y0.3356 Z-0.0416
X0.8606 Y0.3359 Z-0.0389
X0.8629 Y0.3364 Z-0.0366
X0.8655 Y0.3369 Z-0.0347
X0.8684 Y0.3375 Z-0.0333
X0.8715 Y0.3381 Z-0.0325
X0.8747 Y0.3387 Z-0.0322
X0.884 Y0.3405
X0.8872 Y0.3411 Z-0.0325
X0.8903 Y0.3417 Z-0.0333
X0.8932 Y0.3423 Z-0.0347
X0.8958 Y0.3428 Z-0.0366
X0.8981 Y0.3432 Z-0.0389
X0.8999 Y0.3436 Z-0.0416
X0.9013 Y0.3439 Z-0.0445
X0.9021 Y0.344 Z-0.0477
X0.9024 Y0.3441 Z-0.051
Z-0.0521
X0.9026 Z-0.0536
X0.9034 Z-0.055
X0.9045 Z-0.0561
X0.9667 Z-0.0571
X1.0176 Z-0.0596
X1.0567 Z-0.0632
X1.065 Z-0.0643
X1.094 Z-0.0686
X1.1036 Z-0.0703
X1.1278 Z-0.0754
X1.1377 Z-0.0779
X1.1596 Z-0.084
Z-0.092
X1.1668 Y0.3486
X1.174 Y0.3531
Z-0.084
X1.1446 Z-0.0757
X1.1118 Z-0.0687
X1.0762 Z-0.0633
X1.0373 Z-0.0595
X0.9916 Z-0.0571
X0.9387 Z-0.0561
X0.9379 Z-0.0545
X0.9377 Z-0.0527
X0.938 Y0.3532 Z-0.0498
X0.9388 Y0.3534 Z-0.047
X0.9401 Y0.3538 Z-0.0445
X0.9418 Y0.3544 Z-0.0422
X0.944 Y0.3551 Z-0.0404
X0.9464 Y0.3559 Z-0.039
X0.9491 Y0.3567 Z-0.0381
X0.9519 Y0.3576 Z-0.0378
X0.9546 Y0.3585 Z-0.0381
X0.9573 Y0.3593 Z-0.039
X0.9597 Y0.3601 Z-0.0404
X0.9619 Y0.3608 Z-0.0422
X0.9636 Y0.3613 Z-0.0445
X0.965 Y0.3617 Z-0.047
X0.9658 Y0.362 Z-0.0498
X0.966 Y0.3621 Z-0.0527
X0.9663 Z-0.0545
X0.967 Z-0.0561
X1.0148 Z-0.0571
X1.058 Z-0.0596
X1.0954 Z-0.0636
X1.1264 Z-0.0686
X1.1331 Z-0.0699
X1.1576 Z-0.0754
X1.1669 Z-0.078
X1.1871 Z-0.084
Z-0.092
X1.1937 Y0.3666
X1.2002 Y0.3711
Z-0.084
X1.1725 Z-0.0756
X1.142 Z-0.0687
X1.1097 Z-0.0633
X1.0748 Z-0.0595
X1.0356 Z-0.0571
X0.9918 Z-0.0561
X0.991 Z-0.0545
X0.9908 Z-0.0527
X0.9911 Y0.3712 Z-0.05
X0.9919 Y0.3715 Z-0.0475
X0.9932 Y0.3721 Z-0.0452
X0.995 Y0.3728 Z-0.0432
X0.9972 Y0.3736 Z-0.0418
X0.9995 Y0.3746 Z-0.0409
X1.0021 Y0.3756 Z-0.0406
X1.0046 Y0.3766 Z-0.0409
X1.0069 Y0.3775 Z-0.0418
X1.0091 Y0.3784 Z-0.0432
X1.0109 Y0.3791 Z-0.0452
X1.0122 Y0.3796 Z-0.0475
X1.013 Y0.38 Z-0.05
X1.0133 Y0.3801 Z-0.0527
X1.0136 Z-0.0545
X1.0143 Z-0.0561
X1.055 Z-0.0571
X1.0922 Z-0.0595
X1.1265 Z-0.0635
X1.1517 Z-0.0679
X1.1596 Z-0.0694
X1.1843 Z-0.0754
X1.1934 Z-0.078
X1.2123 Z-0.084
Z-0.092
X1.2183 Y0.3846
X1.2242 Y0.3891
X1.224 Z-0.084
X1.1987 Z-0.0758
X1.1696 Z-0.0687
X1.1395 Z-0.0633
X1.1074 Z-0.0595
X1.072 Z-0.0571
X1.0344 Z-0.0561
X1.0336 Z-0.0545
X1.0334 Z-0.0527
X1.0337 Y0.3892 Z-0.0503
X1.0344 Y0.3896 Z-0.0479
X1.0357 Y0.3902 Z-0.0459
X1.0374 Y0.391 Z-0.0443
X1.0393 Y0.392 Z-0.0431
X1.0415 Y0.393 Z-0.0425
X1.0437 Y0.3941
X1.0459 Y0.3952 Z-0.0431
X1.0479 Y0.3961 Z-0.0443
X1.0495 Y0.397 Z-0.0459
X1.0508 Y0.3976 Z-0.0479
X1.0516 Y0.398 Z-0.0503
X1.0519 Y0.3981 Z-0.0527
X1.0521 Z-0.0545
X1.0529 Z-0.0561
X1.0887 Z-0.057
X1.122 Z-0.0594
X1.1545 Z-0.0635
X1.1836 Z-0.0689
X1.2095 Z-0.0755
X1.2357 Z-0.084
Z-0.092
X1.2411 Y0.4026
X1.2464 Y0.4071
Z-0.084
X1.2243 Z-0.0765
X1.2183 Z-0.0748
X1.1946 Z-0.0686
X1.1665 Z-0.0634
X1.1366 Z-0.0595
X1.1042 Z-0.0571
X1.0705 Z-0.0561
X1.0697 Z-0.0545
X1.0695 Z-0.0527
X1.0697 Y0.4072 Z-0.0504
X1.0705 Y0.4077 Z-0.0482
X1.0718 Y0.4084 Z-0.0463
X1.0734 Y0.4093 Z-0.0449
X1.0753 Y0.4104 Z-0.0439
X1.0773 Y0.4116 Z-0.0436
X1.0794 Y0.4127 Z-0.0439
X1.0813 Y0.4138 Z-0.0449
X1.0829 Y0.4148 Z-0.0463
X1.0842 Y0.4155 Z-0.0482
X1.085 Y0.4159 Z-0.0504
X1.0852 Y0.4161 Z-0.0527
X1.0855 Z-0.0545
X1.0862 Z-0.0561
X1.1182 Z-0.057
X1.1495 Z-0.0594
X1.1798 Z-0.0634
X1.2063 Z-0.0687
X1.2323 Z-0.0755
X1.2571 Z-0.084
X1.2572 Z-0.092
X1.2623 Y0.4205
X1.2672 Y0.4251
Z-0.084
X1.2476 Z-0.0771
X1.2419 Z-0.0752
X1.2183 Z-0.0688
X1.1907 Z-0.0633
X1.1634 Z-0.0595
X1.1319 Z-0.057
X1.1018 Z-0.0561
X1.101 Z-0.0545
X1.1008 Z-0.0527
X1.101 Y0.4252 Z-0.0506
X1.1017 Y0.4257 Z-0.0486
X1.1028 Y0.4264 Z-0.0469
X1.1043 Y0.4273 Z-0.0455
X1.1059 Y0.4284 Z-0.0447
X1.1077 Y0.4296 Z-0.0444
X1.1095 Y0.4307 Z-0.0447
X1.1112 Y0.4318 Z-0.0455
X1.1127 Y0.4328 Z-0.0469
X1.1138 Y0.4335 Z-0.0486
X1.1145 Y0.4339 Z-0.0506
X1.1147 Y0.4341 Z-0.0527
X1.1149 Z-0.0545
X1.1157 Z-0.0561
X1.1459 Z-0.0571
X1.1744 Z-0.0594
X1.2035 Z-0.0635
X1.2283 Z-0.0686
X1.2536 Z-0.0756
X1.277 Z-0.084
Z-0.092
X1.2819 Y0.4386
X1.2868 Y0.4431
X1.2867 Z-0.084
X1.263 Z-0.0755
X1.2399 Z-0.0689
X1.2137 Z-0.0634
X1.187 Z-0.0595
X1.1587 Z-0.0571
X1.1296 Z-0.0561
X1.1289 Z-0.0545
X1.1286 Z-0.0527
X1.1289 Y0.4433 Z-0.0505
X1.1296 Y0.4438 Z-0.0485
X1.1308 Y0.4446 Z-0.0469
X1.1323 Y0.4457 Z-0.0457
X1.134 Y0.4469 Z-0.0451
X1.1358 Y0.4482
X1.1375 Y0.4494 Z-0.0457
X1.139 Y0.4505 Z-0.0469
X1.1402 Y0.4514 Z-0.0485
X1.1409 Y0.4519 Z-0.0505
X1.1412 Y0.4521 Z-0.0527
X1.1414 Z-0.0545
X1.1422 Z-0.0561
X1.1708 Z-0.0571
X1.1981 Z-0.0595
X1.2246 Z-0.0634
X1.249 Z-0.0687
X1.2743 Z-0.076
X1.2957 Z-0.084
Z-0.092
X1.3002 Y0.4566
X1.3046 Y0.4611
Z-0.084
X1.2822 Z-0.0755
X1.2586 Z-0.0687
X1.2342 Z-0.0633
X1.2091 Z-0.0595
X1.1821 Z-0.0571
X1.1547 Z-0.0561
X1.1539 Z-0.0545
X1.1536 Z-0.0527
X1.1539 Y0.4613 Z-0.0507
X1.1546 Y0.4618 Z-0.0488
X1.1556 Y0.4626 Z-0.0472
X1.157 Y0.4637 Z-0.046
X1.1586 Y0.4649 Z-0.0455
X1.1603 Y0.4662
X1.1618 Y0.4674 Z-0.046
X1.1632 Y0.4685 Z-0.0472
X1.1643 Y0.4694 Z-0.0488
X1.165 Y0.4699 Z-0.0507
X1.1652 Y0.4701 Z-0.0527
X1.1655 Z-0.0545
X1.1662 Z-0.0561
X1.1928 Z-0.057
X1.2194 Z-0.0595
X1.2442 Z-0.0634
X1.2681 Z-0.0687
X1.291 Z-0.0755
X1.3133 Z-0.084
X1.3135 Z-0.092
X1.3215 Y0.4791
Z-0.084
X1.3006 Z-0.0758
X1.2769 Z-0.0686
X1.2538 Z-0.0634
X1.2292 Z-0.0595
X1.2033 Z-0.057
X1.1775 Z-0.0561
X1.1767 Z-0.0545
X1.1764 Z-0.0527
X1.1767 Y0.4793 Z-0.0507
X1.1773 Y0.4798 Z-0.0489
X1.1783 Y0.4806 Z-0.0474
X1.1796 Y0.4817 Z-0.0463
X1.1811 Y0.4829 Z-0.0457
X1.1826 Y0.4842
X1.1841 Y0.4854 Z-0.0463
X1.1854 Y0.4865 Z-0.0474
X1.1864 Y0.4874 Z-0.0489
X1.1871 Y0.4879 Z-0.0507
X1.1873 Y0.4881 Z-0.0527
X1.1876 Z-0.0545
X1.1883 Z-0.0561
X1.2134 Z-0.057
X1.2387 Z-0.0595
X1.2627 Z-0.0633
X1.2867 Z-0.0689
X1.308 Z-0.0755
X1.3295 Z-0.084
X1.3296 Z-0.092
X1.3337 Y0.4926
X1.3377 Y0.4971
X1.3376 Z-0.084
X1.3161 Z-0.0755
X1.2946 Z-0.0687
X1.2715 Z-0.0633
X1.2475 Z-0.0594
X1.2237 Z-0.0571
X1.1984 Z-0.0561
X1.1977 Z-0.0545
X1.1974 Z-0.0527
X1.1976 Y0.4973 Z-0.0508
X1.1982 Y0.4978 Z-0.0491
X1.1992 Y0.4986 Z-0.0476
X1.2004 Y0.4997 Z-0.0466
X1.2017 Y0.5009 Z-0.046
X1.2032 Y0.5022
X1.2046 Y0.5034 Z-0.0466
X1.2058 Y0.5045 Z-0.0476
X1.2067 Y0.5054 Z-0.0491
X1.2073 Y0.5059 Z-0.0508
X1.2075 Y0.5061 Z-0.0527
X1.2078 Z-0.0545
X1.2085 Z-0.0561
X1.233 Z-0.0571
X1.2562 Z-0.0594
X1.2799 Z-0.0633
X1.3026 Z-0.0687
X1.3245 Z-0.0756
X1.345 Z-0.084
Z-0.092
X1.3487 Y0.5106
X1.3524 Y0.5151
X1.3523 Z-0.084
X1.3316 Z-0.0755
X1.311 Z-0.0688
X1.2885 Z-0.0634
X1.2657 Z-0.0595
X1.2414 Z-0.057
X1.2179 Z-0.0561
X1.2171 Z-0.0545
X1.2169 Z-0.0527
X1.217 Y0.5153 Z-0.0509
X1.2176 Y0.5158 Z-0.0492
X1.2184 Y0.5166 Z-0.0479
X1.2195 Y0.5177 Z-0.0469
X1.2208 Y0.5189 Z-0.0464
X1.2221 Y0.5202
X1.2233 Y0.5214 Z-0.0469
X1.2244 Y0.5225 Z-0.0479
X1.2253 Y0.5234 Z-0.0492
X1.2258 Y0.5239 Z-0.0509
X1.226 Y0.5241 Z-0.0527
X1.2263 Z-0.0545
X1.227 Z-0.0561
X1.2503 Z-0.057
X1.2738 Z-0.0595
X1.2965 Z-0.0634
X1.3181 Z-0.0687
X1.3389 Z-0.0755
X1.3597 Z-0.084
Z-0.092
X1.3631 Y0.5286
X1.3665 Y0.5331
X1.3664 Z-0.084
X1.3463 Z-0.0755
X1.3254 Z-0.0687
X1.3041 Z-0.0634
X1.2813 Z-0.0594
X1.2593 Z-0.0571
X1.2361 Z-0.0561
X1.2353 Z-0.0545
X1.2351 Z-0.0527
X1.2353 Y0.5333 Z-0.0508
X1.2358 Y0.5339 Z-0.0491
X1.2367 Y0.5349 Z-0.0478
X1.2379 Y0.5362 Z-0.0469
X1.2392 Y0.5376 Z-0.0466
X1.2404 Y0.539 Z-0.0469
X1.2416 Y0.5402 Z-0.0478
X1.2425 Y0.5412 Z-0.0491
X1.2431 Y0.5419 Z-0.0508
X1.2433 Y0.5421 Z-0.0527
X1.2435 Z-0.0545
X1.2443 Z-0.0561
X1.2672 Z-0.0571
X1.2891 Z-0.0594
X1.3114 Z-0.0633
X1.3331 Z-0.0688
X1.353 Z-0.0754
X1.3731 Z-0.084
Z-0.092
X1.3765 Y0.5466
X1.3798 Y0.5511
X1.3797 Z-0.084
X1.3597 Z-0.0755
X1.3395 Z-0.0686
X1.3187 Z-0.0633
X1.2975 Z-0.0595
X1.275 Z-0.0571
X1.2526 Z-0.0561
X1.2518 Z-0.0545
X1.2515 Z-0.0527
X1.2517 Y0.5513 Z-0.0509
X1.2523 Y0.5519 Z-0.0492
X1.2532 Y0.5529 Z-0.0478
X1.2543 Y0.5542 Z-0.047
X1.2556 Y0.5556 Z-0.0467
X1.2568 Y0.557 Z-0.047
X1.2579 Y0.5582 Z-0.0478
X1.2588 Y0.5592 Z-0.0492
X1.2594 Y0.5599 Z-0.0509
X1.2596 Y0.5601 Z-0.0527
X1.2598 Z-0.0545
X1.2606 Z-0.0561
X1.2825 Z-0.0571
X1.3049 Z-0.0595
X1.3256 Z-0.0633
X1.3463 Z-0.0687
X1.3663 Z-0.0754
X1.386 Z-0.084
X1.3861 Z-0.092
X1.3891 Y0.5646
X1.3921 Y0.5691
Z-0.084
X1.3726 Z-0.0755
X1.3529 Z-0.0686
X1.3323 Z-0.0633
X1.3118 Z-0.0595
X1.2898 Z-0.0571
X1.268 Z-0.0561
X1.2672 Z-0.0545
X1.267 Z-0.0527
X1.2672 Y0.5693 Z-0.0509
X1.2677 Y0.5699 Z-0.0493
X1.2685 Y0.5709 Z-0.048
X1.2696 Y0.5722 Z-0.0472
X1.2707 Y0.5736 Z-0.0469
X1.2719 Y0.575 Z-0.0472
X1.2729 Y0.5762 Z-0.048
X1.2737 Y0.5772 Z-0.0493
X1.2743 Y0.5779 Z-0.0509
X1.2744 Y0.5781 Z-0.0527
X1.2747 Z-0.0545
X1.2754 Z-0.0561
X1.2968 Z-0.0571
X1.3185 Z-0.0595
X1.339 Z-0.0633
X1.3595 Z-0.0687
X1.3786 Z-0.0754
X1.3981 Z-0.084
Z-0.092
X1.4011 Y0.5825
X1.404 Y0.5871
X1.4039 Z-0.084
X1.3842 Z-0.0752
X1.3653 Z-0.0687
X1.3453 Z-0.0633
X1.3253 Z-0.0595
X1.3036 Z-0.0571
X1.2826 Z-0.0561
X1.2819 Z-0.0545
X1.2816 Z-0.0527
X1.2818 Y0.5873 Z-0.051
X1.2823 Y0.5879 Z-0.0494
X1.283 Y0.5889 Z-0.0482
X1.2839 Y0.5902 Z-0.0474
X1.285 Y0.5916 Z-0.0471
X1.286 Y0.593 Z-0.0474
X1.2869 Y0.5942 Z-0.0482
X1.2877 Y0.5952 Z-0.0494
X1.2881 Y0.5959 Z-0.051
X1.2883 Y0.5961 Z-0.0527
X1.2886 Z-0.0545
X1.2893 Z-0.0561
X1.3102 Z-0.0571
X1.3314 Z-0.0595
X1.3513 Z-0.0633
X1.3713 Z-0.0686
X1.3905 Z-0.0755
X1.4094 Z-0.084
Z-0.092
X1.4122 Y0.6006
X1.4149 Y0.6051
X1.4148 Z-0.084
X1.3963 Z-0.0756
X1.3772 Z-0.0687
X1.3574 Z-0.0633
X1.3368 Z-0.0594
X1.3168 Z-0.0571
X1.296 Z-0.0561
X1.2952 Z-0.0545
X1.295 Z-0.0527
X1.2951 Y0.6053 Z-0.051
X1.2956 Y0.6059 Z-0.0494
X1.2963 Y0.6069 Z-0.0482
X1.2972 Y0.6082 Z-0.0474
X1.2982 Y0.6096 Z-0.0472
X1.2993 Y0.611 Z-0.0474
X1.3002 Y0.6122 Z-0.0482
X1.3009 Y0.6132 Z-0.0494
X1.3013 Y0.6139 Z-0.051
X1.3015 Y0.6141 Z-0.0527
X1.3018 Z-0.0545
X1.3025 Z-0.0561
X1.3227 Z-0.0571
X1.3427 Z-0.0594
X1.3631 Z-0.0633
X1.3826 Z-0.0687
X1.4017 Z-0.0755
X1.4203 Z-0.084
Z-0.092
X1.4228 Y0.6185
X1.4253 Y0.6231
X1.4252 Z-0.084
X1.4068 Z-0.0755
X1.388 Z-0.0686
X1.3689 Z-0.0634
X1.3486 Z-0.0594
X1.3278 Z-0.057
X1.3085 Z-0.0561
X1.3078 Z-0.0545
X1.3075 Z-0.0527
X1.3077 Y0.6233 Z-0.051
X1.3081 Y0.6239 Z-0.0495
X1.3088 Y0.6249 Z-0.0483
X1.3096 Y0.6262 Z-0.0476
X1.3105 Y0.6276 Z-0.0473
X1.3114 Y0.629 Z-0.0476
X1.3123 Y0.6302 Z-0.0483
X1.3129 Y0.6312 Z-0.0495
X1.3133 Y0.6318 Z-0.051
X1.3135 Y0.6321 Z-0.0527
X1.3138 Z-0.0545
X1.3145 Z-0.0561
X1.3344 Z-0.0571
X1.3549 Z-0.0595
X1.3739 Z-0.0633
X1.3933 Z-0.0687
X1.412 Z-0.0756
X1.4301 Z-0.084
X1.4302 Z-0.092
X1.4326 Y0.6366
X1.435 Y0.6411
Z-0.084
X1.417 Z-0.0756
X1.3983 Z-0.0687
X1.3793 Z-0.0633
X1.3595 Z-0.0594
X1.34 Z-0.0571
X1.3205 Z-0.0561
X1.3202 Z-0.0552
Z-0.0527
X1.3203 Y0.6413 Z-0.051
X1.3207 Y0.6421 Z-0.0495
X1.3214 Y0.6433 Z-0.0483
X1.3221 Y0.6448 Z-0.0477
X1.3229 Y0.6464
X1.3237 Y0.6478 Z-0.0483
X1.3243 Y0.649 Z-0.0495
X1.3247 Y0.6498 Z-0.051
X1.3249 Y0.6501 Z-0.0527
X1.3251 Z-0.0545
X1.3259 Z-0.0561
X1.3456 Z-0.0571
X1.3654 Z-0.0595
X1.3842 Z-0.0633
X1.4033 Z-0.0687
X1.4215 Z-0.0754
X1.4397 Z-0.084
X1.4398 Z-0.092
X1.4441 Y0.6591
Z-0.084
X1.4261 Z-0.0755
X1.408 Z-0.0687
X1.3894 Z-0.0633
X1.3696 Z-0.0594
X1.3507 Z-0.0571
X1.3312 Z-0.0561
X1.3304 Z-0.0545
X1.3302 Z-0.0527
X1.3303 Y0.6593 Z-0.0511
X1.3307 Y0.6599 Z-0.0496
X1.3313 Y0.6609 Z-0.0485
X1.332 Y0.6622 Z-0.0477
X1.3329 Y0.6636 Z-0.0475
X1.3337 Y0.665 Z-0.0477
X1.3344 Y0.6662 Z-0.0485
X1.335 Y0.6672 Z-0.0496
X1.3354 Y0.6678 Z-0.0511
X1.3355 Y0.6681 Z-0.0527
X1.3358 Z-0.0545
X1.3365 Z-0.0561
X1.3557 Z-0.0571
X1.3746 Z-0.0594
X1.394 Z-0.0633
X1.4125 Z-0.0687
X1.4309 Z-0.0756
X1.4484 Z-0.084
X1.4485 Z-0.092
X1.4528 Y0.6771
X1.4527 Z-0.084
X1.4348 Z-0.0754
X1.417 Z-0.0687
X1.3984 Z-0.0633
X1.38 Z-0.0595
X1.3605 Z-0.057
X1.3415 Z-0.0561
X1.3407 Z-0.0545
X1.3405 Z-0.0527
X1.3406 Y0.6773 Z-0.0511
X1.341 Y0.6779 Z-0.0496
X1.3416 Y0.6789 Z-0.0485
X1.3423 Y0.6802 Z-0.0477
X1.3432 Y0.6816 Z-0.0475
X1.344 Y0.683 Z-0.0477
X1.3448 Y0.6842 Z-0.0485
X1.3454 Y0.6852 Z-0.0496
X1.3458 Y0.6858 Z-0.0511
X1.3459 Y0.6861 Z-0.0527
Z-0.0552
X1.3462 Z-0.0561
X1.3653 Z-0.0571
X1.3839 Z-0.0594
X1.4032 Z-0.0634
X1.4216 Z-0.0687
X1.4391 Z-0.0755
X1.4568 Z-0.084
Z-0.092
X1.4606 Y0.6951
Z-0.084
X1.4434 Z-0.0756
X1.4254 Z-0.0687
X1.4072 Z-0.0633
X1.389 Z-0.0595
X1.3696 Z-0.057
X1.351 Z-0.0561
X1.3502 Z-0.0545
X1.3499 Z-0.0527
X1.3501 Y0.6953 Z-0.0511
X1.3504 Y0.6959 Z-0.0497
X1.351 Y0.6969 Z-0.0485
X1.3518 Y0.6982 Z-0.0478
X1.3526 Y0.6996 Z-0.0475
X1.3534 Y0.701 Z-0.0478
X1.3541 Y0.7022 Z-0.0485
X1.3547 Y0.7032 Z-0.0497
X1.3551 Y0.7038 Z-0.0511
X1.3552 Y0.7041 Z-0.0527
Z-0.0552
X1.3555 Z-0.0561
X1.374 Z-0.057
X1.3931 Z-0.0595
X1.4112 Z-0.0633
X1.4294 Z-0.0687
X1.4471 Z-0.0755
X1.4644 Z-0.084
X1.4645 Z-0.092
X1.4683 Y0.7131
X1.4682 Z-0.084
X1.4508 Z-0.0755
X1.4332 Z-0.0686
X1.4153 Z-0.0633
X1.3972 Z-0.0595
X1.3781 Z-0.057
X1.3597 Z-0.0561
X1.3589 Z-0.0545
X1.3587 Z-0.0527
X1.3588 Y0.7133 Z-0.051
X1.3592 Y0.7141 Z-0.0494
X1.3599 Y0.7153 Z-0.0483
X1.3607 Y0.7168 Z-0.0477
X1.3615 Y0.7183
X1.3623 Y0.7198 Z-0.0483
X1.363 Y0.721 Z-0.0494
X1.3634 Y0.7218 Z-0.051
X1.3636 Y0.7221 Z-0.0527
Z-0.0552
X1.3638 Z-0.0561
X1.3823 Z-0.0571
X1.4005 Z-0.0594
X1.4193 Z-0.0634
X1.4369 Z-0.0686
X1.4542 Z-0.0754
X1.4717 Z-0.084
Z-0.092
X1.475 Y0.7311
X1.4749 Z-0.084
X1.4583 Z-0.0756
X1.4406 Z-0.0687
X1.4227 Z-0.0633
X1.4049 Z-0.0595
X1.3851 Z-0.057
X1.368 Z-0.0561
X1.3673 Z-0.0545
X1.367 Z-0.0527
X1.3672 Y0.7313 Z-0.051
X1.3675 Y0.7321 Z-0.0495
X1.3681 Y0.7333 Z-0.0484
X1.3688 Y0.7348 Z-0.0478
X1.3696 Y0.7363
X1.3703 Y0.7378 Z-0.0484
X1.3709 Y0.739 Z-0.0495
X1.3713 Y0.7398 Z-0.051
X1.3714 Y0.7401 Z-0.0527
Z-0.0553
X1.3717 Z-0.0561
X1.3897 Z-0.057
X1.4083 Z-0.0595
X1.4261 Z-0.0633
X1.4441 Z-0.0687
X1.4613 Z-0.0755
X1.4783 Z-0.084
X1.4784 Z-0.092
X1.4817 Y0.7491
X1.4816 Z-0.084
X1.4643 Z-0.0754
X1.4472 Z-0.0686
X1.4296 Z-0.0633
X1.4112 Z-0.0594
X1.3935 Z-0.0571
X1.3753 Z-0.0561
X1.3751 Z-0.0551
Z-0.0527
Y0.7493 Z-0.0511
X1.3754 Y0.7501 Z-0.0497
X1.3758 Y0.7513 Z-0.0486
X1.3763 Y0.7528 Z-0.0481
X1.3768 Y0.7543
X1.3772 Y0.7558 Z-0.0486
X1.3776 Y0.757 Z-0.0497
X1.3779 Y0.7578 Z-0.0511
X1.378 Y0.7581 Z-0.0527
X1.3782 Z-0.0545
X1.379 Z-0.0561
X1.397 Z-0.0571
X1.4147 Z-0.0594
X1.4331 Z-0.0634
X1.4504 Z-0.0687
X1.4678 Z-0.0756
X1.4845 Z-0.084
Z-0.092
X1.4874 Y0.7671
X1.4873 Z-0.084
X1.4708 Z-0.0756
X1.4537 Z-0.0687
X1.436 Z-0.0633
X1.4186 Z-0.0595
X1.4001 Z-0.057
X1.3824 Z-0.0561
X1.3822 Z-0.0553
Z-0.0552
X1.3823 Y0.7673 Z-0.0536
X1.3825 Y0.7681 Z-0.0522
X1.3829 Y0.7693 Z-0.0511
X1.3834 Y0.7708 Z-0.0505
X1.384 Y0.7723
X1.3845 Y0.7738 Z-0.0511
X1.3849 Y0.775 Z-0.0522
X1.3852 Y0.7758 Z-0.0536
X1.3853 Y0.7761 Z-0.0552
X1.3855 Z-0.0561
X1.4032 Z-0.057
X1.4216 Z-0.0595
X1.4391 Z-0.0633
X1.4567 Z-0.0687
X1.4733 Z-0.0754
X1.4902 Z-0.084
Z-0.092
X1.493 Y0.7851
Z-0.084
X1.4761 Z-0.0755
X1.4591 Z-0.0686
X1.442 Z-0.0634
X1.424 Z-0.0594
X1.4064 Z-0.0571
X1.3886 Z-0.0561
X1.3884 Z-0.0552
Z-0.0551
Y0.7853 Z-0.0535
X1.3887 Y0.7861 Z-0.052
X1.3891 Y0.7873 Z-0.051
X1.3896 Y0.7888 Z-0.0504
X1.3902 Y0.7903
X1.3907 Y0.7918 Z-0.051
X1.3911 Y0.793 Z-0.052
X1.3913 Y0.7938 Z-0.0535
X1.3914 Y0.7941 Z-0.0551
X1.3917 Z-0.0561
X1.4094 Z-0.0571
X1.4267 Z-0.0594
X1.4447 Z-0.0634
X1.4618 Z-0.0687
X1.4791 Z-0.0756
X1.4954 Z-0.084
Z-0.092
X1.4978 Y0.8031
Z-0.084
X1.4813 Z-0.0755
X1.4644 Z-0.0687
X1.4474 Z-0.0634
X1.4293 Z-0.0594
X1.412 Z-0.0571
X1.3945 Z-0.0561
X1.3943 Z-0.0556
X1.3942 Z-0.0551
X1.3943 Y0.8033 Z-0.0535
X1.3945 Y0.8041 Z-0.0521
X1.3948 Y0.8053 Z-0.051
X1.3953 Y0.8068 Z-0.0504
X1.3957 Y0.8083
X1.3962 Y0.8098 Z-0.051
X1.3965 Y0.811 Z-0.0521
X1.3967 Y0.8118 Z-0.0535
X1.3968 Y0.8121 Z-0.0551
Z-0.0553
X1.3971 Z-0.0561
X1.4147 Z-0.0571
X1.432 Z-0.0594
X1.45 Z-0.0634
X1.4668 Z-0.0687
X1.4836 Z-0.0755
X1.5001 Z-0.084
X1.5002 Z-0.092
X1.5025 Y0.8211
X1.5024 Z-0.084
X1.4856 Z-0.0754
X1.4692 Z-0.0687
X1.452 Z-0.0633
X1.435 Z-0.0595
X1.4171 Z-0.057
X1.3997 Z-0.0561
X1.3994 Z-0.0551
X1.3995 Y0.8213 Z-0.0535
X1.3997 Y0.8221 Z-0.0521
X1.4 Y0.8233 Z-0.0511
X1.4004 Y0.8248 Z-0.0505
X1.4009 Y0.8263
X1.4013 Y0.8278 Z-0.0511
X1.4017 Y0.829 Z-0.0521
X1.4019 Y0.8298 Z-0.0535
X1.402 Y0.8301 Z-0.0551
Z-0.0552
X1.4022 Z-0.0561
X1.4194 Z-0.0571
X1.4373 Z-0.0595
X1.4543 Z-0.0633
X1.4715 Z-0.0687
X1.4882 Z-0.0756
X1.5043 Z-0.084
X1.5044 Z-0.092
X1.5064 Y0.8391
X1.5063 Z-0.084
X1.4899 Z-0.0754
X1.4736 Z-0.0687
X1.4565 Z-0.0633
X1.4394 Z-0.0595
X1.4216 Z-0.057
X1.4043 Z-0.0561
X1.4041 Z-0.0553
Z-0.0552
X1.4042 Y0.8393 Z-0.0536
X1.4043 Y0.8401 Z-0.0522
X1.4046 Y0.8413 Z-0.0512
X1.405 Y0.8428 Z-0.0506
X1.4053 Y0.8443
X1.4057 Y0.8458 Z-0.0512
X1.4059 Y0.847 Z-0.0522
X1.4061 Y0.8478 Z-0.0536
X1.4062 Y0.8481 Z-0.0552
X1.4065 Z-0.0561
X1.4237 Z-0.057
X1.4415 Z-0.0595
X1.4584 Z-0.0633
X1.4755 Z-0.0687
X1.4918 Z-0.0755
X1.5083 Z-0.084
Z-0.092
X1.5101 Y0.8571
Z-0.084
X1.4936 Z-0.0755
X1.477 Z-0.0686
X1.4602 Z-0.0633
X1.4433 Z-0.0595
X1.4256 Z-0.057
X1.4086 Z-0.0561
X1.4083 Z-0.0552
Y0.8573 Z-0.0536
X1.4085 Y0.8581 Z-0.0522
X1.4088 Y0.8593 Z-0.0512
X1.4091 Y0.8608 Z-0.0506
X1.4095 Y0.8623
X1.4098 Y0.8638 Z-0.0512
X1.41 Y0.865 Z-0.0522
X1.4102 Y0.8658 Z-0.0536
X1.4103 Y0.8661 Z-0.0552
Z-0.0554
X1.4105 Z-0.0561
X1.4275 Z-0.0571
X1.4452 Z-0.0595
X1.4621 Z-0.0634
X1.4789 Z-0.0687
X1.4954 Z-0.0755
X1.5116 Z-0.084
Z-0.092
X1.5131 Y0.8751
Z-0.084
X1.497 Z-0.0755
X1.4805 Z-0.0687
X1.4638 Z-0.0634
X1.4458 Z-0.0593
X1.4293 Z-0.0571
X1.4122 Z-0.0561
X1.4119 Z-0.0556
Z-0.0551
Y0.8753 Z-0.0535
X1.412 Y0.8761 Z-0.0521
X1.4123 Y0.8773 Z-0.0511
X1.4125 Y0.8788 Z-0.0506
X1.4128 Y0.8803
X1.4131 Y0.8818 Z-0.0511
X1.4133 Y0.883 Z-0.0521
X1.4135 Y0.8838 Z-0.0535
Y0.8841 Z-0.0551
Z-0.0552
X1.4138 Z-0.0561
X1.4307 Z-0.057
X1.4484 Z-0.0595
X1.4651 Z-0.0633
X1.4821 Z-0.0687
X1.4982 Z-0.0754
X1.5146 Z-0.084
X1.5147 Z-0.092
X1.516 Y0.8931
Z-0.084
X1.4996 Z-0.0754
X1.4834 Z-0.0687
X1.4665 Z-0.0633
X1.4497 Z-0.0595
X1.4321 Z-0.057
X1.4154 Z-0.0561
X1.4152 Z-0.0554
Y0.8933 Z-0.0538
X1.4153 Y0.8941 Z-0.0524
X1.4155 Y0.8953 Z-0.0514
X1.4157 Y0.8968 Z-0.0509
X1.416 Y0.8983
X1.4162 Y0.8998 Z-0.0514
X1.4164 Y0.901 Z-0.0524
X1.4165 Y0.9018 Z-0.0538
Y0.9021 Z-0.0554
X1.4167 Z-0.0561
X1.4336 Z-0.057
X1.4512 Z-0.0595
X1.4679 Z-0.0633
X1.484 Z-0.0684
X1.501 Z-0.0755
X1.517 Z-0.084
X1.5171 Z-0.092
X1.5182 Y0.9111
X1.5181 Z-0.084
X1.502 Z-0.0755
X1.4856 Z-0.0686
X1.4691 Z-0.0633
X1.4524 Z-0.0595
X1.4349 Z-0.057
X1.4179 Z-0.0561
X1.4177 Z-0.0552
Y0.9113 Z-0.0537
X1.4178 Y0.9121 Z-0.0523
X1.4179 Y0.9133 Z-0.0513
X1.4181 Y0.9148 Z-0.0507
X1.4183 Y0.9163
X1.4185 Y0.9178 Z-0.0513
X1.4187 Y0.919 Z-0.0523
X1.4188 Y0.9198 Z-0.0537
Y0.9201 Z-0.0552
Z-0.0553
X1.4191 Z-0.0561
X1.436 Z-0.0571
X1.4534 Z-0.0595
X1.4701 Z-0.0634
X1.4866 Z-0.0687
X1.5028 Z-0.0754
X1.5192 Z-0.084
Z-0.092
X1.5202 Y0.9291
Z-0.084
X1.504 Z-0.0755
X1.4876 Z-0.0686
X1.4711 Z-0.0633
X1.4544 Z-0.0595
X1.4369 Z-0.0571
X1.4202 Z-0.0561
X1.42 Z-0.0554
Z-0.0553
Y0.9293 Z-0.0538
X1.4201 Y0.9301 Z-0.0524
X1.4202 Y0.9313 Z-0.0514
X1.4203 Y0.9328 Z-0.0509
X1.4205 Y0.9343
X1.4206 Y0.9358 Z-0.0514
X1.4207 Y0.937 Z-0.0524
X1.4208 Y0.9378 Z-0.0538
Y0.9381 Z-0.0553
X1.421 Z-0.0561
X1.4367 Z-0.057
X1.4541 Z-0.0593
X1.4719 Z-0.0633
X1.4887 Z-0.0687
X1.5048 Z-0.0755
X1.5208 Z-0.084
X1.5209 Z-0.092
X1.5215 Y0.9471
X1.5214 Z-0.084
X1.5052 Z-0.0754
X1.4891 Z-0.0687
X1.4727 Z-0.0634
X1.4553 Z-0.0594
X1.4386 Z-0.0571
X1.4217 Z-0.0561
X1.4215 Z-0.0553
Y0.9473 Z-0.0538
X1.4216 Y0.9481 Z-0.0524
X1.4217 Y0.9493 Z-0.0514
X1.4218 Y0.9508 Z-0.0509
X1.4219 Y0.9523
X1.422 Y0.9538 Z-0.0514
X1.4221 Y0.955 Z-0.0524
X1.4222 Y0.9558 Z-0.0538
Y0.9561 Z-0.0553
Z-0.0554
X1.4224 Z-0.0561
X1.4391 Z-0.057
X1.4566 Z-0.0595
X1.4732 Z-0.0633
X1.4896 Z-0.0686
X1.506 Z-0.0755
X1.5221 Z-0.084
Z-0.092
X1.5227 Y0.9651
X1.5226 Z-0.084
X1.5063 Z-0.0754
X1.4902 Z-0.0686
X1.4738 Z-0.0633
X1.4571 Z-0.0595
X1.4397 Z-0.057
X1.4231 Z-0.0561
X1.4228 Z-0.0553
X1.4229 Y0.9653 Z-0.0537
Y0.9661 Z-0.0524
Y0.9673 Z-0.0514
X1.423 Y0.9688 Z-0.0508
Y0.9703
X1.4231 Y0.9718 Z-0.0514
Y0.973 Z-0.0524
Y0.9738 Z-0.0537
Y0.9741 Z-0.0553
X1.4234 Z-0.0561
X1.4401 Z-0.057
X1.4576 Z-0.0595
X1.4741 Z-0.0633
X1.4905 Z-0.0686
X1.5068 Z-0.0755
X1.5229 Z-0.084
Z-0.092
X1.5231 Y0.9831
Z-0.084
X1.507 Z-0.0755
X1.4907 Z-0.0686
X1.4743 Z-0.0633
X1.4578 Z-0.0595
X1.4403 Z-0.057
X1.4236 Z-0.0561
X1.4233 Z-0.0553
X1.4234 Y0.9833 Z-0.0538
Y0.9841 Z-0.0524
Y0.9853 Z-0.0514
Y0.9868 Z-0.0509
X1.4235 Y0.9883
Y0.9898 Z-0.0514
X1.4236 Y0.991 Z-0.0524
Y0.9918 Z-0.0538
Y0.9921 Z-0.0553
Z-0.0554
X1.4238 Z-0.0561
X1.4405 Z-0.057
X1.458 Z-0.0595
X1.4745 Z-0.0633
X1.4909 Z-0.0686
X1.5072 Z-0.0755
X1.5233 Z-0.084
Z-0.092
X1.5235 Y1.001
Z-0.084
X1.5065 Z-0.0751
X1.4903 Z-0.0684
X1.4738 Z-0.0631
X1.4568 Z-0.0593
X1.4395 Z-0.057
X1.424 Z-0.0561
X1.4237 Z-0.0553
Y1.0013 Z-0.0537
Y1.0021 Z-0.0524
Y1.0033 Z-0.0514
Y1.0048 Z-0.0508
X1.4236 Y1.0063
Y1.0078 Z-0.0514
X1.4235 Y1.009 Z-0.0524
Y1.0098 Z-0.0537
Y1.01 Z-0.0553
X1.4238 Z-0.0561
X1.4404 Z-0.057
X1.4578 Z-0.0595
X1.4744 Z-0.0633
X1.4912 Z-0.0687
X1.5072 Z-0.0755
X1.5232 Z-0.084
X1.5233 Z-0.092
X1.5231 Y1.019
X1.523 Z-0.084
X1.507 Z-0.0755
X1.491 Z-0.0687
X1.4742 Z-0.0633
X1.4576 Z-0.0595
X1.4402 Z-0.057
X1.4235 Z-0.0561
X1.4233 Z-0.0553
Y1.0193 Z-0.0538
Y1.0201 Z-0.0524
X1.4232 Y1.0213 Z-0.0514
Y1.0228 Z-0.0509
Y1.0243
X1.4231 Y1.0258 Z-0.0514
Y1.027 Z-0.0524
Y1.0278 Z-0.0538
Y1.028 Z-0.0553
X1.4233 Z-0.0561
X1.44 Z-0.057
X1.4574 Z-0.0595
X1.474 Z-0.0633
X1.4908 Z-0.0687
X1.5068 Z-0.0755
X1.5229 Z-0.084
Z-0.092
X1.5226 Y1.037
X1.5225 Z-0.084
X1.5065 Z-0.0755
X1.4901 Z-0.0686
X1.4736 Z-0.0633
X1.4571 Z-0.0595
X1.4397 Z-0.0571
X1.4229 Z-0.0561
X1.4227 Z-0.0553
Y1.0373 Z-0.0538
X1.4226 Y1.0381 Z-0.0524
X1.4225 Y1.0393 Z-0.0514
X1.4224 Y1.0408 Z-0.0509
X1.4223 Y1.0423
X1.4222 Y1.0438 Z-0.0514
X1.4221 Y1.045 Z-0.0524
X1.422 Y1.0458 Z-0.0538
Y1.046 Z-0.0553
X1.4223 Z-0.0561
X1.4391 Z-0.0571
X1.4565 Z-0.0595
X1.473 Z-0.0633
X1.4895 Z-0.0686
X1.5059 Z-0.0755
X1.5219 Z-0.084
X1.522 Z-0.092
X1.5213 Y1.055
Z-0.084
X1.5052 Z-0.0755
X1.4889 Z-0.0686
X1.4724 Z-0.0633
X1.4558 Z-0.0595
X1.4384 Z-0.0571
X1.4216 Z-0.0561
X1.4213 Z-0.0553
Z-0.0551
Y1.0553 Z-0.0536
X1.4212 Y1.0561 Z-0.0522
X1.4211 Y1.0573 Z-0.0512
X1.421 Y1.0588 Z-0.0507
X1.4209 Y1.0603
X1.4208 Y1.0618 Z-0.0512
X1.4207 Y1.063 Z-0.0522
X1.4206 Y1.0638 Z-0.0536
Y1.064 Z-0.0551
X1.4209 Z-0.0561
X1.4377 Z-0.0571
X1.4544 Z-0.0594
X1.4709 Z-0.0631
X1.4884 Z-0.0687
X1.5045 Z-0.0754
X1.5207 Z-0.084
Z-0.092
X1.52 Y1.073
Z-0.084
X1.5036 Z-0.0754
X1.4875 Z-0.0687
X1.471 Z-0.0634
X1.4536 Z-0.0594
X1.4369 Z-0.0571
X1.42 Z-0.0561
X1.4197 Z-0.0553
Y1.0733 Z-0.0537
X1.4196 Y1.0741 Z-0.0523
X1.4194 Y1.0753 Z-0.0513
X1.4192 Y1.0768 Z-0.0508
X1.419 Y1.0783
X1.4188 Y1.0798 Z-0.0513
X1.4187 Y1.081 Z-0.0523
X1.4186 Y1.0818 Z-0.0537
Y1.082 Z-0.0553
X1.4188 Z-0.0561
X1.4358 Z-0.0571
X1.4525 Z-0.0594
X1.4699 Z-0.0634
X1.4864 Z-0.0687
X1.5025 Z-0.0754
X1.519 Z-0.084
Z-0.092
X1.5179 Y1.091
Z-0.084
X1.5018 Z-0.0755
X1.4854 Z-0.0686
X1.4689 Z-0.0634
X1.4514 Z-0.0594
X1.4347 Z-0.0571
X1.4176 Z-0.0561
X1.4174 Z-0.0553
Z-0.0551
Y1.0913 Z-0.0536
X1.4173 Y1.0921 Z-0.0522
X1.4171 Y1.0933 Z-0.0512
X1.4169 Y1.0948 Z-0.0506
X1.4167 Y1.0963
X1.4165 Y1.0978 Z-0.0512
X1.4163 Y1.099 Z-0.0522
X1.4162 Y1.0998 Z-0.0536
Y1.1 Z-0.0551
X1.4165 Z-0.0561
X1.4333 Z-0.0571
X1.4509 Z-0.0595
X1.4677 Z-0.0633
X1.4843 Z-0.0686
X1.5006 Z-0.0754
X1.5168 Z-0.084
X1.5169 Z-0.092
X1.5158 Y1.109
X1.5157 Z-0.084
X1.4994 Z-0.0755
X1.4828 Z-0.0686
X1.4663 Z-0.0633
X1.4495 Z-0.0595
X1.4319 Z-0.0571
X1.415 Z-0.0561
X1.4147 Z-0.0551
Y1.1093 Z-0.0535
X1.4145 Y1.1101 Z-0.0522
X1.4143 Y1.1113 Z-0.0511
X1.4141 Y1.1128 Z-0.0506
X1.4138 Y1.1143
X1.4135 Y1.1158 Z-0.0511
X1.4133 Y1.117 Z-0.0522
X1.4132 Y1.1178 Z-0.0535
X1.4131 Y1.118 Z-0.0551
Z-0.0553
X1.4134 Z-0.0561
X1.4307 Z-0.0571
X1.4474 Z-0.0594
X1.465 Z-0.0634
X1.4816 Z-0.0687
X1.4978 Z-0.0754
X1.5143 Z-0.084
Z-0.092
X1.5128 Y1.127
Z-0.084
X1.4966 Z-0.0755
X1.4801 Z-0.0687
X1.463 Z-0.0632
X1.4466 Z-0.0595
X1.4289 Z-0.0571
X1.4118 Z-0.0561
X1.4115 Z-0.0551
X1.4114 Y1.1273 Z-0.0536
X1.4113 Y1.1281 Z-0.0522
X1.4111 Y1.1293 Z-0.0512
X1.4108 Y1.1308 Z-0.0506
X1.4105 Y1.1323
X1.4103 Y1.1338 Z-0.0512
X1.4101 Y1.135 Z-0.0522
X1.4099 Y1.1358 Z-0.0536
Y1.136 Z-0.0551
Z-0.0553
X1.4101 Z-0.0561
X1.427 Z-0.0571
X1.4447 Z-0.0595
X1.4616 Z-0.0633
X1.4787 Z-0.0687
X1.4952 Z-0.0756
X1.5112 Z-0.084
X1.5113 Z-0.092
X1.5098 Y1.145
X1.5097 Z-0.084
X1.4932 Z-0.0755
X1.4766 Z-0.0686
X1.4599 Z-0.0634
X1.4422 Z-0.0594
X1.4253 Z-0.0571
X1.4081 Z-0.0561
X1.4078 Z-0.0553
Y1.1453 Z-0.0537
X1.4076 Y1.1461 Z-0.0523
X1.4073 Y1.1473 Z-0.0513
X1.4069 Y1.1488 Z-0.0507
X1.4066 Y1.1503
X1.4062 Y1.1518 Z-0.0513
X1.406 Y1.153 Z-0.0523
X1.4058 Y1.1538 Z-0.0537
X1.4057 Y1.154 Z-0.0553
X1.406 Z-0.0561
X1.4232 Z-0.057
X1.4407 Z-0.0594
X1.458 Z-0.0633
X1.4747 Z-0.0686
X1.4913 Z-0.0755
X1.5079 Z-0.084
Z-0.092
X1.5059 Y1.163
Z-0.084
X1.4895 Z-0.0754
X1.4722 Z-0.0684
X1.4559 Z-0.0633
X1.4389 Z-0.0595
X1.421 Z-0.057
X1.4039 Z-0.0561
X1.4036 Z-0.0553
Z-0.0552
X1.4035 Y1.1633 Z-0.0537
X1.4033 Y1.1641 Z-0.0523
X1.403 Y1.1653 Z-0.0512
X1.4027 Y1.1668 Z-0.0507
X1.4023 Y1.1683
X1.4019 Y1.1698 Z-0.0512
X1.4017 Y1.171 Z-0.0523
X1.4015 Y1.1718 Z-0.0537
X1.4014 Y1.172 Z-0.0552
X1.4017 Z-0.0561
X1.4189 Z-0.0571
X1.436 Z-0.0594
X1.4538 Z-0.0634
X1.4707 Z-0.0686
X1.4878 Z-0.0756
X1.5039 Z-0.084
X1.504 Z-0.092
X1.502 Y1.181
Z-0.084
X1.4851 Z-0.0754
X1.4687 Z-0.0687
X1.4515 Z-0.0633
X1.4345 Z-0.0595
X1.4165 Z-0.057
X1.3991 Z-0.0561
X1.3983 Z-0.0545
X1.3981 Z-0.0527
X1.398 Y1.1813 Z-0.0511
X1.3978 Y1.1821 Z-0.0498
X1.3976 Y1.1833 Z-0.0487
X1.3973 Y1.1848 Z-0.0482
X1.397 Y1.1863
X1.3967 Y1.1878 Z-0.0487
X1.3964 Y1.189 Z-0.0498
X1.3963 Y1.1898 Z-0.0511
X1.3962 Y1.19 Z-0.0527
Z-0.0552
X1.3965 Z-0.0561
X1.4139 Z-0.0571
X1.4313 Z-0.0594
X1.4488 Z-0.0632
X1.4662 Z-0.0686
X1.483 Z-0.0755
X1.4996 Z-0.084
Z-0.092
X1.4973 Y1.199
X1.4972 Z-0.084
X1.4806 Z-0.0754
X1.4638 Z-0.0686
X1.4468 Z-0.0634
X1.4286 Z-0.0594
X1.4113 Z-0.0571
X1.3939 Z-0.0561
X1.3936 Z-0.0551
X1.3935 Y1.1993 Z-0.0535
X1.3932 Y1.2001 Z-0.0521
X1.3929 Y1.2013 Z-0.0511
X1.3924 Y1.2028 Z-0.0505
X1.3919 Y1.2043
X1.3914 Y1.2058 Z-0.0511
X1.3911 Y1.207 Z-0.0521
X1.3908 Y1.2078 Z-0.0535
X1.3907 Y1.208 Z-0.0551
X1.391 Z-0.0561
X1.4084 Z-0.057
X1.4266 Z-0.0595
X1.4438 Z-0.0633
X1.4612 Z-0.0687
X1.4782 Z-0.0755
X1.4948 Z-0.084
X1.4949 Z-0.092
X1.4924 Y1.217
Z-0.084
X1.4754 Z-0.0755
X1.4584 Z-0.0686
X1.4414 Z-0.0634
X1.4232 Z-0.0594
X1.4057 Z-0.0571
X1.3879 Z-0.0561
X1.3876 Z-0.0553
Z-0.0552
X1.3875 Y1.2173 Z-0.0536
X1.3873 Y1.2181 Z-0.0522
X1.3869 Y1.2193 Z-0.0511
X1.3864 Y1.2208 Z-0.0505
X1.3858 Y1.2223
X1.3853 Y1.2238 Z-0.0511
X1.3849 Y1.225 Z-0.0522
X1.3846 Y1.2258 Z-0.0536
X1.3845 Y1.226 Z-0.0552
X1.3848 Z-0.0561
X1.4026 Z-0.0571
X1.421 Z-0.0595
X1.4384 Z-0.0633
X1.4555 Z-0.0685
X1.4726 Z-0.0754
X1.4895 Z-0.084
X1.4896 Z-0.092
X1.4867 Y1.235
Z-0.084
X1.4701 Z-0.0756
X1.4527 Z-0.0686
X1.4354 Z-0.0634
X1.4171 Z-0.0594
X1.3996 Z-0.0571
X1.3817 Z-0.0561
X1.3814 Z-0.0552
X1.3813 Y1.2353 Z-0.0535
X1.381 Y1.2361 Z-0.052
X1.3805 Y1.2373 Z-0.051
X1.3799 Y1.2388 Z-0.0504
X1.3793 Y1.2403
X1.3787 Y1.2418 Z-0.051
X1.3783 Y1.243 Z-0.052
X1.378 Y1.2438 Z-0.0535
X1.3778 Y1.244 Z-0.0552
X1.3781 Z-0.0561
X1.3962 Z-0.0571
X1.414 Z-0.0594
X1.4323 Z-0.0634
X1.4496 Z-0.0686
X1.4667 Z-0.0755
X1.4838 Z-0.084
X1.4839 Z-0.092
X1.4809 Y1.253
Z-0.084
X1.4636 Z-0.0754
X1.4464 Z-0.0686
X1.4291 Z-0.0634
X1.4105 Z-0.0594
X1.3926 Z-0.0571
X1.3745 Z-0.0561
X1.3737 Z-0.0545
X1.3735 Z-0.0527
X1.3734 Y1.2533 Z-0.0511
X1.3731 Y1.2541 Z-0.0497
X1.3728 Y1.2553 Z-0.0486
X1.3723 Y1.2568 Z-0.0481
X1.3718 Y1.2583
X1.3713 Y1.2598 Z-0.0486
X1.3709 Y1.261 Z-0.0497
X1.3707 Y1.2618 Z-0.0511
X1.3706 Y1.262 Z-0.0527
Z-0.0551
X1.3709 Z-0.0561
X1.3889 Z-0.057
X1.4076 Z-0.0595
X1.4253 Z-0.0633
X1.4432 Z-0.0687
X1.4605 Z-0.0754
X1.4775 Z-0.084
X1.4776 Z-0.092
X1.4743 Y1.271
X1.4742 Z-0.084
X1.4575 Z-0.0756
X1.4397 Z-0.0687
X1.4218 Z-0.0633
X1.4041 Z-0.0595
X1.3852 Z-0.057
X1.367 Z-0.0561
X1.3668 Z-0.0552
X1.3666 Y1.2713 Z-0.0535
X1.3663 Y1.2721 Z-0.052
X1.3657 Y1.2733 Z-0.0509
X1.365 Y1.2748 Z-0.0503
X1.3643 Y1.2763
X1.3636 Y1.2778 Z-0.0509
X1.3631 Y1.279 Z-0.052
X1.3627 Y1.2798 Z-0.0535
X1.3626 Y1.28 Z-0.0552
X1.3629 Z-0.0561
X1.3815 Z-0.0571
X1.3996 Z-0.0594
X1.4182 Z-0.0633
X1.436 Z-0.0687
X1.4535 Z-0.0755
X1.4709 Z-0.084
Z-0.092
X1.4674 Y1.289
X1.4673 Z-0.084
X1.4499 Z-0.0755
X1.4324 Z-0.0687
X1.4142 Z-0.0633
X1.3962 Z-0.0595
X1.3772 Z-0.057
X1.3587 Z-0.0561
X1.3584 Z-0.0552
Z-0.0527
X1.3583 Y1.2893 Z-0.051
X1.3579 Y1.2901 Z-0.0494
X1.3572 Y1.2913 Z-0.0483
X1.3564 Y1.2928 Z-0.0477
X1.3555 Y1.2943
X1.3548 Y1.2958 Z-0.0483
X1.3541 Y1.297 Z-0.0494
X1.3537 Y1.2978 Z-0.051
X1.3535 Y1.298 Z-0.0527
X1.3538 Z-0.0545
X1.3545 Z-0.0561
X1.373 Z-0.057
X1.3922 Z-0.0595
X1.4102 Z-0.0633
X1.4284 Z-0.0687
X1.4465 Z-0.0756
X1.4636 Z-0.084
Z-0.092
X1.4598 Y1.307
X1.4597 Z-0.084
X1.4425 Z-0.0756
X1.4245 Z-0.0687
X1.4062 Z-0.0633
X1.3879 Z-0.0595
X1.3685 Z-0.057
X1.3498 Z-0.0561
X1.3496 Z-0.0552
Z-0.0527
X1.3494 Y1.3073 Z-0.0511
X1.349 Y1.3079 Z-0.0496
X1.3484 Y1.3089 Z-0.0485
X1.3477 Y1.3101 Z-0.0477
X1.3468 Y1.3115 Z-0.0475
X1.346 Y1.3129 Z-0.0477
X1.3452 Y1.3142 Z-0.0485
X1.3446 Y1.3152 Z-0.0496
X1.3442 Y1.3158 Z-0.0511
X1.3441 Y1.316 Z-0.0527
X1.3444 Z-0.0545
X1.3451 Z-0.0561
X1.3638 Z-0.057
X1.3832 Z-0.0595
X1.4022 Z-0.0634
X1.4202 Z-0.0686
X1.438 Z-0.0755
X1.4559 Z-0.084
Z-0.092
X1.4518 Y1.325
X1.4517 Z-0.084
X1.434 Z-0.0754
X1.4159 Z-0.0687
X1.3973 Z-0.0633
X1.3789 Z-0.0595
X1.3593 Z-0.057
X1.3404 Z-0.0561
X1.3396 Z-0.0545
X1.3394 Z-0.0527
X1.3392 Y1.3253 Z-0.051
X1.3389 Y1.3261 Z-0.0495
X1.3383 Y1.3273 Z-0.0484
X1.3376 Y1.3288 Z-0.0478
X1.3368 Y1.3303
X1.3361 Y1.3318 Z-0.0484
X1.3355 Y1.333 Z-0.0495
X1.3351 Y1.3338 Z-0.051
X1.335 Y1.334 Z-0.0527
Z-0.0552
X1.3353 Z-0.0561
X1.3544 Z-0.0571
X1.3743 Z-0.0595
X1.3929 Z-0.0633
X1.4115 Z-0.0687
X1.4298 Z-0.0756
X1.4474 Z-0.084
Z-0.092
X1.4431 Y1.343
Z-0.084
X1.4251 Z-0.0755
X1.4072 Z-0.0687
X1.3883 Z-0.0634
X1.3685 Z-0.0594
X1.3496 Z-0.0571
X1.33 Z-0.0561
X1.3292 Z-0.0545
X1.329 Z-0.0527
X1.3288 Y1.3433 Z-0.051
X1.3284 Y1.3441 Z-0.0495
X1.3278 Y1.3453 Z-0.0483
X1.327 Y1.3467 Z-0.0477
X1.3262 Y1.3483
X1.3255 Y1.3498 Z-0.0483
X1.3249 Y1.351 Z-0.0495
X1.3244 Y1.3518 Z-0.051
X1.3243 Y1.352 Z-0.0527
Z-0.0552
X1.3246 Z-0.0561
X1.3442 Z-0.0571
X1.3643 Z-0.0595
X1.3832 Z-0.0633
X1.4021 Z-0.0687
X1.4204 Z-0.0754
X1.4387 Z-0.084
X1.4388 Z-0.092
X1.4363 Y1.3565
X1.4339 Y1.361
X1.4338 Z-0.084
X1.4159 Z-0.0756
X1.3971 Z-0.0687
X1.3782 Z-0.0633
X1.3592 Z-0.0595
X1.3387 Z-0.0571
X1.3191 Z-0.0561
X1.3184 Z-0.0545
X1.3181 Z-0.0527
X1.318 Y1.3613 Z-0.051
X1.3176 Y1.3619 Z-0.0495
X1.3169 Y1.3629 Z-0.0483
X1.316 Y1.3641 Z-0.0476
X1.3151 Y1.3655 Z-0.0473
X1.3142 Y1.3669 Z-0.0476
X1.3133 Y1.3682 Z-0.0483
X1.3127 Y1.3692 Z-0.0495
X1.3123 Y1.3698 Z-0.051
X1.3121 Y1.37 Z-0.0527
X1.3124 Z-0.0545
X1.3131 Z-0.0561
X1.3332 Z-0.0571
X1.3536 Z-0.0595
X1.373 Z-0.0633
X1.3922 Z-0.0687
X1.4109 Z-0.0756
X1.429 Z-0.084
Z-0.092
X1.4266 Y1.3745
X1.4242 Y1.379
X1.4241 Z-0.084
X1.4056 Z-0.0755
X1.3871 Z-0.0688
X1.3673 Z-0.0633
X1.3479 Z-0.0595
X1.3273 Z-0.057
X1.3072 Z-0.0561
X1.3064 Z-0.0545
X1.3061 Z-0.0527
X1.306 Y1.3792 Z-0.051
X1.3056 Y1.3799 Z-0.0495
X1.3049 Y1.3809 Z-0.0483
X1.304 Y1.3821 Z-0.0476
X1.3031 Y1.3835 Z-0.0473
X1.3022 Y1.3849 Z-0.0476
X1.3013 Y1.3862 Z-0.0483
X1.3007 Y1.3872 Z-0.0495
X1.3002 Y1.3878 Z-0.051
X1.3001 Y1.388 Z-0.0527
X1.3003 Z-0.0545
X1.3011 Z-0.0561
X1.3214 Z-0.0571
X1.3423 Z-0.0595
X1.3618 Z-0.0633
X1.3813 Z-0.0687
X1.4004 Z-0.0755
X1.419 Z-0.084
Z-0.092
X1.4136 Y1.397
Z-0.084
X1.395 Z-0.0756
X1.3758 Z-0.0687
X1.3562 Z-0.0633
X1.3353 Z-0.0594
X1.3154 Z-0.0571
X1.2944 Z-0.0561
X1.2937 Z-0.0545
X1.2934 Z-0.0527
X1.2933 Y1.3972 Z-0.051
X1.2928 Y1.3979 Z-0.0494
X1.292 Y1.3989 Z-0.0482
X1.2911 Y1.4001 Z-0.0474
X1.2901 Y1.4015 Z-0.0471
X1.2891 Y1.4029 Z-0.0474
X1.2881 Y1.4042 Z-0.0482
X1.2874 Y1.4052 Z-0.0494
X1.2869 Y1.4058 Z-0.051
X1.2868 Y1.406 Z-0.0527
X1.287 Z-0.0545
X1.2878 Z-0.0561
X1.3085 Z-0.057
X1.3298 Z-0.0595
X1.3502 Z-0.0634
X1.3703 Z-0.0687
X1.3891 Z-0.0755
X1.4082 Z-0.084
Z-0.092
X1.4055 Y1.4105
X1.4027 Y1.415
X1.4026 Z-0.0839
X1.3836 Z-0.0755
X1.3639 Z-0.0687
X1.3439 Z-0.0633
X1.3238 Z-0.0595
X1.3021 Z-0.0571
X1.2811 Z-0.0561
X1.2803 Z-0.0545
X1.28 Z-0.0527
X1.2799 Y1.4152 Z-0.0509
X1.2793 Y1.4159 Z-0.0493
X1.2785 Y1.4169 Z-0.048
X1.2775 Y1.4181 Z-0.0472
X1.2764 Y1.4195 Z-0.0469
X1.2752 Y1.4209 Z-0.0472
X1.2742 Y1.4222 Z-0.048
X1.2734 Y1.4232 Z-0.0493
X1.2729 Y1.4238 Z-0.0509
X1.2727 Y1.424 Z-0.0527
X1.2729 Z-0.0545
X1.2737 Z-0.0561
X1.2949 Z-0.057
X1.3166 Z-0.0595
X1.3378 Z-0.0634
X1.358 Z-0.0687
X1.3772 Z-0.0754
X1.3967 Z-0.084
Z-0.092
X1.3937 Y1.4285
X1.3907 Y1.433
X1.3906 Z-0.084
X1.3711 Z-0.0755
X1.3518 Z-0.0687
X1.3307 Z-0.0633
X1.3102 Z-0.0595
X1.288 Z-0.0571
X1.2663 Z-0.0561
X1.2655 Z-0.0545
X1.2652 Z-0.0527
X1.2651 Y1.4332 Z-0.0509
X1.2645 Y1.4339 Z-0.0493
X1.2637 Y1.4349 Z-0.048
X1.2627 Y1.4361 Z-0.0472
X1.2615 Y1.4375 Z-0.0469
X1.2604 Y1.4389 Z-0.0472
X1.2593 Y1.4402 Z-0.048
X1.2585 Y1.4412 Z-0.0493
X1.258 Y1.4418 Z-0.0509
X1.2578 Y1.442 Z-0.0527
X1.2581 Z-0.0545
X1.2588 Z-0.0561
X1.2809 Z-0.0571
X1.3022 Z-0.0594
X1.3242 Z-0.0634
X1.3448 Z-0.0687
X1.365 Z-0.0755
X1.3846 Z-0.084
X1.3847 Z-0.092
X1.3815 Y1.4466
X1.3783 Y1.451
X1.3782 Z-0.084
X1.3584 Z-0.0755
X1.3382 Z-0.0687
X1.3173 Z-0.0634
X1.2955 Z-0.0595
X1.2729 Z-0.057
X1.2506 Z-0.0561
X1.2499 Z-0.0545
X1.2496 Z-0.0527
X1.2494 Y1.4512 Z-0.0508
X1.2488 Y1.4519 Z-0.0491
X1.2479 Y1.4529 Z-0.0478
X1.2468 Y1.4541 Z-0.0469
X1.2455 Y1.4555 Z-0.0466
X1.2442 Y1.4569 Z-0.0469
X1.2431 Y1.4582 Z-0.0478
X1.2422 Y1.4592 Z-0.0491
X1.2416 Y1.4598 Z-0.0508
X1.2414 Y1.46 Z-0.0527
X1.2416 Z-0.0545
X1.2424 Z-0.0561
X1.2652 Z-0.0571
X1.2874 Z-0.0594
X1.3097 Z-0.0633
X1.3315 Z-0.0688
X1.3514 Z-0.0755
X1.3715 Z-0.084
X1.3716 Z-0.092
X1.3683 Y1.4645
X1.3649 Y1.469
Z-0.084
X1.3447 Z-0.0755
X1.324 Z-0.0687
X1.3022 Z-0.0633
X1.2804 Z-0.0595
X1.2572 Z-0.0571
X1.234 Z-0.0561
X1.2333 Z-0.0545
X1.233 Z-0.0527
X1.2328 Y1.4692 Z-0.0509
X1.2323 Y1.4697 Z-0.0493
X1.2314 Y1.4706 Z-0.0479
X1.2303 Y1.4717 Z-0.0469
X1.2291 Y1.4729 Z-0.0464
X1.2278 Y1.4742
X1.2266 Y1.4754 Z-0.0469
X1.2255 Y1.4765 Z-0.0479
X1.2246 Y1.4773 Z-0.0493
X1.2241 Y1.4778 Z-0.0509
X1.2239 Y1.478 Z-0.0527
X1.2242 Z-0.0545
X1.2249 Z-0.0561
X1.2482 Z-0.057
X1.272 Z-0.0595
X1.2946 Z-0.0634
X1.3163 Z-0.0687
X1.3372 Z-0.0755
X1.358 Z-0.084
Z-0.092
X1.3544 Y1.4825
X1.3507 Y1.487
X1.3506 Z-0.084
X1.3298 Z-0.0755
X1.3091 Z-0.0688
X1.2866 Z-0.0634
X1.2636 Z-0.0595
X1.2395 Z-0.057
X1.2158 Z-0.0561
X1.215 Z-0.0545
X1.2147 Z-0.0527
X1.2145 Y1.4872 Z-0.0509
X1.214 Y1.4877 Z-0.0492
X1.2131 Y1.4886 Z-0.0478
X1.2119 Y1.4897 Z-0.0467
X1.2106 Y1.4909 Z-0.0462
X1.2093 Y1.4922
X1.208 Y1.4934 Z-0.0467
X1.2068 Y1.4945 Z-0.0478
X1.2059 Y1.4953 Z-0.0492
X1.2054 Y1.4958 Z-0.0509
X1.2052 Y1.496 Z-0.0527
X1.2054 Z-0.0545
X1.2062 Z-0.0561
X1.2308 Z-0.0571
X1.2541 Z-0.0594
X1.2781 Z-0.0633
X1.3008 Z-0.0687
X1.3227 Z-0.0756
X1.3433 Z-0.084
Z-0.092
X1.3396 Y1.5006
X1.3358 Y1.505
Z-0.084
X1.3142 Z-0.0755
X1.2928 Z-0.0688
X1.2695 Z-0.0633
X1.2454 Z-0.0594
X1.2213 Z-0.0571
X1.1961 Z-0.0561
X1.1953 Z-0.0545
X1.1951 Z-0.0527
X1.1948 Y1.5052 Z-0.0508
X1.1942 Y1.5057 Z-0.0491
X1.1933 Y1.5066 Z-0.0476
X1.1921 Y1.5077 Z-0.0466
X1.1907 Y1.5089 Z-0.046
X1.1893 Y1.5102
X1.1879 Y1.5114 Z-0.0466
X1.1867 Y1.5125 Z-0.0476
X1.1858 Y1.5133 Z-0.0491
X1.1852 Y1.5138 Z-0.0508
X1.185 Y1.514 Z-0.0527
X1.1852 Z-0.0545
X1.186 Z-0.0561
X1.2105 Z-0.057
X1.2359 Z-0.0594
X1.2607 Z-0.0633
X1.2841 Z-0.0688
X1.3062 Z-0.0755
X1.3277 Z-0.084
Z-0.092
X1.3237 Y1.5185
X1.3197 Y1.523
X1.3196 Z-0.084
X1.2985 Z-0.0758
X1.2749 Z-0.0687
X1.2516 Z-0.0634
X1.2269 Z-0.0595
X1.2007 Z-0.057
X1.1748 Z-0.0561
X1.1741 Z-0.0545
X1.1738 Z-0.0527
X1.1736 Y1.5232 Z-0.0507
X1.1729 Y1.5237 Z-0.0488
X1.1719 Y1.5246 Z-0.0473
X1.1705 Y1.5257 Z-0.0462
X1.169 Y1.5269 Z-0.0456
X1.1674 Y1.5282
X1.1659 Y1.5294 Z-0.0462
X1.1645 Y1.5305 Z-0.0473
X1.1635 Y1.5313 Z-0.0488
X1.1628 Y1.5318 Z-0.0507
X1.1626 Y1.532 Z-0.0527
X1.1629 Z-0.0545
X1.1636 Z-0.0561
X1.1904 Z-0.0571
X1.217 Z-0.0595
X1.2421 Z-0.0634
X1.2665 Z-0.0688
X1.2886 Z-0.0754
X1.3114 Z-0.084
Z-0.092
X1.3025 Y1.541
Z-0.084
X1.2799 Z-0.0755
X1.2564 Z-0.0687
X1.2323 Z-0.0634
X1.2064 Z-0.0595
X1.1791 Z-0.057
X1.1517 Z-0.0561
X1.151 Z-0.0545
X1.1507 Z-0.0527
X1.1505 Y1.5412 Z-0.0506
X1.1497 Y1.5417 Z-0.0486
X1.1486 Y1.5426 Z-0.0469
X1.1471 Y1.5437 Z-0.0457
X1.1454 Y1.5449 Z-0.0451
X1.1436 Y1.5462
X1.1419 Y1.5474 Z-0.0457
X1.1404 Y1.5485 Z-0.0469
X1.1392 Y1.5493 Z-0.0486
X1.1385 Y1.5498 Z-0.0506
X1.1383 Y1.55 Z-0.0527
X1.1385 Z-0.0545
X1.1393 Z-0.0561
X1.1675 Z-0.057
X1.1955 Z-0.0595
X1.2216 Z-0.0633
X1.247 Z-0.0687
X1.2725 Z-0.0762
X1.2936 Z-0.084
X1.2937 Z-0.092
X1.2891 Y1.5546
X1.2845 Y1.559
Z-0.084
X1.2607 Z-0.0755
X1.2374 Z-0.0689
X1.2112 Z-0.0634
X1.1841 Z-0.0595
X1.1553 Z-0.057
X1.1264 Z-0.0561
X1.1256 Z-0.0545
X1.1254 Z-0.0527
X1.1251 Y1.5592 Z-0.0506
X1.1244 Y1.5596 Z-0.0486
X1.1233 Y1.5603 Z-0.0469
X1.1219 Y1.5613 Z-0.0455
X1.1202 Y1.5624 Z-0.0447
X1.1184 Y1.5635 Z-0.0444
X1.1166 Y1.5647 Z-0.0447
X1.1149 Y1.5658 Z-0.0455
X1.1135 Y1.5667 Z-0.0469
X1.1124 Y1.5674 Z-0.0486
X1.1117 Y1.5679 Z-0.0506
X1.1115 Y1.568 Z-0.0527
X1.1117 Z-0.0545
X1.1125 Z-0.0561
X1.1428 Z-0.057
X1.1719 Z-0.0594
X1.2009 Z-0.0635
X1.2259 Z-0.0687
X1.2516 Z-0.0757
X1.2747 Z-0.084
Z-0.092
X1.2699 Y1.5725
X1.265 Y1.577
X1.2649 Z-0.084
X1.2414 Z-0.0758
X1.2161 Z-0.0689
X1.1884 Z-0.0634
X1.16 Z-0.0595
X1.1293 Z-0.057
X1.0982 Z-0.0561
X1.0974 Z-0.0545
X1.0972 Z-0.0527
X1.0969 Y1.5772 Z-0.0504
X1.0961 Y1.5776 Z-0.0482
X1.0949 Y1.5783 Z-0.0463
X1.0933 Y1.5793 Z-0.0449
X1.0914 Y1.5804 Z-0.044
X1.0894 Y1.5815 Z-0.0437
X1.0873 Y1.5827 Z-0.044
X1.0855 Y1.5838 Z-0.0449
X1.0839 Y1.5847 Z-0.0463
X1.0826 Y1.5854 Z-0.0482
X1.0818 Y1.5859 Z-0.0504
X1.0816 Y1.586 Z-0.0527
X1.0818 Z-0.0545
X1.0826 Z-0.0561
X1.116 Z-0.0571
X1.1464 Z-0.0594
X1.1768 Z-0.0634
X1.2036 Z-0.0687
X1.2296 Z-0.0754
X1.2547 Z-0.084
Z-0.092
X1.2439 Y1.595
Z-0.084
X1.2239 Z-0.0772
X1.2175 Z-0.0753
X1.1922 Z-0.0687
X1.1636 Z-0.0634
X1.1333 Z-0.0595
X1.1004 Z-0.057
X1.0663 Z-0.0561
X1.0656 Z-0.0545
X1.0653 Z-0.0527
X1.0651 Y1.5951 Z-0.0504
X1.0643 Y1.5955 Z-0.0481
X1.0631 Y1.5961 Z-0.0462
X1.0615 Y1.597 Z-0.0446
X1.0597 Y1.5979 Z-0.0435
X1.0576 Y1.599 Z-0.0429
X1.0555 Y1.6001
X1.0534 Y1.6011 Z-0.0435
X1.0515 Y1.6021 Z-0.0446
X1.05 Y1.6029 Z-0.0462
X1.0488 Y1.6035 Z-0.0481
X1.048 Y1.6039 Z-0.0504
X1.0477 Y1.604 Z-0.0527
X1.048 Z-0.0545
X1.0488 Z-0.0561
X1.0846 Z-0.057
X1.1199 Z-0.0595
X1.1516 Z-0.0635
X1.1793 Z-0.0687
X1.2067 Z-0.0755
X1.2331 Z-0.084
X1.2332 Z-0.092
X1.2273 Y1.6085
X1.2214 Y1.613
Z-0.084
X1.1974 Z-0.0763
X1.1831 Z-0.0727
X1.1667 Z-0.0687
X1.1362 Z-0.0633
X1.1037 Z-0.0595
X1.0677 Z-0.057
X1.0297 Z-0.0561
X1.029 Z-0.0545
X1.0287 Z-0.0527
X1.0284 Y1.6131 Z-0.0503
X1.0277 Y1.6135 Z-0.0479
X1.0265 Y1.614 Z-0.0458
X1.0249 Y1.6147 Z-0.0441
X1.023 Y1.6156 Z-0.0428
X1.0209 Y1.6165 Z-0.042
X1.0186 Y1.6175 Z-0.0417
X1.0164 Y1.6185 Z-0.042
X1.0142 Y1.6195 Z-0.0428
X1.0123 Y1.6203 Z-0.0441
X1.0107 Y1.621 Z-0.0458
X1.0095 Y1.6216 Z-0.0479
X1.0088 Y1.6219 Z-0.0503
X1.0085 Y1.622 Z-0.0527
X1.0088 Z-0.0545
X1.0095 Z-0.0561
X1.0503 Z-0.0571
X1.0882 Z-0.0595
X1.1229 Z-0.0635
X1.1525 Z-0.0686
X1.1596 Z-0.0702
X1.1833 Z-0.0759
X1.2095 Z-0.084
X1.2096 Z-0.092
X1.2034 Y1.6266
X1.1971 Y1.631
Z-0.084
X1.1702 Z-0.0759
X1.139 Z-0.0687
X1.106 Z-0.0633
X1.0699 Z-0.0594
X1.0298 Z-0.057
X0.9864 Z-0.0561
X0.9857 Z-0.0545
X0.9854 Z-0.0527
X0.9851 Y1.6311 Z-0.0499
X0.9843 Y1.6314 Z-0.0472
X0.9829 Y1.6319 Z-0.0447
X0.9811 Y1.6325 Z-0.0426
X0.979 Y1.6333 Z-0.0409
X0.9765 Y1.6341 Z-0.0397
X0.9739 Y1.635 Z-0.0391
X0.9712 Y1.636
X0.9685 Y1.6369 Z-0.0397
X0.9661 Y1.6378 Z-0.0409
X0.9639 Y1.6385 Z-0.0426
X0.9621 Y1.6392 Z-0.0447
X0.9608 Y1.6396 Z-0.0472
X0.9599 Y1.6399 Z-0.0499
X0.9597 Y1.64 Z-0.0527
X0.9599 Z-0.0545
X0.9607 Z-0.0561
X1.0094 Z-0.057
X1.0522 Z-0.0595
X1.0628 Z-0.0605
X1.0929 Z-0.0638
X1.1221 Z-0.0684
X1.1288 Z-0.0697
X1.1544 Z-0.0754
X1.1645 Z-0.0782
X1.184 Z-0.084
X1.1841 Z-0.092
X1.1774 Y1.6446
X1.1707 Y1.649
Z-0.084
X1.1416 Z-0.0758
X1.1092 Z-0.0689
X1.0732 Z-0.0634
X1.0337 Z-0.0596
X0.9881 Z-0.0571
X0.9311 Z-0.0561
X0.9303 Z-0.0545
X0.93 Z-0.0527
Z-0.0512
X0.9298 Y1.6491 Z-0.0479
X0.9289 Y1.6493 Z-0.0448
X0.9276 Y1.6496 Z-0.0418
X0.9258 Y1.65 Z-0.0391
X0.9235 Y1.6506 Z-0.0368
X0.9209 Y1.6512 Z-0.0349
X0.918 Y1.6519 Z-0.0336
X0.915 Y1.6526 Z-0.0327
X0.9118 Y1.6534 Z-0.0324
X0.9106 Y1.6537
X0.9075 Y1.6544 Z-0.0327
X0.9044 Y1.6551 Z-0.0336
X0.9015 Y1.6558 Z-0.0349
X0.8989 Y1.6565 Z-0.0368
X0.8967 Y1.657 Z-0.0391
X0.8948 Y1.6574 Z-0.0418
X0.8935 Y1.6578 Z-0.0448
X0.8927 Y1.6579 Z-0.0479
X0.8924 Y1.658 Z-0.0512
X0.8927 Z-0.0531
X0.8936 Z-0.0548
X0.895 Z-0.0561
X0.9599 Z-0.0571
X1.0111 Z-0.0595
X1.0533 Z-0.0633
X1.0672 Z-0.0652
X1.0929 Z-0.069
X1.1242 Z-0.0754
X1.1355 Z-0.0783
X1.1562 Z-0.084
Z-0.092
X1.1489 Y1.6625
X1.1417 Y1.667
X1.1416 Z-0.084
X1.1104 Z-0.0759
X1.0781 Z-0.0695
X1.0699 Z-0.0683
X1.0385 Z-0.064
X1.0299 Z-0.0631
X0.9925 Z-0.0599
X0.9814 Z-0.0592
X0.9321 Z-0.0571
X0.8465 Z-0.0561
G3 X0.8411 Z-0.0458 I0.0071 K0.0103
G0 Z0.2
X0.6453 Y0.3351
Z0.0239
G1 Z-0.0458 F20
G3 X0.6398 Z-0.0561 I-0.0125 K0
G1 X0.5606 Z-0.0571
X0.5069 Z-0.0595
X0.472 Z-0.0625
X0.4575 Z-0.0639
X0.4189 Z-0.0693
X0.3846 Z-0.0762
X0.3552 Z-0.084
Z-0.092
X0.3476 Y0.3395
X0.3401 Y0.3441
Z-0.084
X0.3684 Z-0.0763
X0.3758 Z-0.0746
X0.4019 Z-0.0693
X0.4147 Z-0.0672
X0.4423 Z-0.0633
X0.4819 Z-0.0596
X0.5319 Z-0.0571
X0.5956 Z-0.0561
X0.5964 Z-0.0545
X0.5966 Z-0.0527
X0.5963 Y0.3442 Z-0.0495
X0.5955 Y0.3444 Z-0.0463
X0.5941 Y0.3448 Z-0.0434
X0.5922 Y0.3453 Z-0.0408
X0.5898 Y0.3459 Z-0.0386
X0.5871 Y0.3466 Z-0.0369
X0.5842 Y0.3474 Z-0.0357
X0.5811 Y0.3482 Z-0.0351
X0.578 Y0.349
X0.5749 Y0.3498 Z-0.0357
X0.5719 Y0.3506 Z-0.0369
X0.5692 Y0.3513 Z-0.0386
X0.5669 Y0.3519 Z-0.0408
X0.565 Y0.3524 Z-0.0434
X0.5636 Y0.3528 Z-0.0463
X0.5627 Y0.353 Z-0.0495
X0.5624 Y0.3531 Z-0.0527
X0.5622 Z-0.0545
X0.5614 Z-0.0561
X0.505 Z-0.0572
X0.4597 Z-0.0597
X0.4209 Z-0.0637
X0.3861 Z-0.0691
X0.3536 Z-0.0762
X0.3263 Z-0.084
Z-0.092
X0.3194 Y0.3576
X0.3126 Y0.3621
Z-0.084
X0.3389 Z-0.0763
X0.3463 Z-0.0745
X0.3711 Z-0.069
X0.4043 Z-0.0636
X0.4416 Z-0.0596
X0.4825 Z-0.0572
X0.5327 Z-0.0561
X0.5335 Z-0.0545
X0.5338 Z-0.0527
X0.5335 Y0.3622 Z-0.0499
X0.5327 Y0.3625 Z-0.0473
X0.5314 Y0.3629 Z-0.0449
X0.5296 Y0.3636 Z-0.0428
X0.5275 Y0.3643 Z-0.0412
X0.5251 Y0.3652 Z-0.0401
X0.5225 Y0.3661 Z-0.0395
X0.5199 Y0.3671
X0.5174 Y0.368 Z-0.0401
X0.515 Y0.3688 Z-0.0412
X0.5129 Y0.3696 Z-0.0428
X0.5111 Y0.3702 Z-0.0449
X0.5098 Y0.3707 Z-0.0473
X0.509 Y0.371 Z-0.0499
X0.5087 Y0.3711 Z-0.0527
X0.5085 Z-0.0545
X0.5077 Z-0.0561
X0.4617 Z-0.0572
X0.4228 Z-0.0597
X0.3883 Z-0.0636
X0.3561 Z-0.069
X0.3256 Z-0.0761
X0.3 Z-0.084
Z-0.092
X0.2938 Y0.3756
X0.2876 Y0.3801
Z-0.084
X0.2982 Z-0.0807
X0.3155 Z-0.0754
X0.3413 Z-0.0692
X0.3718 Z-0.0638
X0.4055 Z-0.0598
X0.4428 Z-0.0572
X0.4859 Z-0.0561
X0.4867 Z-0.0545
X0.4869 Z-0.0527
X0.4867 Y0.3802 Z-0.0502
X0.4859 Y0.3805 Z-0.0479
X0.4847 Y0.3811 Z-0.0458
X0.4831 Y0.3818 Z-0.044
X0.4812 Y0.3826 Z-0.0427
X0.4791 Y0.3836 Z-0.0419
X0.4768 Y0.3846 Z-0.0416
X0.4746 Y0.3856 Z-0.0419
X0.4724 Y0.3865 Z-0.0427
X0.4705 Y0.3874 Z-0.044
X0.4689 Y0.3881 Z-0.0458
X0.4677 Y0.3886 Z-0.0479
X0.4669 Y0.389 Z-0.0502
X0.4667 Y0.3891 Z-0.0527
X0.4664 Z-0.0545
X0.4657 Z-0.0561
X0.4259 Z-0.0572
X0.3902 Z-0.0597
X0.3586 Z-0.0636
X0.3286 Z-0.069
X0.3001 Z-0.0762
X0.2758 Z-0.084
Z-0.092
X0.2701 Y0.3936
X0.2645 Y0.3981
Z-0.084
X0.2894 Z-0.0758
X0.3152 Z-0.0692
X0.3438 Z-0.0638
X0.3758 Z-0.0596
X0.4094 Z-0.0572
X0.4469 Z-0.0561
X0.4476 Z-0.0545
X0.4479 Z-0.0527
X0.4477 Y0.3982 Z-0.0504
X0.4469 Y0.3986 Z-0.0483
X0.4458 Y0.3992 Z-0.0463
X0.4442 Y0.4 Z-0.0448
X0.4424 Y0.401 Z-0.0437
X0.4404 Y0.402 Z-0.0432
X0.4384 Y0.4031
X0.4364 Y0.4042 Z-0.0437
X0.4346 Y0.4051 Z-0.0448
X0.4331 Y0.4059 Z-0.0463
X0.4319 Y0.4066 Z-0.0483
X0.4312 Y0.407 Z-0.0504
X0.4309 Y0.4071 Z-0.0527
X0.4307 Z-0.0545
X0.4299 Z-0.0561
X0.3936 Z-0.0572
X0.3612 Z-0.0597
X0.3319 Z-0.0636
X0.3032 Z-0.0691
X0.2766 Z-0.0762
X0.2533 Z-0.084
Z-0.092
X0.2481 Y0.4116
X0.243 Y0.4161
Z-0.084
X0.2663 Z-0.0759
X0.2915 Z-0.0692
X0.3184 Z-0.0638
X0.3476 Z-0.0597
X0.3798 Z-0.0571
X0.4134 Z-0.0561
X0.4141 Z-0.0545
X0.4144 Z-0.0527
X0.4141 Y0.4162 Z-0.0505
X0.4134 Y0.4167 Z-0.0484
X0.4122 Y0.4174 Z-0.0466
X0.4107 Y0.4183 Z-0.0452
X0.4089 Y0.4194 Z-0.0443
X0.407 Y0.4206 Z-0.0441
X0.4051 Y0.4217 Z-0.0443
X0.4033 Y0.4228 Z-0.0452
X0.4018 Y0.4238 Z-0.0466
X0.4006 Y0.4245 Z-0.0484
X0.3999 Y0.4249 Z-0.0505
X0.3996 Y0.4251 Z-0.0527
X0.3993 Z-0.0545
X0.3986 Z-0.0561
X0.3654 Z-0.0572
X0.3355 Z-0.0597
X0.3072 Z-0.0636
X0.2797 Z-0.0693
X0.2551 Z-0.0762
X0.2327 Z-0.084
Z-0.092
X0.2277 Y0.4295
X0.2228 Y0.4341
Z-0.084
X0.2447 Z-0.0761
X0.2695 Z-0.0692
X0.2954 Z-0.0637
X0.3231 Z-0.0597
X0.352 Z-0.0572
X0.3839 Z-0.0561
X0.3847 Z-0.0545
X0.3849 Z-0.0527
X0.3847 Y0.4342 Z-0.0506
X0.384 Y0.4347 Z-0.0487
X0.383 Y0.4354 Z-0.0471
X0.3816 Y0.4363 Z-0.0458
X0.38 Y0.4374 Z-0.045
X0.3783 Y0.4386 Z-0.0447
X0.3766 Y0.4397 Z-0.045
X0.375 Y0.4408 Z-0.0458
X0.3737 Y0.4418 Z-0.0471
X0.3726 Y0.4425 Z-0.0487
X0.372 Y0.4429 Z-0.0506
X0.3717 Y0.4431 Z-0.0527
X0.3715 Z-0.0545
X0.3707 Z-0.0561
X0.3401 Z-0.0571
X0.3111 Z-0.0597
X0.2848 Z-0.0636
X0.2586 Z-0.0693
X0.2353 Z-0.076
X0.2135 Z-0.084
Z-0.092
X0.2042 Y0.4521
Z-0.084
X0.2253 Z-0.0762
X0.2494 Z-0.0691
X0.2737 Z-0.0638
X0.2996 Z-0.0598
X0.3278 Z-0.0572
X0.3576 Z-0.0561
X0.3583 Z-0.0545
X0.3586 Z-0.0527
X0.3583 Y0.4523 Z-0.0506
X0.3576 Y0.4528 Z-0.0486
X0.3565 Y0.4536 Z-0.047
X0.355 Y0.4547 Z-0.0459
X0.3534 Y0.4559 Z-0.0453
X0.3517 Y0.4572
X0.35 Y0.4584 Z-0.0459
X0.3486 Y0.4595 Z-0.047
X0.3475 Y0.4604 Z-0.0486
X0.3467 Y0.4609 Z-0.0506
X0.3465 Y0.4611 Z-0.0527
X0.3462 Z-0.0545
X0.3455 Z-0.0561
X0.3163 Z-0.0572
X0.2895 Z-0.0597
X0.2638 Z-0.0637
X0.2392 Z-0.0692
X0.2165 Z-0.0759
X0.1953 Z-0.084
Z-0.092
X0.1868 Y0.4701
Z-0.084
X0.2069 Z-0.0763
X0.2296 Z-0.0692
X0.2537 Z-0.0638
X0.2786 Z-0.0598
X0.3053 Z-0.0572
X0.3337 Z-0.0561
X0.3345 Z-0.0545
X0.3347 Z-0.0527
X0.3345 Y0.4703 Z-0.0507
X0.3338 Y0.4708 Z-0.0488
X0.3328 Y0.4716 Z-0.0473
X0.3314 Y0.4727 Z-0.0462
X0.3299 Y0.4739 Z-0.0456
X0.3283 Y0.4752
X0.3268 Y0.4764 Z-0.0462
X0.3254 Y0.4775 Z-0.0473
X0.3244 Y0.4784 Z-0.0488
X0.3237 Y0.4789 Z-0.0507
X0.3235 Y0.4791 Z-0.0527
X0.3232 Z-0.0545
X0.3225 Z-0.0561
X0.2946 Z-0.0572
X0.2691 Z-0.0597
X0.2442 Z-0.0638
X0.221 Z-0.0692
X0.1982 Z-0.0762
X0.1783 Z-0.084
Z-0.092
X0.1742 Y0.4835
X0.1703 Y0.4881
Z-0.084
X0.1904 Z-0.076
X0.2119 Z-0.0693
X0.2353 Z-0.0637
X0.2594 Z-0.0597
X0.2847 Z-0.0572
X0.3119 Z-0.0561
X0.3126 Z-0.0545
X0.3129 Z-0.0527
X0.3127 Y0.4883 Z-0.0508
X0.312 Y0.4888 Z-0.049
X0.311 Y0.4896 Z-0.0475
X0.3098 Y0.4907 Z-0.0464
X0.3083 Y0.4919 Z-0.0458
X0.3068 Y0.4932
X0.3054 Y0.4944 Z-0.0464
X0.3041 Y0.4955 Z-0.0475
X0.3031 Y0.4964 Z-0.049
X0.3025 Y0.4969 Z-0.0508
X0.3023 Y0.4971 Z-0.0527
X0.302 Z-0.0545
X0.3013 Z-0.0561
X0.2748 Z-0.0572
X0.2503 Z-0.0597
X0.2264 Z-0.0638
X0.2038 Z-0.0692
X0.1819 Z-0.0762
X0.1626 Z-0.084
Z-0.092
X0.1587 Y0.5016
X0.1549 Y0.5061
Z-0.084
X0.1739 Z-0.0762
X0.1953 Z-0.0693
X0.2178 Z-0.0638
X0.2411 Z-0.0598
X0.2653 Z-0.0572
X0.2917 Z-0.0561
X0.2924 Z-0.0545
X0.2927 Z-0.0527
X0.2925 Y0.5063 Z-0.0509
X0.2919 Y0.5068 Z-0.0492
X0.291 Y0.5076 Z-0.0477
X0.2899 Y0.5087 Z-0.0467
X0.2886 Y0.5099 Z-0.0462
X0.2872 Y0.5112
X0.2859 Y0.5124 Z-0.0467
X0.2847 Y0.5135 Z-0.0477
X0.2838 Y0.5144 Z-0.0492
X0.2833 Y0.5149 Z-0.0509
X0.2831 Y0.5151 Z-0.0527
X0.2828 Z-0.0545
X0.2821 Z-0.0561
X0.2565 Z-0.0572
X0.2325 Z-0.0597
X0.2095 Z-0.0638
X0.1874 Z-0.0693
X0.1666 Z-0.0762
X0.1475 Z-0.084
Z-0.092
X0.144 Y0.5196
X0.1405 Y0.5241
Z-0.084
X0.1592 Z-0.0762
X0.18 Z-0.0692
X0.2016 Z-0.0638
X0.2244 Z-0.0597
X0.2485 Z-0.0571
X0.2729 Z-0.0561
X0.2736 Z-0.0545
X0.2739 Z-0.0527
X0.2737 Y0.5243 Z-0.0508
X0.2731 Y0.5249 Z-0.049
X0.2721 Y0.5259 Z-0.0477
X0.2709 Y0.5272 Z-0.0468
X0.2696 Y0.5286 Z-0.0465
X0.2682 Y0.53 Z-0.0468
X0.267 Y0.5312 Z-0.0477
X0.266 Y0.5322 Z-0.049
X0.2654 Y0.5329 Z-0.0508
X0.2652 Y0.5331 Z-0.0527
X0.2649 Z-0.0545
X0.2642 Z-0.0561
X0.2401 Z-0.0571
X0.2163 Z-0.0598
X0.1941 Z-0.0637
X0.1724 Z-0.0693
X0.1519 Z-0.0762
X0.1335 Z-0.084
Z-0.092
X0.13 Y0.5375
X0.1267 Y0.5421
Z-0.084
X0.1452 Z-0.0762
X0.1652 Z-0.0693
X0.1866 Z-0.0638
X0.2086 Z-0.0597
X0.2316 Z-0.0572
X0.2555 Z-0.0561
X0.2563 Z-0.0545
X0.2565 Z-0.0527
X0.2563 Y0.5423 Z-0.0508
X0.2558 Y0.5429 Z-0.0492
X0.2549 Y0.5439 Z-0.0478
X0.2538 Y0.5452 Z-0.047
X0.2525 Y0.5466 Z-0.0467
X0.2513 Y0.548 Z-0.047
X0.2501 Y0.5492 Z-0.0478
X0.2492 Y0.5502 Z-0.0492
X0.2487 Y0.5509 Z-0.0508
X0.2485 Y0.5511 Z-0.0527
X0.2482 Z-0.0545
X0.2475 Z-0.0561
X0.2233 Z-0.0572
X0.2013 Z-0.0597
X0.1792 Z-0.0638
X0.1585 Z-0.0692
X0.1384 Z-0.0762
X0.1203 Z-0.084
Z-0.092
X0.114 Y0.5601
Z-0.084
X0.1319 Z-0.0761
X0.1517 Z-0.0693
X0.1724 Z-0.0638
X0.1941 Z-0.0597
X0.2164 Z-0.0572
X0.2396 Z-0.0561
X0.2404 Z-0.0545
X0.2406 Z-0.0527
X0.2404 Y0.5603 Z-0.0509
X0.2399 Y0.5609 Z-0.0492
X0.239 Y0.5619 Z-0.0479
X0.2379 Y0.5632 Z-0.047
X0.2367 Y0.5646 Z-0.0468
X0.2355 Y0.566 Z-0.047
X0.2344 Y0.5672 Z-0.0479
X0.2336 Y0.5682 Z-0.0492
X0.233 Y0.5689 Z-0.0509
X0.2328 Y0.5691 Z-0.0527
X0.2326 Z-0.0545
X0.2318 Z-0.0561
X0.2089 Z-0.0572
X0.187 Z-0.0597
X0.1656 Z-0.0638
X0.145 Z-0.0693
X0.1256 Z-0.0762
X0.1077 Z-0.084
Z-0.092
X0.1048 Y0.5736
X0.1019 Y0.5781
Z-0.084
X0.1193 Z-0.0762
X0.1389 Z-0.0693
X0.1588 Z-0.0638
X0.1803 Z-0.0597
X0.2019 Z-0.0572
X0.2245 Z-0.0561
X0.2253 Z-0.0545
X0.2256 Z-0.0527
X0.2254 Y0.5783 Z-0.051
X0.2249 Y0.5789 Z-0.0494
X0.2241 Y0.5799 Z-0.0481
X0.2231 Y0.5812 Z-0.0473
X0.222 Y0.5826 Z-0.047
X0.221 Y0.584 Z-0.0473
X0.22 Y0.5852 Z-0.0481
X0.2192 Y0.5862 Z-0.0494
X0.2187 Y0.5869 Z-0.051
X0.2185 Y0.5871 Z-0.0527
X0.2183 Z-0.0545
X0.2175 Z-0.0561
X0.1949 Z-0.0572
X0.1732 Z-0.0598
X0.1529 Z-0.0638
X0.1329 Z-0.0692
X0.1132 Z-0.0762
X0.0962 Z-0.084
Z-0.092
X0.0933 Y0.5916
X0.0904 Y0.5961
Z-0.084
X0.1078 Z-0.0762
X0.1265 Z-0.0693
X0.1468 Z-0.0638
X0.1675 Z-0.0597
X0.1882 Z-0.0572
X0.2105 Z-0.0561
X0.2112 Z-0.0545
X0.2115 Z-0.0527
X0.2113 Y0.5963 Z-0.051
X0.2109 Y0.5969 Z-0.0495
X0.2102 Y0.5979 Z-0.0482
X0.2093 Y0.5992 Z-0.0474
X0.2082 Y0.6006 Z-0.0472
X0.2072 Y0.602 Z-0.0474
X0.2063 Y0.6032 Z-0.0482
X0.2056 Y0.6042 Z-0.0495
X0.2051 Y0.6049 Z-0.051
X0.205 Y0.6051 Z-0.0527
X0.2047 Z-0.0545
X0.204 Z-0.0561
X0.182 Z-0.0572
X0.1615 Z-0.0597
X0.1404 Z-0.0638
X0.1212 Z-0.0692
X0.1021 Z-0.0763
X0.085 Z-0.084
Z-0.092
X0.0825 Y0.6096
X0.0799 Y0.6141
Z-0.084
X0.0965 Z-0.0763
X0.1155 Z-0.0693
X0.1351 Z-0.0638
X0.1549 Z-0.0598
X0.1759 Z-0.0572
X0.1977 Z-0.0561
X0.1984 Z-0.0545
X0.1987 Z-0.0527
X0.1985 Y0.6143 Z-0.051
X0.1981 Y0.6149 Z-0.0495
X0.1974 Y0.6159 Z-0.0483
X0.1965 Y0.6172 Z-0.0475
X0.1955 Y0.6186 Z-0.0472
X0.1945 Y0.62 Z-0.0475
X0.1937 Y0.6212 Z-0.0483
X0.193 Y0.6222 Z-0.0495
X0.1925 Y0.6228 Z-0.051
X0.1924 Y0.6231 Z-0.0527
X0.1921 Z-0.0545
X0.1913 Z-0.0561
X0.1696 Z-0.0572
X0.1497 Z-0.0597
X0.1295 Z-0.0638
X0.1099 Z-0.0693
X0.0915 Z-0.0762
X0.0747 Z-0.084
Z-0.092
X0.0722 Y0.6276
X0.0696 Y0.6321
Z-0.084
X0.0865 Z-0.0762
X0.1049 Z-0.0693
X0.1238 Z-0.0638
X0.1439 Z-0.0597
X0.1639 Z-0.0572
X0.1854 Z-0.0561
X0.1862 Z-0.0545
X0.1864 Z-0.0527
X0.1863 Y0.6323 Z-0.0511
X0.1859 Y0.6329 Z-0.0496
X0.1853 Y0.6339 Z-0.0484
X0.1845 Y0.6352 Z-0.0477
X0.1836 Y0.6366 Z-0.0474
X0.1827 Y0.638 Z-0.0477
X0.1819 Y0.6392 Z-0.0484
X0.1813 Y0.6402 Z-0.0496
X0.1809 Y0.6408 Z-0.0511
X0.1807 Y0.6411 Z-0.0527
X0.1805 Z-0.0545
X0.1797 Z-0.0561
X0.159 Z-0.0571
X0.1382 Z-0.0598
X0.1188 Z-0.0638
X0.0998 Z-0.0693
X0.0814 Z-0.0762
X0.065 Z-0.084
Z-0.092
X0.0627 Y0.6456
X0.0604 Y0.6501
Z-0.084
X0.0769 Z-0.0761
X0.095 Z-0.0692
X0.1141 Z-0.0637
X0.1333 Z-0.0597
X0.1528 Z-0.0572
X0.1741 Z-0.0561
X0.1748 Z-0.0545
X0.1751 Z-0.0527
X0.1749 Y0.6503 Z-0.0511
X0.1745 Y0.6509 Z-0.0496
X0.174 Y0.6519 Z-0.0485
X0.1732 Y0.6532 Z-0.0477
X0.1724 Y0.6546 Z-0.0475
X0.1715 Y0.656 Z-0.0477
X0.1708 Y0.6572 Z-0.0485
X0.1702 Y0.6582 Z-0.0496
X0.1698 Y0.6588 Z-0.0511
X0.1697 Y0.6591 Z-0.0527
X0.1694 Z-0.0545
X0.1686 Z-0.0561
X0.1482 Z-0.0572
X0.1285 Z-0.0597
X0.1087 Z-0.0638
X0.0901 Z-0.0693
X0.0724 Z-0.0761
X0.0558 Z-0.084
Z-0.092
X0.0535 Y0.6635
X0.0514 Y0.6681
Z-0.084
X0.0677 Z-0.0762
X0.0856 Z-0.0693
X0.1043 Z-0.0638
X0.1231 Z-0.0598
X0.1432 Z-0.0572
X0.1636 Z-0.0561
X0.1644 Z-0.0545
X0.1646 Z-0.0527
X0.1645 Y0.6683 Z-0.051
X0.164 Y0.6691 Z-0.0494
X0.1634 Y0.6703 Z-0.0483
X0.1625 Y0.6718 Z-0.0476
X0.1617 Y0.6733
X0.1608 Y0.6748 Z-0.0483
X0.1602 Y0.676 Z-0.0494
X0.1597 Y0.6768 Z-0.051
X0.1596 Y0.6771 Z-0.0527
X0.1593 Z-0.0545
X0.1586 Z-0.0561
X0.1377 Z-0.0572
X0.1188 Z-0.0597
X0.0997 Z-0.0638
X0.0811 Z-0.0693
X0.0633 Z-0.0762
X0.0473 Z-0.084
Z-0.092
X0.0433 Y0.6861
Z-0.084
X0.0592 Z-0.0763
X0.0768 Z-0.0693
X0.0952 Z-0.0638
X0.1144 Z-0.0597
X0.1336 Z-0.0572
X0.1536 Z-0.0561
X0.1539 Z-0.0552
Z-0.0551
X0.1537 Y0.6863 Z-0.0534
X0.1533 Y0.6871 Z-0.0519
X0.1527 Y0.6883 Z-0.0508
X0.152 Y0.6898 Z-0.0502
X0.1512 Y0.6913
X0.1505 Y0.6928 Z-0.0508
X0.1499 Y0.694 Z-0.0519
X0.1495 Y0.6948 Z-0.0534
X0.1494 Y0.6951 Z-0.0551
X0.1491 Z-0.0561
X0.1291 Z-0.0572
X0.1096 Z-0.0598
X0.0911 Z-0.0638
X0.0728 Z-0.0693
X0.0552 Z-0.0762
X0.0392 Z-0.084
Z-0.092
X0.0355 Y0.7041
Z-0.084
X0.0512 Z-0.0762
X0.0688 Z-0.0693
X0.0871 Z-0.0638
X0.1059 Z-0.0597
X0.1246 Z-0.0572
X0.1446 Z-0.0561
X0.1454 Z-0.0545
X0.1457 Z-0.0527
X0.1455 Y0.7043 Z-0.051
X0.1451 Y0.7051 Z-0.0495
X0.1445 Y0.7063 Z-0.0484
X0.1438 Y0.7078 Z-0.0478
X0.143 Y0.7093
X0.1423 Y0.7108 Z-0.0484
X0.1417 Y0.712 Z-0.0495
X0.1413 Y0.7128 Z-0.051
X0.1412 Y0.7131 Z-0.0527
X0.1409 Z-0.0545
X0.1402 Z-0.0561
X0.1206 Z-0.0572
X0.1019 Z-0.0597
X0.083 Z-0.0638
X0.0644 Z-0.0695
X0.0477 Z-0.0762
X0.0319 Z-0.084
Z-0.092
X0.0283 Y0.7221
Z-0.084
X0.044 Z-0.0762
X0.0614 Z-0.0693
X0.0793 Z-0.0637
X0.0979 Z-0.0597
X0.1167 Z-0.0572
X0.1361 Z-0.0561
X0.1364 Z-0.0551
X0.1363 Y0.7223 Z-0.0535
X0.1359 Y0.7231 Z-0.052
X0.1354 Y0.7243 Z-0.0509
X0.1348 Y0.7258 Z-0.0503
X0.1341 Y0.7273
X0.1334 Y0.7288 Z-0.0509
X0.1329 Y0.73 Z-0.052
X0.1326 Y0.7308 Z-0.0535
X0.1325 Y0.7311 Z-0.0551
Z-0.0553
X0.1322 Z-0.0561
X0.1124 Z-0.0572
X0.0938 Z-0.0598
X0.0758 Z-0.0637
X0.0578 Z-0.0693
X0.0405 Z-0.0762
X0.0248 Z-0.084
Z-0.092
X0.0216 Y0.7401
Z-0.084
X0.0372 Z-0.0762
X0.0541 Z-0.0693
X0.0721 Z-0.0638
X0.0901 Z-0.0598
X0.1091 Z-0.0572
X0.1283 Z-0.0561
X0.1286 Z-0.0552
X0.1284 Y0.7403 Z-0.0535
X0.1281 Y0.7411 Z-0.052
X0.1276 Y0.7423 Z-0.0509
X0.127 Y0.7438 Z-0.0504
X0.1263 Y0.7453
X0.1257 Y0.7468 Z-0.0509
X0.1252 Y0.748 Z-0.052
X0.1249 Y0.7488 Z-0.0535
X0.1247 Y0.7491 Z-0.0552
X0.1245 Z-0.0561
X0.1053 Z-0.0572
X0.0869 Z-0.0597
X0.0682 Z-0.0639
X0.051 Z-0.0693
X0.0339 Z-0.0763
X0.0185 Z-0.084
Z-0.092
X0.0155 Y0.7581
Z-0.084
X0.031 Z-0.0762
X0.0478 Z-0.0693
X0.0655 Z-0.0638
X0.0837 Z-0.0597
X0.1018 Z-0.0572
X0.1211 Z-0.0561
X0.1218 Z-0.0545
X0.1221 Z-0.0527
X0.122 Y0.7583 Z-0.051
X0.1216 Y0.7591 Z-0.0495
X0.1211 Y0.7603 Z-0.0484
X0.1204 Y0.7618 Z-0.0479
X0.1197 Y0.7633
X0.119 Y0.7648 Z-0.0484
X0.1185 Y0.766 Z-0.0495
X0.1181 Y0.7668 Z-0.051
X0.118 Y0.7671 Z-0.0527
Z-0.0553
X0.1177 Z-0.0561
X0.0986 Z-0.0572
X0.0805 Z-0.0597
X0.0623 Z-0.0638
X0.0447 Z-0.0693
X0.0279 Z-0.0762
X0.0124 Z-0.084
Z-0.092
X0.0098 Y0.7761
Z-0.084
X0.0251 Z-0.0762
X0.0418 Z-0.0693
X0.0591 Z-0.0638
X0.0773 Z-0.0597
X0.0956 Z-0.0572
X0.1144 Z-0.0561
X0.1151 Z-0.0545
X0.1154 Z-0.0527
X0.1153 Y0.7763 Z-0.051
X0.1149 Y0.7771 Z-0.0496
X0.1144 Y0.7783 Z-0.0485
X0.1138 Y0.7798 Z-0.0479
X0.1131 Y0.7813
X0.1125 Y0.7828 Z-0.0485
X0.112 Y0.784 Z-0.0496
X0.1117 Y0.7848 Z-0.051
X0.1116 Y0.7851 Z-0.0527
Z-0.0552
X0.1113 Z-0.0561
X0.0923 Z-0.0572
X0.0732 Z-0.0599
X0.0563 Z-0.0638
X0.0392 Z-0.0693
X0.0223 Z-0.0763
X0.0072 Z-0.084
Z-0.092
X0.0045 Y0.7941
Z-0.084
X0.0197 Z-0.0762
X0.0366 Z-0.0692
X0.0537 Z-0.0638
X0.0717 Z-0.0597
X0.0895 Z-0.0572
X0.1084 Z-0.0561
X0.1092 Z-0.0545
X0.1094 Z-0.0527
X0.1093 Y0.7943 Z-0.0511
X0.109 Y0.7951 Z-0.0496
X0.1085 Y0.7963 Z-0.0485
X0.1079 Y0.7978 Z-0.0479
X0.1073 Y0.7993
X0.1067 Y0.8008 Z-0.0485
X0.1063 Y0.802 Z-0.0496
X0.106 Y0.8028 Z-0.0511
X0.1058 Y0.8031 Z-0.0527
Z-0.0553
X0.1056 Z-0.0561
X0.0869 Z-0.0572
X0.069 Z-0.0597
X0.0511 Z-0.0638
X0.0339 Z-0.0692
X0.0171 Z-0.0762
X0.002 Z-0.084
Z-0.092
X-0.0002 Y0.8121
Z-0.084
X0.015 Z-0.0762
X0.0314 Z-0.0693
X0.0487 Z-0.0638
X0.0664 Z-0.0597
X0.0841 Z-0.0572
X0.1027 Z-0.0561
X0.103 Z-0.0553
X0.1029 Y0.8123 Z-0.0537
X0.1027 Y0.8131 Z-0.0523
X0.1024 Y0.8143 Z-0.0513
X0.102 Y0.8158 Z-0.0507
X0.1016 Y0.8173
X0.1012 Y0.8188 Z-0.0513
X0.1009 Y0.82 Z-0.0523
X0.1006 Y0.8208 Z-0.0537
Y0.8211 Z-0.0553
X0.1003 Z-0.0561
X0.0819 Z-0.0572
X0.0641 Z-0.0597
X0.0464 Z-0.0638
X0.0292 Z-0.0693
X0.0128 Z-0.0762
X-0.0023 Z-0.084
Z-0.092
X-0.0045 Y0.8301
Z-0.084
X0.0104 Z-0.0763
X0.0271 Z-0.0692
X0.044 Z-0.0638
X0.0618 Z-0.0597
X0.0794 Z-0.0572
X0.098 Z-0.0561
X0.0983 Z-0.0551
X0.0982 Y0.8303 Z-0.0535
X0.098 Y0.8311 Z-0.0521
X0.0977 Y0.8323 Z-0.0511
X0.0973 Y0.8338 Z-0.0505
X0.0969 Y0.8353
X0.0965 Y0.8368 Z-0.0511
X0.0962 Y0.838 Z-0.0521
X0.096 Y0.8388 Z-0.0535
X0.0959 Y0.8391 Z-0.0551
Z-0.0552
X0.0956 Z-0.0561
X0.0771 Z-0.0572
X0.0596 Z-0.0597
X0.0418 Z-0.0638
X0.0248 Z-0.0693
X0.0085 Z-0.0762
X-0.0065 Z-0.084
Z-0.092
X-0.0083 Y0.8481
Z-0.084
X0.0066 Z-0.0762
X0.0232 Z-0.0692
X0.04 Z-0.0638
X0.0572 Z-0.0598
X0.0739 Z-0.0573
X0.0934 Z-0.0561
X0.0936 Z-0.0553
Y0.8483 Z-0.0537
X0.0934 Y0.8491 Z-0.0523
X0.0931 Y0.8503 Z-0.0513
X0.0928 Y0.8518 Z-0.0507
X0.0925 Y0.8533
X0.0922 Y0.8548 Z-0.0513
X0.092 Y0.856 Z-0.0523
X0.0918 Y0.8568 Z-0.0537
X0.0917 Y0.8571 Z-0.0553
Z-0.0554
X0.0915 Z-0.0561
X0.0735 Z-0.0571
X0.0558 Z-0.0597
X0.0382 Z-0.0638
X0.0211 Z-0.0693
X0.0048 Z-0.0762
X-0.01 Z-0.084
Z-0.092
X-0.0117 Y0.8661
Z-0.084
X0.0026 Z-0.0764
X0.0194 Z-0.0693
X0.0365 Z-0.0637
X0.0538 Z-0.0597
X0.0713 Z-0.0572
X0.0896 Z-0.0561
X0.0899 Z-0.0554
Z-0.0553
X0.0898 Y0.8663 Z-0.0537
X0.0897 Y0.8671 Z-0.0523
X0.0894 Y0.8683 Z-0.0513
X0.0891 Y0.8698 Z-0.0507
X0.0888 Y0.8713
X0.0885 Y0.8728 Z-0.0513
X0.0882 Y0.874 Z-0.0523
X0.0881 Y0.8748 Z-0.0537
X0.088 Y0.8751 Z-0.0553
X0.0878 Z-0.0561
X0.0696 Z-0.0572
X0.0512 Z-0.0599
X0.0346 Z-0.0638
X0.018 Z-0.0692
X0.0015 Z-0.0763
X-0.0133 Z-0.084
Z-0.092
X-0.0146 Y0.8841
Z-0.084
X0.0002 Z-0.0762
X0.0163 Z-0.0693
X0.0333 Z-0.0638
X0.0504 Z-0.0598
X0.0681 Z-0.0572
X0.0861 Z-0.0561
X0.0864 Z-0.0553
X0.0863 Y0.8843 Z-0.0538
X0.0862 Y0.8851 Z-0.0524
X0.086 Y0.8863 Z-0.0514
X0.0858 Y0.8878 Z-0.0508
X0.0855 Y0.8893
X0.0853 Y0.8908 Z-0.0514
X0.0851 Y0.892 Z-0.0524
X0.085 Y0.8928 Z-0.0538
Y0.8931 Z-0.0553
Z-0.0554
X0.0847 Z-0.0561
X0.0664 Z-0.0572
X0.0491 Z-0.0597
X0.032 Z-0.0637
X0.015 Z-0.0693
X-0.0012 Z-0.0762
X-0.0159 Z-0.084
Z-0.092
X-0.0172 Y0.9021
Z-0.084
X-0.0026 Z-0.0763
X0.0129 Z-0.0696
X0.0306 Z-0.0637
X0.0476 Z-0.0597
X0.0651 Z-0.0572
X0.0833 Z-0.0561
X0.0836 Z-0.0552
X0.0835 Y0.9023 Z-0.0537
X0.0834 Y0.9031 Z-0.0523
X0.0832 Y0.9043 Z-0.0513
X0.083 Y0.9058 Z-0.0507
X0.0828 Y0.9073
X0.0825 Y0.9088 Z-0.0513
X0.0824 Y0.91 Z-0.0523
X0.0822 Y0.9108 Z-0.0537
Y0.9111 Z-0.0552
X0.0819 Z-0.0561
X0.0638 Z-0.0572
X0.0466 Z-0.0597
X0.0293 Z-0.0638
X0.0127 Z-0.0693
X-0.0034 Z-0.0762
X-0.0183 Z-0.084
Z-0.092
X-0.0192 Y0.9201
Z-0.084
X-0.0046 Z-0.0763
X0.0118 Z-0.0692
X0.0284 Z-0.0638
X0.0457 Z-0.0597
X0.0628 Z-0.0572
X0.0809 Z-0.0561
X0.0811 Z-0.0552
Y0.9203 Z-0.0537
X0.081 Y0.9211 Z-0.0523
X0.0809 Y0.9223 Z-0.0513
X0.0807 Y0.9238 Z-0.0508
X0.0806 Y0.9253
X0.0804 Y0.9268 Z-0.0513
X0.0803 Y0.928 Z-0.0523
X0.0802 Y0.9288 Z-0.0537
Y0.9291 Z-0.0552
Z-0.0553
X0.0799 Z-0.0561
X0.0618 Z-0.0572
X0.0448 Z-0.0597
X0.0274 Z-0.0638
X0.0108 Z-0.0692
X-0.0056 Z-0.0763
X-0.02 Z-0.084
Z-0.092
X-0.0209 Y0.9381
Z-0.084
X-0.0062 Z-0.0762
X0.0099 Z-0.0693
X0.0264 Z-0.0638
X0.0426 Z-0.06
X0.0606 Z-0.0572
X0.079 Z-0.0561
X0.0793 Z-0.0553
Z-0.0552
X0.0792 Y0.9383 Z-0.0536
Y0.9391 Z-0.0523
X0.079 Y0.9403 Z-0.0513
X0.0789 Y0.9418 Z-0.0507
X0.0787 Y0.9433
X0.0786 Y0.9448 Z-0.0513
X0.0785 Y0.946 Z-0.0523
X0.0784 Y0.9468 Z-0.0536
Y0.9471 Z-0.0552
X0.0781 Z-0.0561
X0.0601 Z-0.0572
X0.043 Z-0.0597
X0.0261 Z-0.0637
X0.0093 Z-0.0693
X-0.0068 Z-0.0762
X-0.0217 Z-0.084
Z-0.092
X-0.0221 Y0.9561
Z-0.084
X-0.0075 Z-0.0762
X0.0086 Z-0.0693
X0.0254 Z-0.0637
X0.0424 Z-0.0597
X0.0595 Z-0.0572
X0.0775 Z-0.0561
X0.0778 Z-0.0552
Y0.9563 Z-0.0537
Y0.9571 Z-0.0523
X0.0777 Y0.9583 Z-0.0513
X0.0776 Y0.9598 Z-0.0508
X0.0775 Y0.9613
Y0.9628 Z-0.0513
X0.0774 Y0.964 Z-0.0523
Y0.9648 Z-0.0537
X0.0773 Y0.9651 Z-0.0552
Z-0.0553
X0.0771 Z-0.0561
X0.0596 Z-0.0571
X0.0417 Z-0.0597
X0.0247 Z-0.0638
X0.008 Z-0.0693
X-0.0081 Z-0.0763
X-0.0225 Z-0.084
Z-0.092
X-0.0229 Y0.9741
Z-0.084
X-0.0084 Z-0.0763
X0.0079 Z-0.0692
X0.0243 Z-0.0638
X0.0416 Z-0.0597
X0.0586 Z-0.0572
X0.0766 Z-0.0561
X0.0769 Z-0.0553
Y0.9743 Z-0.0538
X0.0768 Y0.9751 Z-0.0525
Y0.9763 Z-0.0514
X0.0767 Y0.9778 Z-0.0509
X0.0766 Y0.9793
Y0.9808 Z-0.0514
X0.0765 Y0.982 Z-0.0525
Y0.9828 Z-0.0538
X0.0764 Y0.9831 Z-0.0553
Z-0.0554
X0.0762 Z-0.0561
X0.0586 Z-0.0572
X0.0412 Z-0.0597
X0.024 Z-0.0638
X0.0076 Z-0.0693
X-0.0085 Z-0.0762
X-0.0233 Z-0.084
Z-0.092
Y0.9921
Z-0.084
X-0.0088 Z-0.0762
X0.0073 Z-0.0693
X0.024 Z-0.0638
X0.0409 Z-0.0598
X0.0586 Z-0.0571
X0.0762 Z-0.0561
X0.0765 Z-0.0552
Y0.9923 Z-0.0536
Y0.9931 Z-0.0523
Y0.9943 Z-0.0513
Y0.9958 Z-0.0508
Y0.9973
X0.0764 Y0.9988 Z-0.0513
Y1 Z-0.0523
Y1.0008 Z-0.0536
Y1.001 Z-0.0552
Z-0.0553
X0.0762 Z-0.0561
X0.0582 Z-0.0572
X0.0401 Z-0.0599
X0.0231 Z-0.064
X0.0064 Z-0.0696
X-0.0094 Z-0.0765
X-0.0233 Z-0.084
Z-0.092
Y1.01
Z-0.084
X-0.0088 Z-0.0763
X0.0076 Z-0.0692
X0.024 Z-0.0638
X0.0408 Z-0.0598
X0.0583 Z-0.0572
X0.0762 Z-0.0561
X0.0764 Z-0.0553
Y1.0103 Z-0.0538
Y1.0111 Z-0.0524
X0.0765 Y1.0123 Z-0.0514
Y1.0138 Z-0.0509
Y1.0153
Y1.0168 Z-0.0514
Y1.018 Z-0.0524
Y1.0188 Z-0.0538
Y1.019 Z-0.0553
X0.0763 Z-0.0561
X0.0587 Z-0.0572
X0.0414 Z-0.0597
X0.0241 Z-0.0638
X0.0076 Z-0.0693
X-0.0084 Z-0.0762
X-0.0233 Z-0.084
Z-0.092
X-0.0228 Y1.028
Z-0.084
X-0.0082 Z-0.0762
X0.0079 Z-0.0692
X0.0244 Z-0.0638
X0.0417 Z-0.0597
X0.0587 Z-0.0572
X0.0768 Z-0.0561
X0.077 Z-0.0553
Y1.0283 Z-0.0537
Y1.0291 Z-0.0524
X0.0771 Y1.0303 Z-0.0514
X0.0772 Y1.0318 Z-0.0508
X0.0773 Y1.0333
Y1.0348 Z-0.0514
X0.0774 Y1.036 Z-0.0524
Y1.0368 Z-0.0537
X0.0775 Y1.037 Z-0.0553
X0.0772 Z-0.0561
X0.0592 Z-0.0572
X0.042 Z-0.0597
X0.0248 Z-0.0638
X0.0083 Z-0.0693
X-0.0078 Z-0.0762
X-0.0224 Z-0.084
Z-0.092
X-0.022 Y1.046
Z-0.084
X-0.0074 Z-0.0763
X0.0089 Z-0.0692
X0.0254 Z-0.0638
X0.0428 Z-0.0597
X0.0598 Z-0.0572
X0.0777 Z-0.0561
X0.0779 Z-0.0553
Y1.0463 Z-0.0537
X0.078 Y1.0471 Z-0.0524
X0.0781 Y1.0483 Z-0.0514
X0.0782 Y1.0498 Z-0.0508
X0.0783 Y1.0513
X0.0784 Y1.0528 Z-0.0514
X0.0785 Y1.054 Z-0.0524
Y1.0548 Z-0.0537
X0.0786 Y1.055 Z-0.0553
X0.0783 Z-0.0561
X0.0608 Z-0.0571
X0.043 Z-0.0597
X0.0261 Z-0.0637
X0.0093 Z-0.0693
X-0.0067 Z-0.0762
X-0.0215 Z-0.084
Z-0.092
X-0.0207 Y1.064
Z-0.084
X-0.0061 Z-0.0762
X0.0099 Z-0.0693
X0.0257 Z-0.0641
X0.0437 Z-0.0597
X0.0609 Z-0.0572
X0.0792 Z-0.0561
X0.0795 Z-0.0553
Y1.0643 Z-0.0538
X0.0796 Y1.0651 Z-0.0524
X0.0797 Y1.0663 Z-0.0514
X0.0799 Y1.0678 Z-0.0508
X0.08 Y1.0693
X0.0802 Y1.0708 Z-0.0514
X0.0803 Y1.072 Z-0.0524
X0.0804 Y1.0728 Z-0.0538
Y1.073 Z-0.0553
X0.0802 Z-0.0561
X0.0623 Z-0.0572
X0.0449 Z-0.0597
X0.0276 Z-0.0638
X0.0111 Z-0.0692
X-0.0053 Z-0.0762
X-0.0198 Z-0.084
Z-0.092
X-0.019 Y1.082
Z-0.084
X-0.0043 Z-0.0762
X0.0118 Z-0.0693
X0.0286 Z-0.0638
X0.046 Z-0.0597
X0.0631 Z-0.0572
X0.081 Z-0.0561
X0.0813 Z-0.0556
X0.0814 Z-0.055
Y1.0823 Z-0.0535
X0.0815 Y1.0831 Z-0.0521
X0.0817 Y1.0843 Z-0.0511
X0.0819 Y1.0858 Z-0.0506
X0.0821 Y1.0873
X0.0822 Y1.0888 Z-0.0511
X0.0824 Y1.09 Z-0.0521
X0.0825 Y1.0908 Z-0.0535
Y1.091 Z-0.055
Z-0.0552
X0.0823 Z-0.0561
X0.0634 Z-0.0573
X0.047 Z-0.0597
X0.0297 Z-0.0638
X0.0128 Z-0.0693
X-0.0032 Z-0.0762
X-0.0181 Z-0.084
Z-0.092
X-0.0169 Y1.1
Z-0.084
X-0.0031 Z-0.0766
X0.014 Z-0.0693
X0.031 Z-0.0637
X0.0481 Z-0.0597
X0.0655 Z-0.0572
X0.0837 Z-0.0561
X0.0839 Z-0.0554
Z-0.0552
Y1.1003 Z-0.0536
X0.0841 Y1.1011 Z-0.0523
X0.0843 Y1.1023 Z-0.0512
X0.0845 Y1.1038 Z-0.0507
X0.0847 Y1.1053
X0.085 Y1.1068 Z-0.0512
X0.0851 Y1.108 Z-0.0523
X0.0853 Y1.1088 Z-0.0536
Y1.109 Z-0.0552
X0.085 Z-0.0561
X0.0669 Z-0.0572
X0.0495 Z-0.0597
X0.0324 Z-0.0637
X0.0154 Z-0.0693
X-0.0008 Z-0.0762
X-0.0156 Z-0.084
Z-0.092
X-0.0143 Y1.118
Z-0.084
X0.0006 Z-0.0762
X0.0168 Z-0.0693
X0.0338 Z-0.0637
X0.0508 Z-0.0597
X0.0683 Z-0.0572
X0.0864 Z-0.0561
X0.0867 Z-0.0553
Z-0.0552
Y1.1183 Z-0.0536
X0.0869 Y1.1191 Z-0.0522
X0.0871 Y1.1203 Z-0.0512
X0.0874 Y1.1218 Z-0.0506
X0.0877 Y1.1233
X0.088 Y1.1248 Z-0.0512
X0.0883 Y1.126 Z-0.0522
X0.0884 Y1.1268 Z-0.0536
X0.0885 Y1.127 Z-0.0552
X0.0882 Z-0.0561
X0.0701 Z-0.0572
X0.0524 Z-0.0597
X0.0342 Z-0.064
X0.0181 Z-0.0693
X0.0019 Z-0.0762
X-0.013 Z-0.084
Z-0.092
X-0.0113 Y1.136
Z-0.084
X0.0034 Z-0.0762
X0.02 Z-0.0692
X0.0368 Z-0.0638
X0.054 Z-0.0598
X0.0721 Z-0.0571
X0.0901 Z-0.0561
X0.0903 Z-0.0552
X0.0904 Y1.1363 Z-0.0536
X0.0906 Y1.1371 Z-0.0522
X0.0908 Y1.1383 Z-0.0512
X0.0911 Y1.1398 Z-0.0507
X0.0914 Y1.1413
X0.0917 Y1.1428 Z-0.0512
X0.092 Y1.144 Z-0.0522
X0.0921 Y1.1448 Z-0.0536
X0.0922 Y1.145 Z-0.0552
Z-0.0553
X0.0919 Z-0.0561
X0.0739 Z-0.0571
X0.0558 Z-0.0598
X0.0386 Z-0.0638
X0.0216 Z-0.0693
X0.0053 Z-0.0762
X-0.0096 Z-0.084
Z-0.092
X-0.0079 Y1.154
Z-0.084
X0.0071 Z-0.0762
X0.0234 Z-0.0693
X0.0404 Z-0.0638
X0.0574 Z-0.0598
X0.0754 Z-0.0572
X0.0938 Z-0.0561
X0.0941 Z-0.0553
X0.0942 Y1.1543 Z-0.0537
X0.0944 Y1.1551 Z-0.0523
X0.0947 Y1.1563 Z-0.0513
X0.0951 Y1.1578 Z-0.0507
X0.0955 Y1.1593
X0.0958 Y1.1608 Z-0.0513
X0.0962 Y1.162 Z-0.0523
X0.0964 Y1.1628 Z-0.0537
Y1.163 Z-0.0553
X0.0962 Z-0.0561
X0.0782 Z-0.0571
X0.0599 Z-0.0597
X0.0425 Z-0.0637
X0.0248 Z-0.0695
X0.009 Z-0.0762
X-0.0061 Z-0.084
Z-0.092
X-0.004 Y1.172
Z-0.084
X0.0111 Z-0.0762
X0.0276 Z-0.0693
X0.0445 Z-0.0638
X0.0622 Z-0.0597
X0.08 Z-0.0572
X0.0985 Z-0.0561
X0.0988 Z-0.0553
Z-0.0552
Y1.1723 Z-0.0536
X0.099 Y1.1731 Z-0.0522
X0.0994 Y1.1743 Z-0.0511
X0.0998 Y1.1758 Z-0.0506
X0.1002 Y1.1773
X0.1006 Y1.1788 Z-0.0511
X0.1009 Y1.18 Z-0.0522
X0.1011 Y1.1808 Z-0.0536
Y1.181 Z-0.0552
X0.1009 Z-0.0561
X0.0821 Z-0.0572
X0.0645 Z-0.0597
X0.0468 Z-0.0638
X0.0298 Z-0.0692
X0.0131 Z-0.0763
X-0.0018 Z-0.084
Z-0.092
X0.0004 Y1.19
Z-0.084
X0.0155 Z-0.0762
X0.0319 Z-0.0693
X0.0485 Z-0.064
X0.0671 Z-0.0597
X0.0851 Z-0.0572
X0.1034 Z-0.0561
X0.1037 Z-0.0553
Z-0.0552
Y1.1903 Z-0.0536
X0.104 Y1.1911 Z-0.0521
X0.1044 Y1.1923 Z-0.0511
X0.1048 Y1.1938 Z-0.0505
X0.1053 Y1.1953
X0.1058 Y1.1968 Z-0.0511
X0.1062 Y1.198 Z-0.0521
X0.1064 Y1.1988 Z-0.0536
X0.1065 Y1.199 Z-0.0552
X0.1062 Z-0.0561
X0.0877 Z-0.0572
X0.0699 Z-0.0597
X0.0519 Z-0.0637
X0.0344 Z-0.0693
X0.0173 Z-0.0764
X0.0025 Z-0.084
Z-0.092
X0.0052 Y1.208
Z-0.084
X0.0204 Z-0.0762
X0.037 Z-0.0693
X0.0545 Z-0.0637
X0.0725 Z-0.0597
X0.0902 Z-0.0572
X0.1091 Z-0.0561
X0.1093 Z-0.0553
X0.1094 Y1.2083 Z-0.0536
X0.1097 Y1.2091 Z-0.0522
X0.1101 Y1.2103 Z-0.0512
X0.1105 Y1.2118 Z-0.0506
X0.111 Y1.2133
X0.1115 Y1.2148 Z-0.0512
X0.1119 Y1.216 Z-0.0522
X0.1121 Y1.2168 Z-0.0536
X0.1122 Y1.217 Z-0.0553
X0.1119 Z-0.0561
X0.0929 Z-0.0572
X0.0747 Z-0.0598
X0.0572 Z-0.0638
X0.0397 Z-0.0693
X0.0231 Z-0.0762
X0.0078 Z-0.084
Z-0.092
X0.0104 Y1.226
Z-0.084
X0.0257 Z-0.0762
X0.0421 Z-0.0694
X0.06 Z-0.0638
X0.0781 Z-0.0597
X0.0961 Z-0.0572
X0.1152 Z-0.0561
X0.1154 Z-0.0553
Z-0.0527
X0.1155 Y1.2263 Z-0.051
X0.1159 Y1.2271 Z-0.0495
X0.1164 Y1.2283 Z-0.0484
X0.1171 Y1.2298 Z-0.0479
X0.1178 Y1.2313
X0.1185 Y1.2328 Z-0.0484
X0.119 Y1.234 Z-0.0495
X0.1194 Y1.2348 Z-0.051
X0.1195 Y1.235 Z-0.0527
X0.1192 Z-0.0545
X0.1185 Z-0.0561
X0.0992 Z-0.0572
X0.0811 Z-0.0597
X0.0633 Z-0.0637
X0.0456 Z-0.0693
X0.0285 Z-0.0762
X0.0131 Z-0.084
Z-0.092
X0.0162 Y1.244
Z-0.084
X0.0315 Z-0.0762
X0.0486 Z-0.0693
X0.0663 Z-0.0637
X0.0836 Z-0.0599
X0.103 Z-0.0571
X0.1219 Z-0.0561
X0.1222 Z-0.0552
Z-0.0551
X0.1223 Y1.2443 Z-0.0535
X0.1226 Y1.2451 Z-0.0521
X0.123 Y1.2463 Z-0.051
X0.1236 Y1.2478 Z-0.0504
X0.1242 Y1.2493
X0.1247 Y1.2508 Z-0.051
X0.1252 Y1.252 Z-0.0521
X0.1255 Y1.2528 Z-0.0535
X0.1256 Y1.253 Z-0.0551
X0.1253 Z-0.0561
X0.1061 Z-0.0572
X0.0879 Z-0.0597
X0.0692 Z-0.0638
X0.0517 Z-0.0693
X0.0346 Z-0.0762
X0.0193 Z-0.084
Z-0.092
X0.0224 Y1.262
Z-0.084
X0.0373 Z-0.0764
X0.0549 Z-0.0693
X0.0729 Z-0.0638
X0.091 Z-0.0598
X0.1099 Z-0.0572
X0.1292 Z-0.0561
X0.1295 Z-0.0552
Z-0.0527
X0.1296 Y1.2623 Z-0.051
X0.13 Y1.2631 Z-0.0495
X0.1306 Y1.2643 Z-0.0483
X0.1314 Y1.2658 Z-0.0477
X0.1322 Y1.2673
X0.1329 Y1.2688 Z-0.0483
X0.1335 Y1.27 Z-0.0495
X0.1339 Y1.2708 Z-0.051
X0.1341 Y1.271 Z-0.0527
X0.1338 Z-0.0545
X0.1331 Z-0.0561
X0.1135 Z-0.0572
X0.0948 Z-0.0597
X0.0763 Z-0.0638
X0.0585 Z-0.0693
X0.0414 Z-0.0762
X0.0256 Z-0.084
Z-0.092
X0.0292 Y1.28
Z-0.084
X0.045 Z-0.0762
X0.0623 Z-0.0692
X0.0799 Z-0.0638
X0.0984 Z-0.0598
X0.1178 Z-0.0572
X0.137 Z-0.0561
X0.1373 Z-0.0553
Z-0.0552
X0.1374 Y1.2803 Z-0.0535
X0.1378 Y1.2811 Z-0.052
X0.1383 Y1.2823 Z-0.0509
X0.139 Y1.2838 Z-0.0503
X0.1398 Y1.2853
X0.1405 Y1.2868 Z-0.0509
X0.141 Y1.288 Z-0.052
X0.1414 Y1.2888 Z-0.0535
X0.1415 Y1.289 Z-0.0552
X0.1412 Z-0.0561
X0.1214 Z-0.0572
X0.1028 Z-0.0597
X0.0839 Z-0.0638
X0.0658 Z-0.0693
X0.0484 Z-0.0762
X0.0327 Z-0.084
Z-0.092
X0.0363 Y1.298
Z-0.084
X0.0523 Z-0.0761
X0.0697 Z-0.0693
X0.088 Z-0.0638
X0.107 Z-0.0597
X0.1256 Z-0.0572
X0.1457 Z-0.0561
X0.1464 Z-0.0545
X0.1467 Z-0.0527
X0.1468 Y1.2983 Z-0.0511
X0.1471 Y1.2991 Z-0.0496
X0.1476 Y1.3003 Z-0.0485
X0.1482 Y1.3018 Z-0.0479
X0.1489 Y1.3033
X0.1495 Y1.3048 Z-0.0485
X0.15 Y1.306 Z-0.0496
X0.1503 Y1.3068 Z-0.0511
X0.1504 Y1.307 Z-0.0527
Z-0.0552
X0.1501 Z-0.0561
X0.13 Z-0.0572
X0.1109 Z-0.0597
X0.092 Z-0.0638
X0.0737 Z-0.0693
X0.0563 Z-0.0762
X0.0401 Z-0.084
Z-0.092
X0.0442 Y1.316
Z-0.084
X0.0604 Z-0.0761
X0.0781 Z-0.0692
X0.0962 Z-0.0638
X0.1155 Z-0.0597
X0.135 Z-0.0571
X0.1547 Z-0.0561
X0.155 Z-0.0552
Z-0.0527
X0.1551 Y1.3163 Z-0.0511
X0.1555 Y1.3169 Z-0.0496
X0.1562 Y1.3179 Z-0.0484
X0.157 Y1.3191 Z-0.0476
X0.1579 Y1.3205 Z-0.0474
X0.1587 Y1.3219 Z-0.0476
X0.1595 Y1.3232 Z-0.0484
X0.1602 Y1.3242 Z-0.0496
X0.1606 Y1.3248 Z-0.0511
X0.1607 Y1.325 Z-0.0527
X0.1605 Z-0.0545
X0.1597 Z-0.0561
X0.1391 Z-0.0572
X0.12 Z-0.0597
X0.1008 Z-0.0638
X0.0821 Z-0.0693
X0.0642 Z-0.0763
X0.0483 Z-0.084
Z-0.092
X0.0524 Y1.334
Z-0.084
X0.0687 Z-0.0762
X0.0866 Z-0.0693
X0.1053 Z-0.0638
X0.1246 Z-0.0597
X0.1443 Z-0.0572
X0.1648 Z-0.0561
X0.1651 Z-0.0552
Z-0.0527
X0.1652 Y1.3343 Z-0.0511
X0.1656 Y1.3349 Z-0.0496
X0.1663 Y1.3359 Z-0.0484
X0.1671 Y1.3371 Z-0.0476
X0.168 Y1.3385 Z-0.0474
X0.1689 Y1.3399 Z-0.0476
X0.1697 Y1.3412 Z-0.0484
X0.1703 Y1.3422 Z-0.0496
X0.1707 Y1.3428 Z-0.0511
X0.1708 Y1.343 Z-0.0527
X0.1706 Z-0.0545
X0.1698 Z-0.0561
X0.1494 Z-0.0572
X0.1294 Z-0.0598
X0.1101 Z-0.0637
X0.0912 Z-0.0693
X0.0732 Z-0.0762
X0.0569 Z-0.084
Z-0.092
X0.0615 Y1.352
Z-0.084
X0.0779 Z-0.0762
X0.096 Z-0.0693
X0.115 Z-0.0638
X0.1348 Z-0.0597
X0.1544 Z-0.0572
X0.1754 Z-0.0561
X0.1762 Z-0.0545
X0.1764 Z-0.0527
X0.1766 Y1.3523 Z-0.0511
X0.177 Y1.3529 Z-0.0496
X0.1776 Y1.3539 Z-0.0484
X0.1784 Y1.3551 Z-0.0477
X0.1792 Y1.3565 Z-0.0474
X0.1801 Y1.3579 Z-0.0477
X0.1809 Y1.3592 Z-0.0484
X0.1815 Y1.3602 Z-0.0496
X0.1819 Y1.3608 Z-0.0511
X0.1821 Y1.361 Z-0.0527
X0.1818 Z-0.0545
X0.1811 Z-0.0561
X0.1603 Z-0.0571
X0.1397 Z-0.0597
X0.12 Z-0.0638
X0.101 Z-0.0693
X0.0827 Z-0.0762
X0.0661 Z-0.084
Z-0.092
X0.0684 Y1.3656
X0.0708 Y1.37
Z-0.084
X0.0876 Z-0.0762
X0.1062 Z-0.0692
X0.1251 Z-0.0638
X0.1452 Z-0.0597
X0.1652 Z-0.0572
X0.1867 Z-0.0561
X0.1875 Z-0.0545
X0.1878 Z-0.0527
X0.1879 Y1.3702 Z-0.051
X0.1883 Y1.3709 Z-0.0495
X0.189 Y1.3719 Z-0.0483
X0.1899 Y1.3731 Z-0.0476
X0.1908 Y1.3745 Z-0.0473
X0.1917 Y1.3759 Z-0.0476
X0.1926 Y1.3772 Z-0.0483
X0.1932 Y1.3782 Z-0.0495
X0.1937 Y1.3788 Z-0.051
X0.1938 Y1.379 Z-0.0527
X0.1936 Z-0.0545
X0.1928 Z-0.0561
X0.1711 Z-0.0572
X0.1511 Z-0.0597
X0.1307 Z-0.0638
X0.1112 Z-0.0693
X0.0927 Z-0.0762
X0.0759 Z-0.084
Z-0.092
X0.0811 Y1.388
Z-0.084
X0.0978 Z-0.0763
X0.1169 Z-0.0692
X0.1364 Z-0.0637
X0.1562 Z-0.0598
X0.1775 Z-0.0572
X0.1991 Z-0.0561
X0.1999 Z-0.0545
X0.2001 Z-0.0527
X0.2003 Y1.3882 Z-0.051
X0.2007 Y1.3889 Z-0.0495
X0.2014 Y1.3899 Z-0.0483
X0.2023 Y1.3911 Z-0.0475
X0.2033 Y1.3925 Z-0.0472
X0.2043 Y1.3939 Z-0.0475
X0.2052 Y1.3952 Z-0.0483
X0.2059 Y1.3962 Z-0.0495
X0.2063 Y1.3968 Z-0.051
X0.2065 Y1.397 Z-0.0527
X0.2062 Z-0.0545
X0.2055 Z-0.0561
X0.183 Z-0.0572
X0.1626 Z-0.0597
X0.142 Z-0.0638
X0.1225 Z-0.0692
X0.1034 Z-0.0762
X0.0862 Z-0.084
Z-0.092
X0.0889 Y1.4016
X0.0918 Y1.406
Z-0.084
X0.1091 Z-0.0762
X0.128 Z-0.0693
X0.1481 Z-0.0638
X0.1689 Z-0.0597
X0.19 Z-0.0572
X0.2121 Z-0.0561
X0.2129 Z-0.0545
X0.2132 Z-0.0527
X0.2133 Y1.4062 Z-0.051
X0.2138 Y1.4069 Z-0.0494
X0.2146 Y1.4079 Z-0.0481
X0.2156 Y1.4091 Z-0.0473
X0.2167 Y1.4105 Z-0.047
X0.2177 Y1.4119 Z-0.0473
X0.2187 Y1.4132 Z-0.0481
X0.2195 Y1.4142 Z-0.0494
X0.22 Y1.4148 Z-0.051
X0.2202 Y1.415 Z-0.0527
X0.2199 Z-0.0545
X0.2192 Z-0.0561
X0.1969 Z-0.0572
X0.1751 Z-0.0597
X0.1542 Z-0.0638
X0.1341 Z-0.0693
X0.1148 Z-0.0762
X0.0975 Z-0.084
Z-0.092
X0.1032 Y1.424
Z-0.084
X0.1209 Z-0.0762
X0.1405 Z-0.0692
X0.1606 Z-0.0637
X0.1821 Z-0.0597
X0.2034 Z-0.0572
X0.2262 Z-0.0561
X0.227 Z-0.0545
X0.2272 Z-0.0527
X0.2274 Y1.4242 Z-0.0509
X0.2279 Y1.4249 Z-0.0493
X0.2287 Y1.4259 Z-0.048
X0.2298 Y1.4271 Z-0.0472
X0.2309 Y1.4285 Z-0.0469
X0.2321 Y1.4299 Z-0.0472
X0.2331 Y1.4312 Z-0.048
X0.2339 Y1.4322 Z-0.0493
X0.2344 Y1.4328 Z-0.0509
X0.2346 Y1.433 Z-0.0527
X0.2344 Z-0.0545
X0.2336 Z-0.0561
X0.2107 Z-0.0572
X0.1886 Z-0.0597
X0.1674 Z-0.0637
X0.1467 Z-0.0692
X0.1271 Z-0.0761
X0.1091 Z-0.084
Z-0.092
X0.1155 Y1.442
Z-0.084
X0.1331 Z-0.0763
X0.1534 Z-0.0692
X0.174 Z-0.0638
X0.196 Z-0.0597
X0.2181 Z-0.0572
X0.2414 Z-0.0561
X0.2422 Z-0.0545
X0.2425 Z-0.0527
X0.2426 Y1.4422 Z-0.0509
X0.2432 Y1.4429 Z-0.0492
X0.2441 Y1.4439 Z-0.0479
X0.2452 Y1.4451 Z-0.047
X0.2464 Y1.4465 Z-0.0468
X0.2476 Y1.4479 Z-0.047
X0.2487 Y1.4492 Z-0.0479
X0.2495 Y1.4502 Z-0.0492
X0.2501 Y1.4508 Z-0.0509
X0.2503 Y1.451 Z-0.0527
X0.25 Z-0.0545
X0.2493 Z-0.0561
X0.2251 Z-0.0572
X0.2033 Z-0.0597
X0.181 Z-0.0638
X0.1602 Z-0.0692
X0.14 Z-0.0762
X0.1218 Z-0.084
Z-0.092
X0.1282 Y1.46
Z-0.084
X0.1467 Z-0.0762
X0.1668 Z-0.0693
X0.1885 Z-0.0637
X0.21 Z-0.0598
X0.2336 Z-0.0572
X0.2576 Z-0.0561
X0.2583 Z-0.0545
X0.2586 Z-0.0527
X0.2588 Y1.4602 Z-0.0508
X0.2594 Y1.4609 Z-0.0491
X0.2604 Y1.4619 Z-0.0477
X0.2616 Y1.4631 Z-0.0468
X0.2629 Y1.4645 Z-0.0465
X0.2642 Y1.4659 Z-0.0468
X0.2654 Y1.4672 Z-0.0477
X0.2664 Y1.4682 Z-0.0491
X0.267 Y1.4688 Z-0.0508
X0.2672 Y1.469 Z-0.0527
X0.267 Z-0.0545
X0.2662 Z-0.0561
X0.2414 Z-0.0572
X0.2184 Z-0.0597
X0.1961 Z-0.0637
X0.1743 Z-0.0692
X0.1534 Z-0.0762
X0.1351 Z-0.084
Z-0.092
X0.1386 Y1.4735
X0.1421 Y1.478
Z-0.084
X0.161 Z-0.0761
X0.1818 Z-0.0692
X0.2035 Z-0.0638
X0.2263 Z-0.0597
X0.2499 Z-0.0572
X0.2749 Z-0.0561
X0.2756 Z-0.0545
X0.2759 Z-0.0527
X0.2761 Y1.4782 Z-0.0509
X0.2766 Y1.4787 Z-0.0492
X0.2775 Y1.4796 Z-0.0478
X0.2786 Y1.4807 Z-0.0468
X0.2799 Y1.4819 Z-0.0463
X0.2813 Y1.4832
X0.2826 Y1.4844 Z-0.0468
X0.2837 Y1.4855 Z-0.0478
X0.2846 Y1.4863 Z-0.0492
X0.2851 Y1.4868 Z-0.0509
X0.2853 Y1.487 Z-0.0527
X0.2851 Z-0.0545
X0.2843 Z-0.0561
X0.2586 Z-0.0572
X0.2349 Z-0.0597
X0.2116 Z-0.0638
X0.1895 Z-0.0692
X0.1685 Z-0.0761
X0.1491 Z-0.084
Z-0.092
X0.1528 Y1.4916
X0.1567 Y1.496
Z-0.084
X0.1758 Z-0.0762
X0.1973 Z-0.0693
X0.2195 Z-0.0638
X0.2435 Z-0.0597
X0.2684 Z-0.0571
X0.2939 Z-0.0561
X0.2947 Z-0.0545
X0.2949 Z-0.0527
X0.2951 Y1.4962 Z-0.0508
X0.2957 Y1.4967 Z-0.0491
X0.2966 Y1.4976 Z-0.0477
X0.2978 Y1.4987 Z-0.0467
X0.2991 Y1.4999 Z-0.0461
X0.3005 Y1.5012
X0.3019 Y1.5024 Z-0.0467
X0.303 Y1.5035 Z-0.0477
X0.3039 Y1.5043 Z-0.0491
X0.3045 Y1.5048 Z-0.0508
X0.3047 Y1.505 Z-0.0527
X0.3045 Z-0.0545
X0.3037 Z-0.0561
X0.2771 Z-0.0572
X0.2518 Z-0.0598
X0.2285 Z-0.0637
X0.2056 Z-0.0692
X0.1837 Z-0.0762
X0.1644 Z-0.084
Z-0.092
X0.1682 Y1.5095
X0.1721 Y1.514
Z-0.084
X0.1923 Z-0.076
X0.2138 Z-0.0693
X0.2377 Z-0.0636
X0.262 Z-0.0597
X0.2869 Z-0.0572
X0.3144 Z-0.0561
X0.3151 Z-0.0545
X0.3154 Z-0.0527
X0.3156 Y1.5142 Z-0.0508
X0.3162 Y1.5147 Z-0.049
X0.3172 Y1.5156 Z-0.0475
X0.3185 Y1.5167 Z-0.0464
X0.3199 Y1.5179 Z-0.0458
X0.3214 Y1.5192
X0.3229 Y1.5204 Z-0.0464
X0.3241 Y1.5215 Z-0.0475
X0.3251 Y1.5223 Z-0.049
X0.3258 Y1.5228 Z-0.0508
X0.326 Y1.523 Z-0.0527
X0.3257 Z-0.0545
X0.325 Z-0.0561
X0.2976 Z-0.0572
X0.2713 Z-0.0597
X0.2463 Z-0.0638
X0.223 Z-0.0692
X0.2002 Z-0.0762
X0.1803 Z-0.084
Z-0.092
X0.1845 Y1.5275
X0.1888 Y1.532
Z-0.084
X0.2092 Z-0.0761
X0.2315 Z-0.0693
X0.2562 Z-0.0637
X0.2813 Z-0.0597
X0.3078 Z-0.0572
X0.3365 Z-0.0561
X0.3372 Z-0.0545
X0.3375 Z-0.0527
X0.3377 Y1.5322 Z-0.0506
X0.3384 Y1.5327 Z-0.0487
X0.3395 Y1.5336 Z-0.0471
X0.3409 Y1.5347 Z-0.046
X0.3425 Y1.5359 Z-0.0454
X0.3442 Y1.5372
X0.3458 Y1.5384 Z-0.046
X0.3472 Y1.5395 Z-0.0471
X0.3483 Y1.5403 Z-0.0487
X0.349 Y1.5408 Z-0.0506
X0.3493 Y1.541 Z-0.0527
X0.349 Z-0.0545
X0.3483 Z-0.0561
X0.3189 Z-0.0572
X0.292 Z-0.0597
X0.2655 Z-0.0638
X0.2415 Z-0.0692
X0.2183 Z-0.0761
X0.1973 Z-0.084
Z-0.092
X0.2017 Y1.5456
X0.2063 Y1.55
Z-0.084
X0.2274 Z-0.0762
X0.2516 Z-0.0691
X0.2762 Z-0.0637
X0.3028 Z-0.0597
X0.3308 Z-0.0572
X0.3607 Z-0.0561
X0.3614 Z-0.0545
X0.3617 Z-0.0527
X0.3619 Y1.5502 Z-0.0507
X0.3625 Y1.5506 Z-0.0487
X0.3636 Y1.5513 Z-0.0471
X0.3649 Y1.5523 Z-0.0458
X0.3665 Y1.5534 Z-0.045
X0.3682 Y1.5545 Z-0.0448
X0.3699 Y1.5557 Z-0.045
X0.3715 Y1.5568 Z-0.0458
X0.3728 Y1.5577 Z-0.0471
X0.3739 Y1.5584 Z-0.0487
X0.3745 Y1.5589 Z-0.0507
X0.3748 Y1.559 Z-0.0527
X0.3745 Z-0.0545
X0.3738 Z-0.0561
X0.343 Z-0.0572
X0.3144 Z-0.0597
X0.2872 Z-0.0637
X0.2609 Z-0.0693
X0.2378 Z-0.0759
X0.2157 Z-0.084
