%
(Bezel_Insert_Back)
(T3  D=0.3937 CR=0 TAPER=10deg - ZMIN=-0.008 - spot drill)
G90
G17
G20
G28 G91 Z0
G90

(Trace3 2)
T3 M6
S1940 M3
G54
M7
G0 X0.1798 Y1.2594
Z0.06
Z0.05
G1 Z-0.008 F2
X0.2012 Y1.3024 F1.94
X0.1552 Y1.287
X0.1429 Y1.2854
X0.1353
X0.1291 Y1.2885
X0.1245 Y1.2946
X0.123 Y1.2992
Y1.3069
X0.1291 Y1.3191
X0.1352 Y1.3237
X0.1398 Y1.3253
X0.1475
X0.1505 Y1.3238
Z0.05 F2
G0 X0.2136 Y1.3174
G1 Z-0.008 F2
X0.2392 Y1.3596 F1.94
X0.1916 Y1.35
X0.1793
X0.1717 Y1.3509
X0.166 Y1.3547
X0.1621 Y1.3614
X0.1612 Y1.3661
X0.1621 Y1.3738
X0.1697 Y1.3852
X0.1764 Y1.389
X0.1811 Y1.39
X0.1887 Y1.389
X0.1916 Y1.3871
Z0.05 F2
G0 X0.2957 Y1.4446
G1 Z-0.008 F2
X0.2942 Y1.4475 F1.94
Y1.4508
X0.2957 Y1.4537
X0.2984 Y1.4555
X0.3017 Y1.4559
X0.3047 Y1.4548
X0.3069 Y1.4523
X0.3077 Y1.4491
X0.3069 Y1.446
X0.3047 Y1.4435
X0.3017 Y1.4423
X0.2984 Y1.4427
X0.2957 Y1.4446
Z0.05 F2
G0 X0.3848 Y1.5223
G1 Z-0.008 F2
X0.372 Y1.5342 F1.94
X0.366 Y1.5426
X0.3588 Y1.5585
X0.3583 Y1.5708
X0.3647 Y1.5796
X0.3703 Y1.5836
X0.3806 Y1.5868
X0.3922 Y1.5825
X0.405 Y1.5706
X0.411 Y1.5622
X0.4182 Y1.5463
X0.4186 Y1.5339
X0.4123 Y1.5251
X0.4067 Y1.5211
X0.3963 Y1.5179
X0.3848 Y1.5223
Z0.05 F2
G0 X0.4471 Y1.547
G1 Z-0.008 F2
X0.4893 Y1.57 F1.94
X0.4428 Y1.5837
X0.4319 Y1.5895
X0.4256 Y1.5939
X0.4223 Y1.5999
X0.422 Y1.6075
X0.4234 Y1.6122
X0.4278 Y1.6185
X0.4398 Y1.625
X0.4475 Y1.6253
X0.4521 Y1.6239
X0.4584 Y1.6195
X0.4601 Y1.6165
Z0.05 F2
G0 X0.579 Y1.6152
G1 Z-0.008 F2
X0.5805 Y1.6181 F1.94
X0.5832 Y1.6199
X0.5864 Y1.6203
X0.5895 Y1.6192
X0.5917 Y1.6167
X0.5925 Y1.6135
X0.5917 Y1.6104
X0.5895 Y1.6079
X0.5864 Y1.6067
X0.5832 Y1.6071
X0.5805 Y1.609
X0.579 Y1.6119
Y1.6152
Z0.05 F2
G0 X0.6885 Y1.6362
G1 Z-0.008 F2
X0.6878 Y1.6465 F1.94
X0.6908 Y1.6536
X0.6971 Y1.6609
X0.7071 Y1.665
X0.7206 Y1.6694
X0.7272 Y1.6733
X0.7301 Y1.6804
X0.7296 Y1.6872
X0.7257 Y1.6938
X0.7152 Y1.6965
X0.7015 Y1.6956
X0.6915 Y1.6914
X0.6886 Y1.6843
X0.6891 Y1.6775
X0.693 Y1.6709
X0.7 Y1.668
X0.714 Y1.6655
X0.7245 Y1.6628
X0.7318 Y1.6565
X0.7357 Y1.6499
X0.7364 Y1.6396
X0.7335 Y1.6325
X0.7303 Y1.6289
X0.7203 Y1.6247
X0.7066 Y1.6237
X0.6961 Y1.6264
X0.6924 Y1.6296
X0.6885 Y1.6362
Z0.05 F2
G0 X0.7752 Y1.624
G1 Z-0.008 F2
X0.7782 Y1.6959 F1.94
X0.788 Y1.6852
Z0.05 F2
G0 X0.9093 Y1.6181
G1 Z-0.008 F2
X0.912 Y1.6199 F1.94
X0.9152 Y1.6203
X0.9183 Y1.6192
X0.9205 Y1.6167
X0.9212 Y1.6135
X0.9205 Y1.6104
X0.9183 Y1.6079
X0.9152 Y1.6067
X0.912 Y1.6071
X0.9093 Y1.609
X0.9077 Y1.6119
Y1.6152
X0.9093 Y1.6181
Z0.05 F2
G0 X1.0396 Y1.6213
G1 Z-0.008 F2
X1.0455 Y1.6262 F1.94
X1.0563 Y1.6253
X1.0626 Y1.6226
X1.0707 Y1.6154
X1.073 Y1.6032
X1.0694 Y1.5861
X1.0626 Y1.5704
X1.0541 Y1.5591
X1.0451 Y1.5555
X1.0343 Y1.5564
X1.0311 Y1.5578
X1.023 Y1.565
X1.0194 Y1.574
X1.0203 Y1.5848
X1.0216 Y1.5879
X1.0288 Y1.596
X1.0378 Y1.5996
X1.0487 Y1.5987
X1.0518 Y1.5974
X1.0599 Y1.5902
X1.0635 Y1.5812
X1.0626 Y1.5704
Z0.05 F2
G0 X1.0859 Y1.5293
G1 Z-0.008 F2
X1.1214 Y1.5919 F1.94
X1.1253 Y1.5779
Z0.05 F2
G0 X1.1967 Y1.4555
G1 Z-0.008 F2
X1.2 Y1.4559 F1.94
X1.203 Y1.4548
X1.2052 Y1.4523
X1.206 Y1.4491
X1.2052 Y1.446
X1.203 Y1.4435
X1.2 Y1.4423
X1.1967 Y1.4427
X1.194 Y1.4446
X1.1925 Y1.4475
Y1.4508
X1.194 Y1.4537
X1.1967 Y1.4555
Z0.05 F2
G0 X1.2703 Y1.3452
G1 Z-0.008 F2
X1.3309 Y1.3842 F1.94
X1.3091 Y1.3293
X1.2812 Y1.3726
Z0.05 F2
G0 X1.3054 Y1.2823
G1 Z-0.008 F2
X1.3699 Y1.3143 F1.94
X1.3652 Y1.3005
Z0.05 F2
G0 X1.3644 Y1.1712
G1 Z-0.008 F2
X1.3674 Y1.17 F1.94
X1.3696 Y1.1676
X1.3704 Y1.1644
X1.3696 Y1.1612
X1.3674 Y1.1588
X1.3644 Y1.1576
X1.3611 Y1.158
X1.3584 Y1.1599
X1.3569 Y1.1628
Y1.166
X1.3584 Y1.1689
X1.3611 Y1.1708
X1.3644 Y1.1712
Z0.05 F2
G0 X1.3767 Y1.055
G1 Z-0.008 F2
X1.3778 Y1.007 F1.94
X1.4113 Y1.0421
X1.4214 Y1.0492
X1.4282 Y1.0528
X1.435 Y1.053
X1.4419 Y1.0497
X1.4455 Y1.0463
X1.449 Y1.0396
X1.4494 Y1.0259
X1.4461 Y1.0189
X1.4428 Y1.0154
X1.436 Y1.0118
X1.4326 Y1.0117
Z0.05 F2
G0 X1.3741 Y0.9694
G1 Z-0.008 F2
X1.4458 Y0.963 F1.94
X1.4346 Y0.9537
Z0.05 F2
G0 X1.3674 Y0.8412
G1 Z-0.008 F2
X1.3696 Y0.8388 F1.94
X1.3704 Y0.8356
X1.3696 Y0.8324
X1.3674 Y0.83
X1.3644 Y0.8288
X1.3611 Y0.8292
X1.3584 Y0.8311
X1.3569 Y0.834
Y0.8372
X1.3584 Y0.8401
X1.3611 Y0.842
X1.3644 Y0.8424
X1.3674 Y0.8412
Z0.05 F2
G0 X1.3446 Y0.7208
G1 Z-0.008 F2
X1.3539 Y0.7164 F1.94
X1.368 Y0.706
X1.3744 Y0.6955
X1.3731 Y0.6847
X1.3702 Y0.6785
X1.3628 Y0.6706
X1.3505 Y0.6688
X1.3336 Y0.6729
X1.3242 Y0.6773
X1.3102 Y0.6877
X1.3038 Y0.6982
X1.305 Y0.709
X1.3079 Y0.7152
X1.3154 Y0.7231
X1.3276 Y0.7249
X1.3446 Y0.7208
Z0.05 F2
G0 X1.2762 Y0.6583
G1 Z-0.008 F2
X1.3376 Y0.6207 F1.94
X1.3234 Y0.6173
Z0.05 F2
G0 X1.2052 Y0.554
G1 Z-0.008 F2
X1.206 Y0.5509 F1.94
X1.2052 Y0.5477
X1.203 Y0.5452
X1.2 Y0.5441
X1.1967 Y0.5445
X1.194 Y0.5463
X1.1925 Y0.5492
Y0.5525
X1.194 Y0.5554
X1.1967 Y0.5573
X1.2 Y0.5577
X1.203 Y0.5565
X1.2052 Y0.554
Z0.05 F2
G0 X1.0883 Y0.4591
G1 Z-0.008 F2
X1.0937 Y0.4504 F1.94
X1.0944 Y0.4427
X1.0922 Y0.4333
X1.0852 Y0.425
X1.0754 Y0.4148
X1.0713 Y0.4083
X1.072 Y0.4007
X1.0756 Y0.3949
X1.0821 Y0.3908
X1.0927 Y0.3933
X1.1044 Y0.4005
X1.1113 Y0.4088
X1.1106 Y0.4165
X1.107 Y0.4223
X1.1005 Y0.4263
X1.0929 Y0.4256
X1.0794 Y0.4214
X1.0689 Y0.4189
X1.0594 Y0.4211
X1.0529 Y0.4251
X1.0475 Y0.4339
X1.0468 Y0.4415
X1.0479 Y0.4463
X1.0549 Y0.4546
X1.0666 Y0.4618
X1.0771 Y0.4643
X1.0818 Y0.4631
X1.0883 Y0.4591
Z0.05 F2
G0 X0.9212 Y0.3865
G1 Z-0.008 F2
X0.9205 Y0.3833 F1.94
X0.9183 Y0.3808
X0.9152 Y0.3797
X0.912 Y0.3801
X0.9093 Y0.3819
X0.9077 Y0.3848
Y0.3881
X0.9093 Y0.391
X0.912 Y0.3929
X0.9152 Y0.3933
X0.9183 Y0.3921
X0.9205 Y0.3896
X0.9212 Y0.3865
Z0.05 F2
G0 X0.7712 Y0.3153
G1 Z-0.008 F2
X0.7682 Y0.3082 F1.94
X0.7582 Y0.304
X0.7514 Y0.3035
X0.7409 Y0.3062
X0.7333 Y0.316
X0.7286 Y0.3328
X0.7274 Y0.3499
X0.7298 Y0.3638
X0.7361 Y0.3712
X0.7462 Y0.3753
X0.7496 Y0.3756
X0.7601 Y0.3729
X0.7674 Y0.3666
X0.7716 Y0.3566
X0.7718 Y0.3531
X0.7692 Y0.3426
X0.7628 Y0.3353
X0.7528 Y0.3311
X0.7494 Y0.3309
X0.7389 Y0.3336
X0.7316 Y0.3399
X0.7274 Y0.3499
Z0.05 F2
G0 X0.5917 Y0.3833
G1 Z-0.008 F2
X0.5895 Y0.3808 F1.94
X0.5864 Y0.3797
X0.5832 Y0.3801
X0.5805 Y0.3819
X0.579 Y0.3848
Y0.3881
X0.5805 Y0.391
X0.5832 Y0.3929
X0.5864 Y0.3933
X0.5895 Y0.3921
X0.5917 Y0.3896
X0.5925 Y0.3865
X0.5917 Y0.3833
Z0.05 F2
G0 X0.4405 Y0.4567
G1 Z-0.008 F2
X0.4063 Y0.3933 F1.94
X0.3989 Y0.4519
X0.4442 Y0.4275
Z0.05 F2
G0 X0.3069 Y0.5477
G1 Z-0.008 F2
X0.3047 Y0.5452 F1.94
X0.3017 Y0.5441
X0.2984 Y0.5445
X0.2957 Y0.5463
X0.2942 Y0.5492
Y0.5525
X0.2957 Y0.5554
X0.2984 Y0.5573
X0.3017 Y0.5577
X0.3047 Y0.5565
X0.3069 Y0.554
X0.3077 Y0.5509
X0.3069 Y0.5477
Z0.05 F2
G0 X0.2194 Y0.6676
G1 Z-0.008 F2
X0.196 Y0.7095 F1.94
X0.1828 Y0.6629
X0.1771 Y0.6519
X0.1728 Y0.6455
X0.1668 Y0.6422
X0.1592 Y0.6418
X0.1545 Y0.6432
X0.1482 Y0.6475
X0.1415 Y0.6595
X0.1411 Y0.6671
X0.1425 Y0.6718
X0.1468 Y0.6781
X0.1498 Y0.6798
Z0.05 F2
G0 X0.1373 Y0.8288
G1 Z-0.008 F2
X0.134 Y0.8292 F1.94
X0.1313 Y0.8311
X0.1298 Y0.834
Y0.8372
X0.1313 Y0.8401
X0.134 Y0.842
X0.1373 Y0.8424
X0.1404 Y0.8412
X0.1425 Y0.8388
X0.1433 Y0.8356
X0.1425 Y0.8324
X0.1404 Y0.83
X0.1373 Y0.8288
Z0.05 F2
G0 X0.0539 Y0.9705
G1 Z-0.008 F2
Y1.0295 F1.94
X0.1238 Y1
X0.0539 Y0.9705
Z0.05 F2
G0 X0.134 Y1.158
G1 Z-0.008 F2
X0.1313 Y1.1599 F1.94
X0.1298 Y1.1628
Y1.166
X0.1313 Y1.1689
X0.134 Y1.1708
X0.1373 Y1.1712
X0.1404 Y1.17
X0.1425 Y1.1676
X0.1433 Y1.1644
X0.1425 Y1.1612
X0.1404 Y1.1588
X0.1373 Y1.1576
X0.134 Y1.158
Z0.05 F2
G0 Z0.06
M9
G28 G91 Z0
G90
G28 G91 X0 Y0
G90
M30
%
