%
(Clasp)
(T1  D=0.0625 CR=0 - ZMIN=-0.135 - flat end mill)
G90
G17
G20
G28 G91 Z0
G90

(2D Contour1 3)
T1 M6
S10000 M3
G54
G0 X0.5502 Y0.3575
Z0.6
Z0.2
G1 Z0.0444 F6
Z-0.005
Y1.2675 F18
G2 X0.6075 Y1.3248 I0.0573 J0
G1 X0.8275
G2 X0.8848 Y1.2675 I0 J-0.0573
G1 X0.8847 Y1.2425
G2 X0.8525 Y1.2103 I-0.0322 J0
G1 X0.6647
Y0.4148
X0.8525
G2 X0.8848 Y0.3825 I0 J-0.0323
G1 X0.8847 Y0.3575
G2 X0.8275 Y0.3003 I-0.0572 J0
G1 X0.6075
G2 X0.5503 Y0.3575 I0 J0.0572
G0 X0.5502 Z0.2
X0.5 Y0.2897
G1 Z0.0444 F6
Z-0.005
X0.8978 F18
Y0.4775
G2 X0.93 Y0.5097 I0.0322 J0
G1 X0.955
G2 X1.0122 Y0.4525 I0 J-0.0572
G1 Y0.2325
G2 X0.955 Y0.1753 I-0.0572 J0
G1 X0.045 Y0.1752
G2 X-0.0123 Y0.2325 I0 J0.0573
G1 Y0.4525
G2 X0.045 Y0.5098 I0.0573 J0
G1 X0.07 Y0.5097
G2 X0.1022 Y0.4775 I0 J-0.0322
G1 X0.1023 Y0.2897
X0.5
G0 Z0.2
X0.4491 Y0.3489
G1 Z0.0444 F6
Z-0.005
G2 X0.3925 Y0.3003 I-0.0566 J0.0086 F18
G1 X0.1725
G2 X0.1153 Y0.3575 I0 J0.0572
G1 Y0.3825
G2 X0.1475 Y0.4147 I0.0322 J0
G1 X0.3353 Y0.4148
Y1.2103
X0.1475
G2 X0.1153 Y1.2425 I0 J0.0322
G1 Y1.2675
G2 X0.1725 Y1.3247 I0.0572 J0
G1 X0.3925 Y1.3248
G2 X0.4498 Y1.2675 I0 J-0.0573
G1 Y0.3575
X0.4496 Y0.3532
X0.4491 Y0.3489
Z-0.01 F6
G2 X0.3925 Y0.3003 I-0.0566 J0.0086 F18
G1 X0.1725
G2 X0.1153 Y0.3575 I0 J0.0572
G1 Y0.3825
G2 X0.1475 Y0.4147 I0.0322 J0
G1 X0.3353 Y0.4148
Y1.2103
X0.1475
G2 X0.1153 Y1.2425 I0 J0.0322
G1 Y1.2675
G2 X0.1725 Y1.3247 I0.0572 J0
G1 X0.3925 Y1.3248
G2 X0.4498 Y1.2675 I0 J-0.0573
G1 Y0.3575
X0.4496 Y0.3532
X0.4491 Y0.3489
G0 Z0.2
X0.5 Y0.2897
G1 Z0.0394 F6
Z-0.01
X0.8978 F18
Y0.4775
G2 X0.93 Y0.5097 I0.0322 J0
G1 X0.955
G2 X1.0122 Y0.4525 I0 J-0.0572
G1 Y0.2325
G2 X0.955 Y0.1753 I-0.0572 J0
G1 X0.045 Y0.1752
G2 X-0.0123 Y0.2325 I0 J0.0573
G1 Y0.4525
G2 X0.045 Y0.5098 I0.0573 J0
G1 X0.07 Y0.5097
G2 X0.1022 Y0.4775 I0 J-0.0322
G1 X0.1023 Y0.2897
X0.5
G0 Z0.2
X0.5509 Y0.3489
G1 Z0.0394 F6
Z-0.01
X0.5504 Y0.3532 F18
X0.5502 Y0.3575
Y1.2675
G2 X0.6075 Y1.3248 I0.0573 J0
G1 X0.8275
G2 X0.8848 Y1.2675 I0 J-0.0573
G1 X0.8847 Y1.2425
G2 X0.8525 Y1.2103 I-0.0322 J0
G1 X0.6647
Y0.4148
X0.8525
G2 X0.8848 Y0.3825 I0 J-0.0323
G1 X0.8847 Y0.3575
G2 X0.8275 Y0.3003 I-0.0572 J0
G1 X0.6075
G2 X0.5509 Y0.3489 I0 J0.0572
G1 Z-0.015 F6
X0.5504 Y0.3532 F18
X0.5502 Y0.3575
Y1.2675
G2 X0.6075 Y1.3248 I0.0573 J0
G1 X0.8275
G2 X0.8848 Y1.2675 I0 J-0.0573
G1 X0.8847 Y1.2425
G2 X0.8525 Y1.2103 I-0.0322 J0
G1 X0.6647
Y0.4148
X0.8525
G2 X0.8848 Y0.3825 I0 J-0.0323
G1 X0.8847 Y0.3575
G2 X0.8275 Y0.3003 I-0.0572 J0
G1 X0.6075
G2 X0.5509 Y0.3489 I0 J0.0572
G0 Z0.2
X0.5 Y0.2897
G1 Z0.0344 F6
Z-0.015
X0.8978 F18
Y0.4775
G2 X0.93 Y0.5097 I0.0322 J0
G1 X0.955
G2 X1.0122 Y0.4525 I0 J-0.0572
G1 Y0.2325
G2 X0.955 Y0.1753 I-0.0572 J0
G1 X0.045 Y0.1752
G2 X-0.0123 Y0.2325 I0 J0.0573
G1 Y0.4525
G2 X0.045 Y0.5098 I0.0573 J0
G1 X0.07 Y0.5097
G2 X0.1022 Y0.4775 I0 J-0.0322
G1 X0.1023 Y0.2897
X0.5
G0 Z0.2
X0.4491 Y0.3489
G1 Z0.0344 F6
Z-0.015
G2 X0.3925 Y0.3003 I-0.0566 J0.0086 F18
G1 X0.1725
G2 X0.1153 Y0.3575 I0 J0.0572
G1 Y0.3825
G2 X0.1475 Y0.4147 I0.0322 J0
G1 X0.3353 Y0.4148
Y1.2103
X0.1475
G2 X0.1153 Y1.2425 I0 J0.0322
G1 Y1.2675
G2 X0.1725 Y1.3247 I0.0572 J0
G1 X0.3925 Y1.3248
G2 X0.4498 Y1.2675 I0 J-0.0573
G1 Y0.3575
X0.4496 Y0.3532
X0.4491 Y0.3489
Z-0.02 F6
G2 X0.3925 Y0.3003 I-0.0566 J0.0086 F18
G1 X0.1725
G2 X0.1153 Y0.3575 I0 J0.0572
G1 Y0.3825
G2 X0.1475 Y0.4147 I0.0322 J0
G1 X0.3353 Y0.4148
Y1.2103
X0.1475
G2 X0.1153 Y1.2425 I0 J0.0322
G1 Y1.2675
G2 X0.1725 Y1.3247 I0.0572 J0
G1 X0.3925 Y1.3248
G2 X0.4498 Y1.2675 I0 J-0.0573
G1 Y0.3575
X0.4496 Y0.3532
X0.4491 Y0.3489
G0 Z0.2
X0.5 Y0.2897
G1 Z0.0294 F6
Z-0.02
X0.8978 F18
Y0.4775
G2 X0.93 Y0.5097 I0.0322 J0
G1 X0.955
G2 X1.0122 Y0.4525 I0 J-0.0572
G1 Y0.2325
G2 X0.955 Y0.1753 I-0.0572 J0
G1 X0.045 Y0.1752
G2 X-0.0123 Y0.2325 I0 J0.0573
G1 Y0.4525
G2 X0.045 Y0.5098 I0.0573 J0
G1 X0.07 Y0.5097
G2 X0.1022 Y0.4775 I0 J-0.0322
G1 X0.1023 Y0.2897
X0.5
G0 Z0.2
X0.5509 Y0.3489
G1 Z0.0294 F6
Z-0.02
X0.5504 Y0.3532 F18
X0.5502 Y0.3575
Y1.2675
G2 X0.6075 Y1.3248 I0.0573 J0
G1 X0.8275
G2 X0.8848 Y1.2675 I0 J-0.0573
G1 X0.8847 Y1.2425
G2 X0.8525 Y1.2103 I-0.0322 J0
G1 X0.6647
Y0.4148
X0.8525
G2 X0.8848 Y0.3825 I0 J-0.0323
G1 X0.8847 Y0.3575
G2 X0.8275 Y0.3003 I-0.0572 J0
G1 X0.6075
G2 X0.5509 Y0.3489 I0 J0.0572
G1 Z-0.025 F6
X0.5504 Y0.3532 F18
X0.5502 Y0.3575
Y1.2675
G2 X0.6075 Y1.3248 I0.0573 J0
G1 X0.8275
G2 X0.8848 Y1.2675 I0 J-0.0573
G1 X0.8847 Y1.2425
G2 X0.8525 Y1.2103 I-0.0322 J0
G1 X0.6647
Y0.4148
X0.8525
G2 X0.8848 Y0.3825 I0 J-0.0323
G1 X0.8847 Y0.3575
G2 X0.8275 Y0.3003 I-0.0572 J0
G1 X0.6075
G2 X0.5509 Y0.3489 I0 J0.0572
G0 Z0.2
X0.5 Y0.2897
G1 Z0.0244 F6
Z-0.025
X0.8978 F18
Y0.4775
G2 X0.93 Y0.5097 I0.0322 J0
G1 X0.955
G2 X1.0122 Y0.4525 I0 J-0.0572
G1 Y0.2325
G2 X0.955 Y0.1753 I-0.0572 J0
G1 X0.045 Y0.1752
G2 X-0.0123 Y0.2325 I0 J0.0573
G1 Y0.4525
G2 X0.045 Y0.5098 I0.0573 J0
G1 X0.07 Y0.5097
G2 X0.1022 Y0.4775 I0 J-0.0322
G1 X0.1023 Y0.2897
X0.5
G0 Z0.2
X0.4491 Y0.3489
G1 Z0.0244 F6
Z-0.025
G2 X0.3925 Y0.3003 I-0.0566 J0.0086 F18
G1 X0.1725
G2 X0.1153 Y0.3575 I0 J0.0572
G1 Y0.3825
G2 X0.1475 Y0.4147 I0.0322 J0
G1 X0.3353 Y0.4148
Y1.2103
X0.1475
G2 X0.1153 Y1.2425 I0 J0.0322
G1 Y1.2675
G2 X0.1725 Y1.3247 I0.0572 J0
G1 X0.3925 Y1.3248
G2 X0.4498 Y1.2675 I0 J-0.0573
G1 Y0.3575
X0.4496 Y0.3532
X0.4491 Y0.3489
Z-0.03 F6
G2 X0.3925 Y0.3003 I-0.0566 J0.0086 F18
G1 X0.1725
G2 X0.1153 Y0.3575 I0 J0.0572
G1 Y0.3825
G2 X0.1475 Y0.4147 I0.0322 J0
G1 X0.3353 Y0.4148
Y1.2103
X0.1475
G2 X0.1153 Y1.2425 I0 J0.0322
G1 Y1.2675
G2 X0.1725 Y1.3247 I0.0572 J0
G1 X0.3925 Y1.3248
G2 X0.4498 Y1.2675 I0 J-0.0573
G1 Y0.3575
X0.4496 Y0.3532
X0.4491 Y0.3489
G0 Z0.2
X0.5 Y0.2897
G1 Z0.0194 F6
Z-0.03
X0.8978 F18
Y0.4775
G2 X0.93 Y0.5097 I0.0322 J0
G1 X0.955
G2 X1.0122 Y0.4525 I0 J-0.0572
G1 Y0.2325
G2 X0.955 Y0.1753 I-0.0572 J0
G1 X0.045 Y0.1752
G2 X-0.0123 Y0.2325 I0 J0.0573
G1 Y0.4525
G2 X0.045 Y0.5098 I0.0573 J0
G1 X0.07 Y0.5097
G2 X0.1022 Y0.4775 I0 J-0.0322
G1 X0.1023 Y0.2897
X0.5
G0 Z0.2
X0.5509 Y0.3489
G1 Z0.0194 F6
Z-0.03
X0.5504 Y0.3532 F18
X0.5502 Y0.3575
Y1.2675
G2 X0.6075 Y1.3248 I0.0573 J0
G1 X0.8275
G2 X0.8848 Y1.2675 I0 J-0.0573
G1 X0.8847 Y1.2425
G2 X0.8525 Y1.2103 I-0.0322 J0
G1 X0.6647
Y0.4148
X0.8525
G2 X0.8848 Y0.3825 I0 J-0.0323
G1 X0.8847 Y0.3575
G2 X0.8275 Y0.3003 I-0.0572 J0
G1 X0.6075
G2 X0.5509 Y0.3489 I0 J0.0572
G1 Z-0.035 F6
X0.5504 Y0.3532 F18
X0.5502 Y0.3575
Y1.2675
G2 X0.6075 Y1.3248 I0.0573 J0
G1 X0.8275
G2 X0.8848 Y1.2675 I0 J-0.0573
G1 X0.8847 Y1.2425
G2 X0.8525 Y1.2103 I-0.0322 J0
G1 X0.6647
Y0.4148
X0.8525
G2 X0.8848 Y0.3825 I0 J-0.0323
G1 X0.8847 Y0.3575
G2 X0.8275 Y0.3003 I-0.0572 J0
G1 X0.6075
G2 X0.5509 Y0.3489 I0 J0.0572
G0 Z0.2
X0.5 Y0.2897
G1 Z0.0144 F6
Z-0.035
X0.8978 F18
Y0.4775
G2 X0.93 Y0.5097 I0.0322 J0
G1 X0.955
G2 X1.0122 Y0.4525 I0 J-0.0572
G1 Y0.2325
G2 X0.955 Y0.1753 I-0.0572 J0
G1 X0.045 Y0.1752
G2 X-0.0123 Y0.2325 I0 J0.0573
G1 Y0.4525
G2 X0.045 Y0.5098 I0.0573 J0
G1 X0.07 Y0.5097
G2 X0.1022 Y0.4775 I0 J-0.0322
G1 X0.1023 Y0.2897
X0.5
G0 Z0.2
X0.4491 Y0.3489
G1 Z0.0144 F6
Z-0.035
G2 X0.3925 Y0.3003 I-0.0566 J0.0086 F18
G1 X0.1725
G2 X0.1153 Y0.3575 I0 J0.0572
G1 Y0.3825
G2 X0.1475 Y0.4147 I0.0322 J0
G1 X0.3353 Y0.4148
Y1.2103
X0.1475
G2 X0.1153 Y1.2425 I0 J0.0322
G1 Y1.2675
G2 X0.1725 Y1.3247 I0.0572 J0
G1 X0.3925 Y1.3248
G2 X0.4498 Y1.2675 I0 J-0.0573
G1 Y0.3575
X0.4496 Y0.3532
X0.4491 Y0.3489
Z-0.04 F6
G2 X0.3925 Y0.3003 I-0.0566 J0.0086 F18
G1 X0.1725
G2 X0.1153 Y0.3575 I0 J0.0572
G1 Y0.3825
G2 X0.1475 Y0.4147 I0.0322 J0
G1 X0.3353 Y0.4148
Y1.2103
X0.1475
G2 X0.1153 Y1.2425 I0 J0.0322
G1 Y1.2675
G2 X0.1725 Y1.3247 I0.0572 J0
G1 X0.3925 Y1.3248
G2 X0.4498 Y1.2675 I0 J-0.0573
G1 Y0.3575
X0.4496 Y0.3532
X0.4491 Y0.3489
G0 Z0.2
X0.5 Y0.2897
G1 Z0.0094 F6
Z-0.04
X0.8978 F18
Y0.4775
G2 X0.93 Y0.5097 I0.0322 J0
G1 X0.955
G2 X1.0122 Y0.4525 I0 J-0.0572
G1 Y0.2325
G2 X0.955 Y0.1753 I-0.0572 J0
G1 X0.045 Y0.1752
G2 X-0.0123 Y0.2325 I0 J0.0573
G1 Y0.4525
G2 X0.045 Y0.5098 I0.0573 J0
G1 X0.07 Y0.5097
G2 X0.1022 Y0.4775 I0 J-0.0322
G1 X0.1023 Y0.2897
X0.5
G0 Z0.2
X0.5509 Y0.3489
G1 Z0.0094 F6
Z-0.04
X0.5504 Y0.3532 F18
X0.5502 Y0.3575
Y1.2675
G2 X0.6075 Y1.3248 I0.0573 J0
G1 X0.8275
G2 X0.8848 Y1.2675 I0 J-0.0573
G1 X0.8847 Y1.2425
G2 X0.8525 Y1.2103 I-0.0322 J0
G1 X0.6647
Y0.4148
X0.8525
G2 X0.8848 Y0.3825 I0 J-0.0323
G1 X0.8847 Y0.3575
G2 X0.8275 Y0.3003 I-0.0572 J0
G1 X0.6075
G2 X0.5509 Y0.3489 I0 J0.0572
G1 Z-0.045 F6
X0.5504 Y0.3532 F18
X0.5502 Y0.3575
Y1.2675
G2 X0.6075 Y1.3248 I0.0573 J0
G1 X0.8275
G2 X0.8848 Y1.2675 I0 J-0.0573
G1 X0.8847 Y1.2425
G2 X0.8525 Y1.2103 I-0.0322 J0
G1 X0.6647
Y0.4148
X0.8525
G2 X0.8848 Y0.3825 I0 J-0.0323
G1 X0.8847 Y0.3575
G2 X0.8275 Y0.3003 I-0.0572 J0
G1 X0.6075
G2 X0.5509 Y0.3489 I0 J0.0572
G0 Z0.2
X0.5 Y0.2897
G1 Z0.0044 F6
Z-0.045
X0.8978 F18
Y0.4775
G2 X0.93 Y0.5097 I0.0322 J0
G1 X0.955
G2 X1.0122 Y0.4525 I0 J-0.0572
G1 Y0.2325
G2 X0.955 Y0.1753 I-0.0572 J0
G1 X0.045 Y0.1752
G2 X-0.0123 Y0.2325 I0 J0.0573
G1 Y0.4525
G2 X0.045 Y0.5098 I0.0573 J0
G1 X0.07 Y0.5097
G2 X0.1022 Y0.4775 I0 J-0.0322
G1 X0.1023 Y0.2897
X0.5
G0 Z0.2
X0.4491 Y0.3489
G1 Z0.0044 F6
Z-0.045
G2 X0.3925 Y0.3003 I-0.0566 J0.0086 F18
G1 X0.1725
G2 X0.1153 Y0.3575 I0 J0.0572
G1 Y0.3825
G2 X0.1475 Y0.4147 I0.0322 J0
G1 X0.3353 Y0.4148
Y1.2103
X0.1475
G2 X0.1153 Y1.2425 I0 J0.0322
G1 Y1.2675
G2 X0.1725 Y1.3247 I0.0572 J0
G1 X0.3925 Y1.3248
G2 X0.4498 Y1.2675 I0 J-0.0573
G1 Y0.3575
X0.4496 Y0.3532
X0.4491 Y0.3489
Z-0.05 F6
G2 X0.3925 Y0.3003 I-0.0566 J0.0086 F18
G1 X0.1725
G2 X0.1153 Y0.3575 I0 J0.0572
G1 Y0.3825
G2 X0.1475 Y0.4147 I0.0322 J0
G1 X0.3353 Y0.4148
Y1.2103
X0.1475
G2 X0.1153 Y1.2425 I0 J0.0322
G1 Y1.2675
G2 X0.1725 Y1.3247 I0.0572 J0
G1 X0.3925 Y1.3248
G2 X0.4498 Y1.2675 I0 J-0.0573
G1 Y0.3575
X0.4496 Y0.3532
X0.4491 Y0.3489
G0 Z0.2
X0.5 Y0.2897
G1 Z-0.0006 F6
Z-0.05
X0.8978 F18
Y0.4775
G2 X0.93 Y0.5097 I0.0322 J0
G1 X0.955
G2 X1.0122 Y0.4525 I0 J-0.0572
G1 Y0.2325
G2 X0.955 Y0.1753 I-0.0572 J0
G1 X0.045 Y0.1752
G2 X-0.0123 Y0.2325 I0 J0.0573
G1 Y0.4525
G2 X0.045 Y0.5098 I0.0573 J0
G1 X0.07 Y0.5097
G2 X0.1022 Y0.4775 I0 J-0.0322
G1 X0.1023 Y0.2897
X0.5
G0 Z0.2
X0.5509 Y0.3489
G1 Z-0.0006 F6
Z-0.05
X0.5504 Y0.3532 F18
X0.5502 Y0.3575
Y1.2675
G2 X0.6075 Y1.3248 I0.0573 J0
G1 X0.8275
G2 X0.8848 Y1.2675 I0 J-0.0573
G1 X0.8847 Y1.2425
G2 X0.8525 Y1.2103 I-0.0322 J0
G1 X0.6647
Y0.4148
X0.8525
G2 X0.8848 Y0.3825 I0 J-0.0323
G1 X0.8847 Y0.3575
G2 X0.8275 Y0.3003 I-0.0572 J0
G1 X0.6075
G2 X0.5509 Y0.3489 I0 J0.0572
G1 Z-0.055 F6
X0.5504 Y0.3532 F18
X0.5502 Y0.3575
Y1.2675
G2 X0.6075 Y1.3248 I0.0573 J0
G1 X0.8275
G2 X0.8848 Y1.2675 I0 J-0.0573
G1 X0.8847 Y1.2425
G2 X0.8525 Y1.2103 I-0.0322 J0
G1 X0.6647
Y0.4148
X0.8525
G2 X0.8848 Y0.3825 I0 J-0.0323
G1 X0.8847 Y0.3575
G2 X0.8275 Y0.3003 I-0.0572 J0
G1 X0.6075
G2 X0.5509 Y0.3489 I0 J0.0572
G0 Z0.2
X0.5 Y0.2897
G1 Z-0.0056 F6
Z-0.055
X0.8978 F18
Y0.4775
G2 X0.93 Y0.5097 I0.0322 J0
G1 X0.955
G2 X1.0122 Y0.4525 I0 J-0.0572
G1 Y0.2325
G2 X0.955 Y0.1753 I-0.0572 J0
G1 X0.045 Y0.1752
G2 X-0.0123 Y0.2325 I0 J0.0573
G1 Y0.4525
G2 X0.045 Y0.5098 I0.0573 J0
G1 X0.07 Y0.5097
G2 X0.1022 Y0.4775 I0 J-0.0322
G1 X0.1023 Y0.2897
X0.5
G0 Z0.2
X0.4491 Y0.3489
G1 Z-0.0056 F6
Z-0.055
G2 X0.3925 Y0.3003 I-0.0566 J0.0086 F18
G1 X0.1725
G2 X0.1153 Y0.3575 I0 J0.0572
G1 Y0.3825
G2 X0.1475 Y0.4147 I0.0322 J0
G1 X0.3353 Y0.4148
Y1.2103
X0.1475
G2 X0.1153 Y1.2425 I0 J0.0322
G1 Y1.2675
G2 X0.1725 Y1.3247 I0.0572 J0
G1 X0.3925 Y1.3248
G2 X0.4498 Y1.2675 I0 J-0.0573
G1 Y0.3575
X0.4496 Y0.3532
X0.4491 Y0.3489
Z-0.06 F6
G2 X0.3925 Y0.3003 I-0.0566 J0.0086 F18
G1 X0.1725
G2 X0.1153 Y0.3575 I0 J0.0572
G1 Y0.3825
G2 X0.1475 Y0.4147 I0.0322 J0
G1 X0.3353 Y0.4148
Y1.2103
X0.1475
G2 X0.1153 Y1.2425 I0 J0.0322
G1 Y1.2675
G2 X0.1725 Y1.3247 I0.0572 J0
G1 X0.3925 Y1.3248
G2 X0.4498 Y1.2675 I0 J-0.0573
G1 Y0.3575
X0.4496 Y0.3532
X0.4491 Y0.3489
G0 Z0.2
X0.5 Y0.2897
G1 Z-0.0106 F6
Z-0.06
X0.8978 F18
Y0.4775
G2 X0.93 Y0.5097 I0.0322 J0
G1 X0.955
G2 X1.0122 Y0.4525 I0 J-0.0572
G1 Y0.2325
G2 X0.955 Y0.1753 I-0.0572 J0
G1 X0.045 Y0.1752
G2 X-0.0123 Y0.2325 I0 J0.0573
G1 Y0.4525
G2 X0.045 Y0.5098 I0.0573 J0
G1 X0.07 Y0.5097
G2 X0.1022 Y0.4775 I0 J-0.0322
G1 X0.1023 Y0.2897
X0.5
G0 Z0.2
X0.5509 Y0.3489
G1 Z-0.0106 F6
Z-0.06
X0.5504 Y0.3532 F18
X0.5502 Y0.3575
Y1.2675
G2 X0.6075 Y1.3248 I0.0573 J0
G1 X0.8275
G2 X0.8848 Y1.2675 I0 J-0.0573
G1 X0.8847 Y1.2425
G2 X0.8525 Y1.2103 I-0.0322 J0
G1 X0.6647
Y0.4148
X0.8525
G2 X0.8848 Y0.3825 I0 J-0.0323
G1 X0.8847 Y0.3575
G2 X0.8275 Y0.3003 I-0.0572 J0
G1 X0.6075
G2 X0.5509 Y0.3489 I0 J0.0572
G1 Z-0.065 F6
X0.5504 Y0.3532 F18
X0.5502 Y0.3575
Y1.2675
G2 X0.6075 Y1.3248 I0.0573 J0
G1 X0.8275
G2 X0.8848 Y1.2675 I0 J-0.0573
G1 X0.8847 Y1.2425
G2 X0.8525 Y1.2103 I-0.0322 J0
G1 X0.6647
Y0.4148
X0.8525
G2 X0.8848 Y0.3825 I0 J-0.0323
G1 X0.8847 Y0.3575
G2 X0.8275 Y0.3003 I-0.0572 J0
G1 X0.6075
G2 X0.5509 Y0.3489 I0 J0.0572
G0 Z0.2
X0.5 Y0.2897
G1 Z-0.0156 F6
Z-0.065
X0.8978 F18
Y0.4775
G2 X0.93 Y0.5097 I0.0322 J0
G1 X0.955
G2 X1.0122 Y0.4525 I0 J-0.0572
G1 Y0.2325
G2 X0.955 Y0.1753 I-0.0572 J0
G1 X0.045 Y0.1752
G2 X-0.0123 Y0.2325 I0 J0.0573
G1 Y0.4525
G2 X0.045 Y0.5098 I0.0573 J0
G1 X0.07 Y0.5097
G2 X0.1022 Y0.4775 I0 J-0.0322
G1 X0.1023 Y0.2897
X0.5
G0 Z0.2
X0.4491 Y0.3489
G1 Z-0.0156 F6
Z-0.065
G2 X0.3925 Y0.3003 I-0.0566 J0.0086 F18
G1 X0.1725
G2 X0.1153 Y0.3575 I0 J0.0572
G1 Y0.3825
G2 X0.1475 Y0.4147 I0.0322 J0
G1 X0.3353 Y0.4148
Y1.2103
X0.1475
G2 X0.1153 Y1.2425 I0 J0.0322
G1 Y1.2675
G2 X0.1725 Y1.3247 I0.0572 J0
G1 X0.3925 Y1.3248
G2 X0.4498 Y1.2675 I0 J-0.0573
G1 Y0.3575
X0.4496 Y0.3532
X0.4491 Y0.3489
Z-0.07 F6
G2 X0.3925 Y0.3003 I-0.0566 J0.0086 F18
G1 X0.1725
G2 X0.1153 Y0.3575 I0 J0.0572
G1 Y0.3825
G2 X0.1475 Y0.4147 I0.0322 J0
G1 X0.3353 Y0.4148
Y1.2103
X0.1475
G2 X0.1153 Y1.2425 I0 J0.0322
G1 Y1.2675
G2 X0.1725 Y1.3247 I0.0572 J0
G1 X0.3925 Y1.3248
G2 X0.4498 Y1.2675 I0 J-0.0573
G1 Y0.3575
X0.4496 Y0.3532
X0.4491 Y0.3489
G0 Z0.2
X0.5 Y0.2897
G1 Z-0.0206 F6
Z-0.07
X0.8978 F18
Y0.4775
G2 X0.93 Y0.5097 I0.0322 J0
G1 X0.955
G2 X1.0122 Y0.4525 I0 J-0.0572
G1 Y0.2325
G2 X0.955 Y0.1753 I-0.0572 J0
G1 X0.045 Y0.1752
G2 X-0.0123 Y0.2325 I0 J0.0573
G1 Y0.4525
G2 X0.045 Y0.5098 I0.0573 J0
G1 X0.07 Y0.5097
G2 X0.1022 Y0.4775 I0 J-0.0322
G1 X0.1023 Y0.2897
X0.5
G0 Z0.2
X0.5509 Y0.3489
G1 Z-0.0206 F6
Z-0.07
X0.5504 Y0.3532 F18
X0.5502 Y0.3575
Y1.2675
G2 X0.6075 Y1.3248 I0.0573 J0
G1 X0.8275
G2 X0.8848 Y1.2675 I0 J-0.0573
G1 X0.8847 Y1.2425
G2 X0.8525 Y1.2103 I-0.0322 J0
G1 X0.6647
Y0.4148
X0.8525
G2 X0.8848 Y0.3825 I0 J-0.0323
G1 X0.8847 Y0.3575
G2 X0.8275 Y0.3003 I-0.0572 J0
G1 X0.6075
G2 X0.5509 Y0.3489 I0 J0.0572
G1 Z-0.075 F6
X0.5504 Y0.3532 F18
X0.5502 Y0.3575
Y1.2675
G2 X0.6075 Y1.3248 I0.0573 J0
G1 X0.8275
G2 X0.8848 Y1.2675 I0 J-0.0573
G1 X0.8847 Y1.2425
G2 X0.8525 Y1.2103 I-0.0322 J0
G1 X0.6647
Y0.4148
X0.8525
G2 X0.8848 Y0.3825 I0 J-0.0323
G1 X0.8847 Y0.3575
G2 X0.8275 Y0.3003 I-0.0572 J0
G1 X0.6075
G2 X0.5509 Y0.3489 I0 J0.0572
G0 Z0.2
X0.5 Y0.2897
G1 Z-0.0256 F6
Z-0.075
X0.8978 F18
Y0.4775
G2 X0.93 Y0.5097 I0.0322 J0
G1 X0.955
G2 X1.0122 Y0.4525 I0 J-0.0572
G1 Y0.2325
G2 X0.955 Y0.1753 I-0.0572 J0
G1 X0.045 Y0.1752
G2 X-0.0123 Y0.2325 I0 J0.0573
G1 Y0.4525
G2 X0.045 Y0.5098 I0.0573 J0
G1 X0.07 Y0.5097
G2 X0.1022 Y0.4775 I0 J-0.0322
G1 X0.1023 Y0.2897
X0.5
G0 Z0.2
X0.4491 Y0.3489
G1 Z-0.0256 F6
Z-0.075
G2 X0.3925 Y0.3003 I-0.0566 J0.0086 F18
G1 X0.1725
G2 X0.1153 Y0.3575 I0 J0.0572
G1 Y0.3825
G2 X0.1475 Y0.4147 I0.0322 J0
G1 X0.3353 Y0.4148
Y1.2103
X0.1475
G2 X0.1153 Y1.2425 I0 J0.0322
G1 Y1.2675
G2 X0.1725 Y1.3247 I0.0572 J0
G1 X0.3925 Y1.3248
G2 X0.4498 Y1.2675 I0 J-0.0573
G1 Y0.3575
X0.4496 Y0.3532
X0.4491 Y0.3489
Z-0.08 F6
G2 X0.3925 Y0.3003 I-0.0566 J0.0086 F18
G1 X0.1725
G2 X0.1153 Y0.3575 I0 J0.0572
G1 Y0.3825
G2 X0.1475 Y0.4147 I0.0322 J0
G1 X0.3353 Y0.4148
Y1.2103
X0.1475
G2 X0.1153 Y1.2425 I0 J0.0322
G1 Y1.2675
G2 X0.1725 Y1.3247 I0.0572 J0
G1 X0.3925 Y1.3248
G2 X0.4498 Y1.2675 I0 J-0.0573
G1 Y0.3575
X0.4496 Y0.3532
X0.4491 Y0.3489
G0 Z0.2
X0.5 Y0.2897
G1 Z-0.0306 F6
Z-0.08
X0.8978 F18
Y0.4775
G2 X0.93 Y0.5097 I0.0322 J0
G1 X0.955
G2 X1.0122 Y0.4525 I0 J-0.0572
G1 Y0.2325
G2 X0.955 Y0.1753 I-0.0572 J0
G1 X0.045 Y0.1752
G2 X-0.0123 Y0.2325 I0 J0.0573
G1 Y0.4525
G2 X0.045 Y0.5098 I0.0573 J0
G1 X0.07 Y0.5097
G2 X0.1022 Y0.4775 I0 J-0.0322
G1 X0.1023 Y0.2897
X0.5
G0 Z0.2
X0.5509 Y0.3489
G1 Z-0.0306 F6
Z-0.08
X0.5504 Y0.3532 F18
X0.5502 Y0.3575
Y1.2675
G2 X0.6075 Y1.3248 I0.0573 J0
G1 X0.8275
G2 X0.8848 Y1.2675 I0 J-0.0573
G1 X0.8847 Y1.2425
G2 X0.8525 Y1.2103 I-0.0322 J0
G1 X0.6647
Y0.4148
X0.8525
G2 X0.8848 Y0.3825 I0 J-0.0323
G1 X0.8847 Y0.3575
G2 X0.8275 Y0.3003 I-0.0572 J0
G1 X0.6075
G2 X0.5509 Y0.3489 I0 J0.0572
G1 Z-0.085 F6
X0.5504 Y0.3532 F18
X0.5502 Y0.3575
Y1.2675
G2 X0.6075 Y1.3248 I0.0573 J0
G1 X0.8275
G2 X0.8848 Y1.2675 I0 J-0.0573
G1 X0.8847 Y1.2425
G2 X0.8525 Y1.2103 I-0.0322 J0
G1 X0.6647
Y0.4148
X0.8525
G2 X0.8848 Y0.3825 I0 J-0.0323
G1 X0.8847 Y0.3575
G2 X0.8275 Y0.3003 I-0.0572 J0
G1 X0.6075
G2 X0.5509 Y0.3489 I0 J0.0572
G0 Z0.2
X0.5 Y0.2897
G1 Z-0.0356 F6
Z-0.085
X0.8978 F18
Y0.4775
G2 X0.93 Y0.5097 I0.0322 J0
G1 X0.955
G2 X1.0122 Y0.4525 I0 J-0.0572
G1 Y0.2325
G2 X0.955 Y0.1753 I-0.0572 J0
G1 X0.045 Y0.1752
G2 X-0.0123 Y0.2325 I0 J0.0573
G1 Y0.4525
G2 X0.045 Y0.5098 I0.0573 J0
G1 X0.07 Y0.5097
G2 X0.1022 Y0.4775 I0 J-0.0322
G1 X0.1023 Y0.2897
X0.5
G0 Z0.2
X0.4491 Y0.3489
G1 Z-0.0356 F6
Z-0.085
G2 X0.3925 Y0.3003 I-0.0566 J0.0086 F18
G1 X0.1725
G2 X0.1153 Y0.3575 I0 J0.0572
G1 Y0.3825
G2 X0.1475 Y0.4147 I0.0322 J0
G1 X0.3353 Y0.4148
Y1.2103
X0.1475
G2 X0.1153 Y1.2425 I0 J0.0322
G1 Y1.2675
G2 X0.1725 Y1.3247 I0.0572 J0
G1 X0.3925 Y1.3248
G2 X0.4498 Y1.2675 I0 J-0.0573
G1 Y0.3575
X0.4496 Y0.3532
X0.4491 Y0.3489
Z-0.09 F6
G2 X0.3925 Y0.3003 I-0.0566 J0.0086 F18
G1 X0.1725
G2 X0.1153 Y0.3575 I0 J0.0572
G1 Y0.3825
G2 X0.1475 Y0.4147 I0.0322 J0
G1 X0.3353 Y0.4148
Y1.2103
X0.1475
G2 X0.1153 Y1.2425 I0 J0.0322
G1 Y1.2675
G2 X0.1725 Y1.3247 I0.0572 J0
G1 X0.3925 Y1.3248
G2 X0.4498 Y1.2675 I0 J-0.0573
G1 Y0.3575
X0.4496 Y0.3532
X0.4491 Y0.3489
G0 Z0.2
X0.5 Y0.2897
G1 Z-0.0406 F6
Z-0.09
X0.8978 F18
Y0.4775
G2 X0.93 Y0.5097 I0.0322 J0
G1 X0.955
G2 X1.0122 Y0.4525 I0 J-0.0572
G1 Y0.2325
G2 X0.955 Y0.1753 I-0.0572 J0
G1 X0.045 Y0.1752
G2 X-0.0123 Y0.2325 I0 J0.0573
G1 Y0.4525
G2 X0.045 Y0.5098 I0.0573 J0
G1 X0.07 Y0.5097
G2 X0.1022 Y0.4775 I0 J-0.0322
G1 X0.1023 Y0.2897
X0.5
G0 Z0.2
X0.5509 Y0.3489
G1 Z-0.0406 F6
Z-0.09
X0.5504 Y0.3532 F18
X0.5502 Y0.3575
Y1.2675
G2 X0.6075 Y1.3248 I0.0573 J0
G1 X0.8275
G2 X0.8848 Y1.2675 I0 J-0.0573
G1 X0.8847 Y1.2425
G2 X0.8525 Y1.2103 I-0.0322 J0
G1 X0.6647
Y0.4148
X0.8525
G2 X0.8848 Y0.3825 I0 J-0.0323
G1 X0.8847 Y0.3575
G2 X0.8275 Y0.3003 I-0.0572 J0
G1 X0.6075
G2 X0.5509 Y0.3489 I0 J0.0572
G1 Z-0.095 F6
X0.5504 Y0.3532 F18
X0.5502 Y0.3575
Y1.2675
G2 X0.6075 Y1.3248 I0.0573 J0
G1 X0.8275
G2 X0.8848 Y1.2675 I0 J-0.0573
G1 X0.8847 Y1.2425
G2 X0.8525 Y1.2103 I-0.0322 J0
G1 X0.6647
Y0.4148
X0.8525
G2 X0.8848 Y0.3825 I0 J-0.0323
G1 X0.8847 Y0.3575
G2 X0.8275 Y0.3003 I-0.0572 J0
G1 X0.6075
G2 X0.5509 Y0.3489 I0 J0.0572
G0 Z0.2
X0.5 Y0.2897
G1 Z-0.0456 F6
Z-0.095
X0.8978 F18
Y0.4775
G2 X0.93 Y0.5097 I0.0322 J0
G1 X0.955
G2 X1.0122 Y0.4525 I0 J-0.0572
G1 Y0.2325
G2 X0.955 Y0.1753 I-0.0572 J0
G1 X0.045 Y0.1752
G2 X-0.0123 Y0.2325 I0 J0.0573
G1 Y0.4525
G2 X0.045 Y0.5098 I0.0573 J0
G1 X0.07 Y0.5097
G2 X0.1022 Y0.4775 I0 J-0.0322
G1 X0.1023 Y0.2897
X0.5
G0 Z0.2
X0.4491 Y0.3489
G1 Z-0.0456 F6
Z-0.095
G2 X0.3925 Y0.3003 I-0.0566 J0.0086 F18
G1 X0.1725
G2 X0.1153 Y0.3575 I0 J0.0572
G1 Y0.3825
G2 X0.1475 Y0.4147 I0.0322 J0
G1 X0.3353 Y0.4148
Y1.2103
X0.1475
G2 X0.1153 Y1.2425 I0 J0.0322
G1 Y1.2675
G2 X0.1725 Y1.3247 I0.0572 J0
G1 X0.3925 Y1.3248
G2 X0.4498 Y1.2675 I0 J-0.0573
G1 Y0.3575
X0.4496 Y0.3532
X0.4491 Y0.3489
Z-0.1 F6
G2 X0.3925 Y0.3003 I-0.0566 J0.0086 F18
G1 X0.1725
G2 X0.1153 Y0.3575 I0 J0.0572
G1 Y0.3825
G2 X0.1475 Y0.4147 I0.0322 J0
G1 X0.3353 Y0.4148
Y1.2103
X0.1475
G2 X0.1153 Y1.2425 I0 J0.0322
G1 Y1.2675
G2 X0.1725 Y1.3247 I0.0572 J0
G1 X0.3925 Y1.3248
G2 X0.4498 Y1.2675 I0 J-0.0573
G1 Y0.3575
X0.4496 Y0.3532
X0.4491 Y0.3489
G0 Z0.2
X0.5 Y0.2897
G1 Z-0.0506 F6
Z-0.1
X0.8978 F18
Y0.4775
G2 X0.93 Y0.5097 I0.0322 J0
G1 X0.955
G2 X1.0122 Y0.4525 I0 J-0.0572
G1 Y0.2325
G2 X0.955 Y0.1753 I-0.0572 J0
G1 X0.045 Y0.1752
G2 X-0.0123 Y0.2325 I0 J0.0573
G1 Y0.4525
G2 X0.045 Y0.5098 I0.0573 J0
G1 X0.07 Y0.5097
G2 X0.1022 Y0.4775 I0 J-0.0322
G1 X0.1023 Y0.2897
X0.5
G0 Z0.2
X0.5509 Y0.3489
G1 Z-0.0506 F6
Z-0.1
X0.5504 Y0.3532 F18
X0.5502 Y0.3575
Y1.2675
G2 X0.6075 Y1.3248 I0.0573 J0
G1 X0.8275
G2 X0.8848 Y1.2675 I0 J-0.0573
G1 X0.8847 Y1.2425
G2 X0.8525 Y1.2103 I-0.0322 J0
G1 X0.6647
Y0.4148
X0.8525
G2 X0.8848 Y0.3825 I0 J-0.0323
G1 X0.8847 Y0.3575
G2 X0.8275 Y0.3003 I-0.0572 J0
G1 X0.6075
G2 X0.5509 Y0.3489 I0 J0.0572
G1 Z-0.105 F6
X0.5504 Y0.3532 F18
X0.5502 Y0.3575
Y1.2675
G2 X0.6075 Y1.3248 I0.0573 J0
G1 X0.8275
G2 X0.8848 Y1.2675 I0 J-0.0573
G1 X0.8847 Y1.2425
G2 X0.8525 Y1.2103 I-0.0322 J0
G1 X0.6647
Y0.4148
X0.8525
G2 X0.8848 Y0.3825 I0 J-0.0323
G1 X0.8847 Y0.3575
G2 X0.8275 Y0.3003 I-0.0572 J0
G1 X0.6075
G2 X0.5509 Y0.3489 I0 J0.0572
G0 Z0.2
X0.5 Y0.2897
G1 Z-0.0556 F6
Z-0.105
X0.8978 F18
Y0.4775
G2 X0.93 Y0.5097 I0.0322 J0
G1 X0.955
G2 X1.0122 Y0.4525 I0 J-0.0572
G1 Y0.2325
G2 X0.955 Y0.1753 I-0.0572 J0
G1 X0.045 Y0.1752
G2 X-0.0123 Y0.2325 I0 J0.0573
G1 Y0.4525
G2 X0.045 Y0.5098 I0.0573 J0
G1 X0.07 Y0.5097
G2 X0.1022 Y0.4775 I0 J-0.0322
G1 X0.1023 Y0.2897
X0.5
G0 Z0.2
X0.4491 Y0.3489
G1 Z-0.0556 F6
Z-0.105
G2 X0.3925 Y0.3003 I-0.0566 J0.0086 F18
G1 X0.1725
G2 X0.1153 Y0.3575 I0 J0.0572
G1 Y0.3825
G2 X0.1475 Y0.4147 I0.0322 J0
G1 X0.3353 Y0.4148
Y1.2103
X0.1475
G2 X0.1153 Y1.2425 I0 J0.0322
G1 Y1.2675
G2 X0.1725 Y1.3247 I0.0572 J0
G1 X0.3925 Y1.3248
G2 X0.4498 Y1.2675 I0 J-0.0573
G1 Y0.3575
X0.4496 Y0.3532
X0.4491 Y0.3489
Z-0.11 F6
G2 X0.3925 Y0.3003 I-0.0566 J0.0086 F18
G1 X0.1725
G2 X0.1153 Y0.3575 I0 J0.0572
G1 Y0.3825
G2 X0.1475 Y0.4147 I0.0322 J0
G1 X0.3353 Y0.4148
Y1.2103
X0.1475
G2 X0.1153 Y1.2425 I0 J0.0322
G1 Y1.2675
G2 X0.1725 Y1.3247 I0.0572 J0
G1 X0.3925 Y1.3248
G2 X0.4498 Y1.2675 I0 J-0.0573
G1 Y0.3575
X0.4496 Y0.3532
X0.4491 Y0.3489
G0 Z0.2
X0.5 Y0.2897
G1 Z-0.0606 F6
Z-0.11
X0.8978 F18
Y0.4775
G2 X0.93 Y0.5097 I0.0322 J0
G1 X0.955
G2 X1.0122 Y0.4525 I0 J-0.0572
G1 Y0.2325
G2 X0.955 Y0.1753 I-0.0572 J0
G1 X0.045 Y0.1752
G2 X-0.0123 Y0.2325 I0 J0.0573
G1 Y0.4525
G2 X0.045 Y0.5098 I0.0573 J0
G1 X0.07 Y0.5097
G2 X0.1022 Y0.4775 I0 J-0.0322
G1 X0.1023 Y0.2897
X0.5
G0 Z0.2
X0.5509 Y0.3489
G1 Z-0.0606 F6
Z-0.11
X0.5504 Y0.3532 F18
X0.5502 Y0.3575
Y1.2675
G2 X0.6075 Y1.3248 I0.0573 J0
G1 X0.8275
G2 X0.8848 Y1.2675 I0 J-0.0573
G1 X0.8847 Y1.2425
G2 X0.8525 Y1.2103 I-0.0322 J0
G1 X0.6647
Y0.4148
X0.8525
G2 X0.8848 Y0.3825 I0 J-0.0323
G1 X0.8847 Y0.3575
G2 X0.8275 Y0.3003 I-0.0572 J0
G1 X0.6075
G2 X0.5509 Y0.3489 I0 J0.0572
G1 Z-0.115 F6
X0.5504 Y0.3532 F18
X0.5502 Y0.3575
Y1.2675
G2 X0.6075 Y1.3248 I0.0573 J0
G1 X0.8275
G2 X0.8848 Y1.2675 I0 J-0.0573
G1 X0.8847 Y1.2425
G2 X0.8525 Y1.2103 I-0.0322 J0
G1 X0.6647
Y0.4148
X0.8525
G2 X0.8848 Y0.3825 I0 J-0.0323
G1 X0.8847 Y0.3575
G2 X0.8275 Y0.3003 I-0.0572 J0
G1 X0.6075
G2 X0.5509 Y0.3489 I0 J0.0572
G0 Z0.2
X0.5 Y0.2897
G1 Z-0.0656 F6
Z-0.115
X0.8978 F18
Y0.4775
G2 X0.93 Y0.5097 I0.0322 J0
G1 X0.955
G2 X1.0122 Y0.4525 I0 J-0.0572
G1 Y0.2325
G2 X0.955 Y0.1753 I-0.0572 J0
G1 X0.045 Y0.1752
G2 X-0.0123 Y0.2325 I0 J0.0573
G1 Y0.4525
G2 X0.045 Y0.5098 I0.0573 J0
G1 X0.07 Y0.5097
G2 X0.1022 Y0.4775 I0 J-0.0322
G1 X0.1023 Y0.2897
X0.5
G0 Z0.2
X0.4491 Y0.3489
G1 Z-0.0656 F6
Z-0.115
G2 X0.3925 Y0.3003 I-0.0566 J0.0086 F18
G1 X0.1725
G2 X0.1153 Y0.3575 I0 J0.0572
G1 Y0.3825
G2 X0.1475 Y0.4147 I0.0322 J0
G1 X0.3353 Y0.4148
Y1.2103
X0.1475
G2 X0.1153 Y1.2425 I0 J0.0322
G1 Y1.2675
G2 X0.1725 Y1.3247 I0.0572 J0
G1 X0.3925 Y1.3248
G2 X0.4498 Y1.2675 I0 J-0.0573
G1 Y0.3575
X0.4496 Y0.3532
X0.4491 Y0.3489
Z-0.12 F6
G2 X0.3925 Y0.3003 I-0.0566 J0.0086 F18
G1 X0.1725
G2 X0.1153 Y0.3575 I0 J0.0572
G1 Y0.3825
G2 X0.1475 Y0.4147 I0.0322 J0
G1 X0.3353 Y0.4148
Y1.2103
X0.1475
G2 X0.1153 Y1.2425 I0 J0.0322
G1 Y1.2675
G2 X0.1725 Y1.3247 I0.0572 J0
G1 X0.3925 Y1.3248
G2 X0.4498 Y1.2675 I0 J-0.0573
G1 Y0.3575
X0.4496 Y0.3532
X0.4491 Y0.3489
G0 Z0.2
X0.5 Y0.2897
G1 Z-0.0706 F6
Z-0.12
X0.8978 F18
Y0.4775
G2 X0.93 Y0.5097 I0.0322 J0
G1 X0.955
G2 X1.0122 Y0.4525 I0 J-0.0572
G1 Y0.2325
G2 X0.955 Y0.1753 I-0.0572 J0
G1 X0.045 Y0.1752
G2 X-0.0123 Y0.2325 I0 J0.0573
G1 Y0.4525
G2 X0.045 Y0.5098 I0.0573 J0
G1 X0.07 Y0.5097
G2 X0.1022 Y0.4775 I0 J-0.0322
G1 X0.1023 Y0.2897
X0.5
G0 Z0.2
X0.5509 Y0.3489
G1 Z-0.0706 F6
Z-0.12
X0.5504 Y0.3532 F18
X0.5502 Y0.3575
Y1.2675
G2 X0.6075 Y1.3248 I0.0573 J0
G1 X0.8275
G2 X0.8848 Y1.2675 I0 J-0.0573
G1 X0.8847 Y1.2425
G2 X0.8525 Y1.2103 I-0.0322 J0
G1 X0.6647
Y0.4148
X0.8525
G2 X0.8848 Y0.3825 I0 J-0.0323
G1 X0.8847 Y0.3575
G2 X0.8275 Y0.3003 I-0.0572 J0
G1 X0.6075
G2 X0.5509 Y0.3489 I0 J0.0572
G1 Z-0.124 F6
X0.5504 Y0.3532 F18
X0.5502 Y0.3575
Y1.2675
G2 X0.6075 Y1.3248 I0.0573 J0
G1 X0.8275
G2 X0.8848 Y1.2675 I0 J-0.0573
G1 X0.8847 Y1.2425
G2 X0.8525 Y1.2103 I-0.0322 J0
G1 X0.6647
Y0.4148
X0.8525
G2 X0.8848 Y0.3825 I0 J-0.0323
G1 X0.8847 Y0.3575
G2 X0.8275 Y0.3003 I-0.0572 J0
G1 X0.6075
G2 X0.5509 Y0.3489 I0 J0.0572
G0 Z0.2
X0.5 Y0.2897
G1 Z-0.0756 F6
Z-0.124
X0.8978 F18
Y0.4775
G2 X0.93 Y0.5097 I0.0322 J0
G1 X0.955
G2 X1.0122 Y0.4525 I0 J-0.0572
G1 Y0.2325
G2 X0.955 Y0.1753 I-0.0572 J0
G1 X0.045 Y0.1752
G2 X-0.0123 Y0.2325 I0 J0.0573
G1 Y0.4525
G2 X0.045 Y0.5098 I0.0573 J0
G1 X0.07 Y0.5097
G2 X0.1022 Y0.4775 I0 J-0.0322
G1 X0.1023 Y0.2897
X0.5
G0 Z0.2
X0.4491 Y0.3489
G1 Z-0.0756 F6
Z-0.124
G2 X0.3925 Y0.3003 I-0.0566 J0.0086 F18
G1 X0.1725
G2 X0.1153 Y0.3575 I0 J0.0572
G1 Y0.3825
G2 X0.1475 Y0.4147 I0.0322 J0
G1 X0.3353 Y0.4148
Y1.2103
X0.1475
G2 X0.1153 Y1.2425 I0 J0.0322
G1 Y1.2675
G2 X0.1725 Y1.3247 I0.0572 J0
G1 X0.3925 Y1.3248
G2 X0.4498 Y1.2675 I0 J-0.0573
G1 Y0.3575
X0.4496 Y0.3532
X0.4491 Y0.3489
G0 Z0.6

(2D Contour1 4)
X0.5512 Y0.3575
Z0.6
Z0.095
G1 Z-0.0606 F6
Z-0.11
Y1.2675 F18
G2 X0.6075 Y1.3238 I0.0563 J0
G1 X0.8275
G2 X0.8838 Y1.2675 I0 J-0.0563
G1 X0.8837 Y1.2425
G2 X0.8525 Y1.2113 I-0.0312 J0
G1 X0.6637
Y0.4138
X0.8525
G2 X0.8838 Y0.3825 I0 J-0.0313
G1 X0.8837 Y0.3575
G2 X0.8275 Y0.3013 I-0.0562 J0
G1 X0.6075
G2 X0.5513 Y0.3575 I0 J0.0562
G0 X0.5512 Z0.2
X0.5 Y0.2887
Z0.095
G1 Z-0.0606 F6
Z-0.11
X0.8988 F18
Y0.4775
G2 X0.93 Y0.5087 I0.0312 J0
G1 X0.955
G2 X1.0112 Y0.4525 I0 J-0.0562
G1 Y0.2325
G2 X0.955 Y0.1763 I-0.0562 J0
G1 X0.045 Y0.1762
G2 X-0.0113 Y0.2325 I0 J0.0563
G1 Y0.4525
G2 X0.045 Y0.5088 I0.0563 J0
G1 X0.07 Y0.5087
G2 X0.1012 Y0.4775 I0 J-0.0312
G1 Y0.2887
X0.5
G0 Z0.2
X0.4482 Y0.3491
Z0.095
G1 Z-0.0606 F6
Z-0.11
G2 X0.3925 Y0.3012 I-0.0557 J0.0084 F18
G1 X0.1725 Y0.3013
G2 X0.1163 Y0.3575 I0 J0.0562
G1 Y0.3825
G2 X0.1475 Y0.4137 I0.0312 J0
G1 X0.3363 Y0.4138
Y1.2113
X0.1475
G2 X0.1163 Y1.2425 I0 J0.0312
G1 Y1.2675
G2 X0.1725 Y1.3237 I0.0562 J0
G1 X0.3925 Y1.3238
G2 X0.4488 Y1.2675 I0 J-0.0563
G1 Y0.3575
X0.4486 Y0.3533
X0.4482 Y0.3491
Z-0.115 F6
G2 X0.3925 Y0.3012 I-0.0557 J0.0084 F18
G1 X0.1725 Y0.3013
G2 X0.1163 Y0.3575 I0 J0.0562
G1 Y0.3825
G2 X0.1475 Y0.4137 I0.0312 J0
G1 X0.3363 Y0.4138
Y1.2113
X0.1475
G2 X0.1163 Y1.2425 I0 J0.0312
G1 Y1.2675
G2 X0.1725 Y1.3237 I0.0562 J0
G1 X0.3925 Y1.3238
G2 X0.4488 Y1.2675 I0 J-0.0563
G1 Y0.3575
X0.4486 Y0.3533
X0.4482 Y0.3491
G0 Z0.2
X0.5 Y0.2887
Z0.095
G1 Z-0.0656 F6
Z-0.115
X0.8988 F18
Y0.4775
G2 X0.93 Y0.5087 I0.0312 J0
G1 X0.955
G2 X1.0112 Y0.4525 I0 J-0.0562
G1 Y0.2325
G2 X0.955 Y0.1763 I-0.0562 J0
G1 X0.045 Y0.1762
G2 X-0.0113 Y0.2325 I0 J0.0563
G1 Y0.4525
G2 X0.045 Y0.5088 I0.0563 J0
G1 X0.07 Y0.5087
G2 X0.1012 Y0.4775 I0 J-0.0312
G1 Y0.2887
X0.5
G0 Z0.2
X0.5518 Y0.3491
Z0.095
G1 Z-0.0656 F6
Z-0.115
X0.5514 Y0.3533 F18
X0.5512 Y0.3575
Y1.2675
G2 X0.6075 Y1.3238 I0.0563 J0
G1 X0.8275
G2 X0.8838 Y1.2675 I0 J-0.0563
G1 X0.8837 Y1.2425
G2 X0.8525 Y1.2113 I-0.0312 J0
G1 X0.6637
Y0.4138
X0.8525
G2 X0.8838 Y0.3825 I0 J-0.0313
G1 X0.8837 Y0.3575
G2 X0.8275 Y0.3013 I-0.0562 J0
G1 X0.6075
G2 X0.5519 Y0.3491 I0 J0.0562
G1 X0.5518 Z-0.12 F6
X0.5514 Y0.3533 F18
X0.5512 Y0.3575
Y1.2675
G2 X0.6075 Y1.3238 I0.0563 J0
G1 X0.8275
G2 X0.8838 Y1.2675 I0 J-0.0563
G1 X0.8837 Y1.2425
G2 X0.8525 Y1.2113 I-0.0312 J0
G1 X0.6637
Y0.4138
X0.8525
G2 X0.8838 Y0.3825 I0 J-0.0313
G1 X0.8837 Y0.3575
G2 X0.8275 Y0.3013 I-0.0562 J0
G1 X0.6075
G2 X0.5519 Y0.3491 I0 J0.0562
G0 X0.5518 Z0.2
X0.5 Y0.2887
Z0.095
G1 Z-0.0706 F6
Z-0.12
X0.8988 F18
Y0.4775
G2 X0.93 Y0.5087 I0.0312 J0
G1 X0.955
G2 X1.0112 Y0.4525 I0 J-0.0562
G1 Y0.2325
G2 X0.955 Y0.1763 I-0.0562 J0
G1 X0.045 Y0.1762
G2 X-0.0113 Y0.2325 I0 J0.0563
G1 Y0.4525
G2 X0.045 Y0.5088 I0.0563 J0
G1 X0.07 Y0.5087
G2 X0.1012 Y0.4775 I0 J-0.0312
G1 Y0.2887
X0.5
G0 Z0.2
X0.4482 Y0.3491
Z0.095
G1 Z-0.0706 F6
Z-0.12
G2 X0.3925 Y0.3012 I-0.0557 J0.0084 F18
G1 X0.1725 Y0.3013
G2 X0.1163 Y0.3575 I0 J0.0562
G1 Y0.3825
G2 X0.1475 Y0.4137 I0.0312 J0
G1 X0.3363 Y0.4138
Y1.2113
X0.1475
G2 X0.1163 Y1.2425 I0 J0.0312
G1 Y1.2675
G2 X0.1725 Y1.3237 I0.0562 J0
G1 X0.3925 Y1.3238
G2 X0.4488 Y1.2675 I0 J-0.0563
G1 Y0.3575
X0.4486 Y0.3533
X0.4482 Y0.3491
Z-0.125 F6
G2 X0.3925 Y0.3012 I-0.0557 J0.0084 F18
G1 X0.1725 Y0.3013
G2 X0.1163 Y0.3575 I0 J0.0562
G1 Y0.3825
G2 X0.1475 Y0.4137 I0.0312 J0
G1 X0.3363 Y0.4138
Y1.2113
X0.1475
G2 X0.1163 Y1.2425 I0 J0.0312
G1 Y1.2675
G2 X0.1725 Y1.3237 I0.0562 J0
G1 X0.3925 Y1.3238
G2 X0.4488 Y1.2675 I0 J-0.0563
G1 Y0.3575
X0.4486 Y0.3533
X0.4482 Y0.3491
G0 Z0.2
X0.5 Y0.2887
Z0.095
G1 Z-0.0756 F6
Z-0.125
X0.8988 F18
Y0.4775
G2 X0.93 Y0.5087 I0.0312 J0
G1 X0.955
G2 X1.0112 Y0.4525 I0 J-0.0562
G1 Y0.2325
G2 X0.955 Y0.1763 I-0.0562 J0
G1 X0.045 Y0.1762
G2 X-0.0113 Y0.2325 I0 J0.0563
G1 Y0.4525
G2 X0.045 Y0.5088 I0.0563 J0
G1 X0.07 Y0.5087
G2 X0.1012 Y0.4775 I0 J-0.0312
G1 Y0.2887
X0.5
G0 Z0.2
X0.5518 Y0.3491
Z0.095
G1 Z-0.0756 F6
Z-0.125
X0.5514 Y0.3533 F18
X0.5512 Y0.3575
Y1.2675
G2 X0.6075 Y1.3238 I0.0563 J0
G1 X0.8275
G2 X0.8838 Y1.2675 I0 J-0.0563
G1 X0.8837 Y1.2425
G2 X0.8525 Y1.2113 I-0.0312 J0
G1 X0.6637
Y0.4138
X0.8525
G2 X0.8838 Y0.3825 I0 J-0.0313
G1 X0.8837 Y0.3575
G2 X0.8275 Y0.3013 I-0.0562 J0
G1 X0.6075
G2 X0.5519 Y0.3491 I0 J0.0562
G1 X0.5518 Z-0.13 F6
X0.5514 Y0.3533 F18
X0.5512 Y0.3575
Y1.2675
G2 X0.6075 Y1.3238 I0.0563 J0
G1 X0.8275
G2 X0.8838 Y1.2675 I0 J-0.0563
G1 X0.8837 Y1.2425
G2 X0.8525 Y1.2113 I-0.0312 J0
G1 X0.6637
Y0.4138
X0.8525
G2 X0.8838 Y0.3825 I0 J-0.0313
G1 X0.8837 Y0.3575
G2 X0.8275 Y0.3013 I-0.0562 J0
G1 X0.6075
G2 X0.5519 Y0.3491 I0 J0.0562
G0 X0.5518 Z0.2
X0.5 Y0.2887
Z0.095
G1 Z-0.0806 F6
Z-0.13
X0.8988 F18
Y0.4775
G2 X0.93 Y0.5087 I0.0312 J0
G1 X0.955
G2 X1.0112 Y0.4525 I0 J-0.0562
G1 Y0.2325
G2 X0.955 Y0.1763 I-0.0562 J0
G1 X0.045 Y0.1762
G2 X-0.0113 Y0.2325 I0 J0.0563
G1 Y0.4525
G2 X0.045 Y0.5088 I0.0563 J0
G1 X0.07 Y0.5087
G2 X0.1012 Y0.4775 I0 J-0.0312
G1 Y0.2887
X0.5
G0 Z0.2
X0.4482 Y0.3491
Z0.095
G1 Z-0.0806 F6
Z-0.13
G2 X0.3925 Y0.3012 I-0.0557 J0.0084 F18
G1 X0.1725 Y0.3013
G2 X0.1163 Y0.3575 I0 J0.0562
G1 Y0.3825
G2 X0.1475 Y0.4137 I0.0312 J0
G1 X0.3363 Y0.4138
Y1.2113
X0.1475
G2 X0.1163 Y1.2425 I0 J0.0312
G1 Y1.2675
G2 X0.1725 Y1.3237 I0.0562 J0
G1 X0.3925 Y1.3238
G2 X0.4488 Y1.2675 I0 J-0.0563
G1 Y0.3575
X0.4486 Y0.3533
X0.4482 Y0.3491
Z-0.135 F6
G2 X0.3925 Y0.3012 I-0.0557 J0.0084 F18
G1 X0.1725 Y0.3013
G2 X0.1163 Y0.3575 I0 J0.0562
G1 Y0.3825
G2 X0.1475 Y0.4137 I0.0312 J0
G1 X0.3363 Y0.4138
Y1.2113
X0.1475
G2 X0.1163 Y1.2425 I0 J0.0312
G1 Y1.2675
G2 X0.1725 Y1.3237 I0.0562 J0
G1 X0.3925 Y1.3238
G2 X0.4488 Y1.2675 I0 J-0.0563
G1 Y0.3575
X0.4486 Y0.3533
X0.4482 Y0.3491
G0 Z0.2
X0.5 Y0.2887
Z0.095
G1 Z-0.0856 F6
Z-0.135
X0.8988 F18
Y0.4775
G2 X0.93 Y0.5087 I0.0312 J0
G1 X0.955
G2 X1.0112 Y0.4525 I0 J-0.0562
G1 Y0.2325
G2 X0.955 Y0.1763 I-0.0562 J0
G1 X0.045 Y0.1762
G2 X-0.0113 Y0.2325 I0 J0.0563
G1 Y0.4525
G2 X0.045 Y0.5088 I0.0563 J0
G1 X0.07 Y0.5087
G2 X0.1012 Y0.4775 I0 J-0.0312
G1 Y0.2887
X0.5
G0 Z0.2
X0.5518 Y0.3491
Z0.095
G1 Z-0.0856 F6
Z-0.135
X0.5514 Y0.3533 F18
X0.5512 Y0.3575
Y1.2675
G2 X0.6075 Y1.3238 I0.0563 J0
G1 X0.8275
G2 X0.8838 Y1.2675 I0 J-0.0563
G1 X0.8837 Y1.2425
G2 X0.8525 Y1.2113 I-0.0312 J0
G1 X0.6637
Y0.4138
X0.8525
G2 X0.8838 Y0.3825 I0 J-0.0313
G1 X0.8837 Y0.3575
G2 X0.8275 Y0.3013 I-0.0562 J0
G1 X0.6075
G2 X0.5519 Y0.3491 I0 J0.0562
G0 X0.5518 Z0.6
G28 G91 Z0
G90
G28 G91 X0 Y0
G90
M30
%
