%
(Hands)
(T1  D=0.012 CR=0 - ZMIN=-0.012 - flat end mill)
G90
G17
G20
G28 G91 Z0
G90

(2D Contour2 3)
T1 M6
S10000 M3
G54
M7
G0 X-0.1053 Y0.2067
Z0.2
Z0.1
G1 Z0.0404 F2.6
Z-0.001
G3 X-0.1173 Y0.1959 I-0.0011 J-0.0108 F7.66
X-0.0955 I0.0109 J0
X-0.1053 Y0.2067 I-0.0109 J0
G1 Z-0.002 F2.6
G3 X-0.1173 Y0.1959 I-0.0011 J-0.0108 F7.66
X-0.0955 I0.0109 J0
X-0.1053 Y0.2067 I-0.0109 J0
G1 Z-0.003 F2.6
G3 X-0.1173 Y0.1959 I-0.0011 J-0.0108 F7.66
X-0.0955 I0.0109 J0
X-0.1053 Y0.2067 I-0.0109 J0
G1 Z-0.004 F2.6
G3 X-0.1173 Y0.1959 I-0.0011 J-0.0108 F7.66
X-0.0955 I0.0109 J0
X-0.1053 Y0.2067 I-0.0109 J0
G1 Z-0.005 F2.6
G3 X-0.1173 Y0.1959 I-0.0011 J-0.0108 F7.66
X-0.0955 I0.0109 J0
X-0.1053 Y0.2067 I-0.0109 J0
G1 Z-0.006 F2.6
G3 X-0.1173 Y0.1959 I-0.0011 J-0.0108 F7.66
X-0.0955 I0.0109 J0
X-0.1053 Y0.2067 I-0.0109 J0
G1 Z-0.007 F2.6
G3 X-0.1173 Y0.1959 I-0.0011 J-0.0108 F7.66
X-0.0955 I0.0109 J0
X-0.1053 Y0.2067 I-0.0109 J0
G1 Z-0.008 F2.6
G3 X-0.1173 Y0.1959 I-0.0011 J-0.0108 F7.66
X-0.0955 I0.0109 J0
X-0.1053 Y0.2067 I-0.0109 J0
G1 Z-0.009 F2.6
G3 X-0.1173 Y0.1959 I-0.0011 J-0.0108 F7.66
X-0.0955 I0.0109 J0
X-0.1053 Y0.2067 I-0.0109 J0
G1 Z-0.01 F2.6
G3 X-0.1173 Y0.1959 I-0.0011 J-0.0108 F7.66
X-0.0955 I0.0109 J0
X-0.1053 Y0.2067 I-0.0109 J0
G1 Z-0.011 F2.6
G3 X-0.1173 Y0.1959 I-0.0011 J-0.0108 F7.66
X-0.0955 I0.0109 J0
X-0.1053 Y0.2067 I-0.0109 J0
G1 Z-0.012 F2.6
G3 X-0.1173 Y0.1959 I-0.0011 J-0.0108 F7.66
X-0.0955 I0.0109 J0
X-0.1053 Y0.2067 I-0.0109 J0
G0 Z0.1
X0.068 Y0.1959
G1 Z0.0404 F2.6
Z-0.001
X0.0681 Y0.1996 F7.66
X-0.0595
X-0.0593 Y0.1959
X-0.0595 Y0.1922
X0.0681
X0.068 Y0.1959
Z-0.002 F2.6
X0.0681 Y0.1996 F7.66
X-0.0595
X-0.0593 Y0.1959
X-0.0595 Y0.1922
X0.0681
X0.068 Y0.1959
Z-0.003 F2.6
X0.0681 Y0.1996 F7.66
X-0.0595
X-0.0593 Y0.1959
X-0.0595 Y0.1922
X0.0681
X0.068 Y0.1959
Z-0.004 F2.6
X0.0681 Y0.1996 F7.66
X-0.0595
X-0.0593 Y0.1959
X-0.0595 Y0.1922
X0.0681
X0.068 Y0.1959
Z-0.005 F2.6
X0.0681 Y0.1996 F7.66
X-0.0595
X-0.0593 Y0.1959
X-0.0595 Y0.1922
X0.0681
X0.068 Y0.1959
Z-0.006 F2.6
X0.0681 Y0.1996 F7.66
X-0.0595
X-0.0593 Y0.1959
X-0.0595 Y0.1922
X0.0681
X0.068 Y0.1959
Z-0.007 F2.6
X0.0681 Y0.1996 F7.66
X-0.0595
X-0.0593 Y0.1959
X-0.0595 Y0.1922
X0.0681
X0.068 Y0.1959
Z-0.008 F2.6
X0.0681 Y0.1996 F7.66
X-0.0595
X-0.0593 Y0.1959
X-0.0595 Y0.1922
X0.0681
X0.068 Y0.1959
Z-0.009 F2.6
X0.0681 Y0.1996 F7.66
X-0.0595
X-0.0593 Y0.1959
X-0.0595 Y0.1922
X0.0681
X0.068 Y0.1959
Z-0.01 F2.6
X0.0681 Y0.1996 F7.66
X-0.0595
X-0.0593 Y0.1959
X-0.0595 Y0.1922
X0.0681
X0.068 Y0.1959
Z-0.011 F2.6
X0.0681 Y0.1996 F7.66
X-0.0595
X-0.0593 Y0.1959
X-0.0595 Y0.1922
X0.0681
X0.068 Y0.1959
Z-0.012 F2.6
X0.0681 Y0.1996 F7.66
X-0.0595
X-0.0593 Y0.1959
X-0.0595 Y0.1922
X0.0681
X0.068 Y0.1959
G0 Z0.1
X0.1285 Y0.179
G1 Z0.0404 F2.6
Z-0.001
X0.1247 Y0.1854 F7.66
X0.092
G3 X0.1412 Y0.1573 I0.0386 J0.0105
G1 X0.1285 Y0.179
Z-0.002 F2.6
X0.1247 Y0.1854 F7.66
X0.092
G3 X0.1412 Y0.1573 I0.0386 J0.0105
G1 X0.1285 Y0.179
Z-0.003 F2.6
X0.1247 Y0.1854 F7.66
X0.092
G3 X0.1412 Y0.1573 I0.0386 J0.0105
G1 X0.1285 Y0.179
Z-0.004 F2.6
X0.1247 Y0.1854 F7.66
X0.092
G3 X0.1412 Y0.1573 I0.0386 J0.0105
G1 X0.1285 Y0.179
Z-0.005 F2.6
X0.1247 Y0.1854 F7.66
X0.092
G3 X0.1412 Y0.1573 I0.0386 J0.0105
G1 X0.1285 Y0.179
Z-0.006 F2.6
X0.1247 Y0.1854 F7.66
X0.092
G3 X0.1412 Y0.1573 I0.0386 J0.0105
G1 X0.1285 Y0.179
Z-0.007 F2.6
X0.1247 Y0.1854 F7.66
X0.092
G3 X0.1412 Y0.1573 I0.0386 J0.0105
G1 X0.1285 Y0.179
Z-0.008 F2.6
X0.1247 Y0.1854 F7.66
X0.092
G3 X0.1412 Y0.1573 I0.0386 J0.0105
G1 X0.1285 Y0.179
Z-0.009 F2.6
X0.1247 Y0.1854 F7.66
X0.092
G3 X0.1412 Y0.1573 I0.0386 J0.0105
G1 X0.1285 Y0.179
Z-0.01 F2.6
X0.1247 Y0.1854 F7.66
X0.092
G3 X0.1412 Y0.1573 I0.0386 J0.0105
G1 X0.1285 Y0.179
Z-0.011 F2.6
X0.1247 Y0.1854 F7.66
X0.092
G3 X0.1412 Y0.1573 I0.0386 J0.0105
G1 X0.1285 Y0.179
Z-0.012 F2.6
X0.1247 Y0.1854 F7.66
X0.092
G3 X0.1412 Y0.1573 I0.0386 J0.0105
G1 X0.1285 Y0.179
G0 Z0.1
X0.1706 Y0.1961
G1 Z0.0404 F2.6
Z-0.001
G3 X0.1587 Y0.2244 I-0.04 J-0.0002 F7.66
G1 X0.1424 Y0.1962
X0.1508 Y0.1809
X0.1586 Y0.1673
G3 X0.1706 Y0.1961 I-0.028 J0.0286
G1 Z-0.002 F2.6
G3 X0.1587 Y0.2244 I-0.04 J-0.0002 F7.66
G1 X0.1424 Y0.1962
X0.1508 Y0.1809
X0.1586 Y0.1673
G3 X0.1706 Y0.1961 I-0.028 J0.0286
G1 Z-0.003 F2.6
G3 X0.1587 Y0.2244 I-0.04 J-0.0002 F7.66
G1 X0.1424 Y0.1962
X0.1508 Y0.1809
X0.1586 Y0.1673
G3 X0.1706 Y0.1961 I-0.028 J0.0286
G1 Z-0.004 F2.6
G3 X0.1587 Y0.2244 I-0.04 J-0.0002 F7.66
G1 X0.1424 Y0.1962
X0.1508 Y0.1809
X0.1586 Y0.1673
G3 X0.1706 Y0.1961 I-0.028 J0.0286
G1 Z-0.005 F2.6
G3 X0.1587 Y0.2244 I-0.04 J-0.0002 F7.66
G1 X0.1424 Y0.1962
X0.1508 Y0.1809
X0.1586 Y0.1673
G3 X0.1706 Y0.1961 I-0.028 J0.0286
G1 Z-0.006 F2.6
G3 X0.1587 Y0.2244 I-0.04 J-0.0002 F7.66
G1 X0.1424 Y0.1962
X0.1508 Y0.1809
X0.1586 Y0.1673
G3 X0.1706 Y0.1961 I-0.028 J0.0286
G1 Z-0.007 F2.6
G3 X0.1587 Y0.2244 I-0.04 J-0.0002 F7.66
G1 X0.1424 Y0.1962
X0.1508 Y0.1809
X0.1586 Y0.1673
G3 X0.1706 Y0.1961 I-0.028 J0.0286
G1 Z-0.008 F2.6
G3 X0.1587 Y0.2244 I-0.04 J-0.0002 F7.66
G1 X0.1424 Y0.1962
X0.1508 Y0.1809
X0.1586 Y0.1673
G3 X0.1706 Y0.1961 I-0.028 J0.0286
G1 Z-0.009 F2.6
G3 X0.1587 Y0.2244 I-0.04 J-0.0002 F7.66
G1 X0.1424 Y0.1962
X0.1508 Y0.1809
X0.1586 Y0.1673
G3 X0.1706 Y0.1961 I-0.028 J0.0286
G1 Z-0.01 F2.6
G3 X0.1587 Y0.2244 I-0.04 J-0.0002 F7.66
G1 X0.1424 Y0.1962
X0.1508 Y0.1809
X0.1586 Y0.1673
G3 X0.1706 Y0.1961 I-0.028 J0.0286
G1 Z-0.011 F2.6
G3 X0.1587 Y0.2244 I-0.04 J-0.0002 F7.66
G1 X0.1424 Y0.1962
X0.1508 Y0.1809
X0.1586 Y0.1673
G3 X0.1706 Y0.1961 I-0.028 J0.0286
G1 Z-0.012 F2.6
G3 X0.1587 Y0.2244 I-0.04 J-0.0002 F7.66
G1 X0.1424 Y0.1962
X0.1508 Y0.1809
X0.1586 Y0.1673
G3 X0.1706 Y0.1961 I-0.028 J0.0286
G0 Z0.1
X0.1932 Y0.1959
G1 Z0.0404 F2.6
Z-0.001
Y0.1936 F7.66
X0.2021 Y0.1959
X0.1932 Y0.1982
Y0.1959
Z-0.002 F2.6
Y0.1936 F7.66
X0.2021 Y0.1959
X0.1932 Y0.1982
Y0.1959
Z-0.003 F2.6
Y0.1936 F7.66
X0.2021 Y0.1959
X0.1932 Y0.1982
Y0.1959
Z-0.004 F2.6
Y0.1936 F7.66
X0.2021 Y0.1959
X0.1932 Y0.1982
Y0.1959
Z-0.005 F2.6
Y0.1936 F7.66
X0.2021 Y0.1959
X0.1932 Y0.1982
Y0.1959
Z-0.006 F2.6
Y0.1936 F7.66
X0.2021 Y0.1959
X0.1932 Y0.1982
Y0.1959
Z-0.007 F2.6
Y0.1936 F7.66
X0.2021 Y0.1959
X0.1932 Y0.1982
Y0.1959
Z-0.008 F2.6
Y0.1936 F7.66
X0.2021 Y0.1959
X0.1932 Y0.1982
Y0.1959
Z-0.009 F2.6
Y0.1936 F7.66
X0.2021 Y0.1959
X0.1932 Y0.1982
Y0.1959
Z-0.01 F2.6
Y0.1936 F7.66
X0.2021 Y0.1959
X0.1932 Y0.1982
Y0.1959
Z-0.011 F2.6
Y0.1936 F7.66
X0.2021 Y0.1959
X0.1932 Y0.1982
Y0.1959
Z-0.012 F2.6
Y0.1936 F7.66
X0.2021 Y0.1959
X0.1932 Y0.1982
Y0.1959
G0 Z0.1
X0.1288 Y0.2129
G1 Z0.0404 F2.6
Z-0.001
X0.1413 Y0.2344 F7.66
G3 X0.092 Y0.2064 I-0.0107 J-0.0385
G1 X0.125
X0.1288 Y0.2129
Z-0.002 F2.6
X0.1413 Y0.2344 F7.66
G3 X0.092 Y0.2064 I-0.0107 J-0.0385
G1 X0.125
X0.1288 Y0.2129
Z-0.003 F2.6
X0.1413 Y0.2344 F7.66
G3 X0.092 Y0.2064 I-0.0107 J-0.0385
G1 X0.125
X0.1288 Y0.2129
Z-0.004 F2.6
X0.1413 Y0.2344 F7.66
G3 X0.092 Y0.2064 I-0.0107 J-0.0385
G1 X0.125
X0.1288 Y0.2129
Z-0.005 F2.6
X0.1413 Y0.2344 F7.66
G3 X0.092 Y0.2064 I-0.0107 J-0.0385
G1 X0.125
X0.1288 Y0.2129
Z-0.006 F2.6
X0.1413 Y0.2344 F7.66
G3 X0.092 Y0.2064 I-0.0107 J-0.0385
G1 X0.125
X0.1288 Y0.2129
Z-0.007 F2.6
X0.1413 Y0.2344 F7.66
G3 X0.092 Y0.2064 I-0.0107 J-0.0385
G1 X0.125
X0.1288 Y0.2129
Z-0.008 F2.6
X0.1413 Y0.2344 F7.66
G3 X0.092 Y0.2064 I-0.0107 J-0.0385
G1 X0.125
X0.1288 Y0.2129
Z-0.009 F2.6
X0.1413 Y0.2344 F7.66
G3 X0.092 Y0.2064 I-0.0107 J-0.0385
G1 X0.125
X0.1288 Y0.2129
Z-0.01 F2.6
X0.1413 Y0.2344 F7.66
G3 X0.092 Y0.2064 I-0.0107 J-0.0385
G1 X0.125
X0.1288 Y0.2129
Z-0.011 F2.6
X0.1413 Y0.2344 F7.66
G3 X0.092 Y0.2064 I-0.0107 J-0.0385
G1 X0.125
X0.1288 Y0.2129
Z-0.012 F2.6
X0.1413 Y0.2344 F7.66
G3 X0.092 Y0.2064 I-0.0107 J-0.0385
G1 X0.125
X0.1288 Y0.2129
G0 Z0.1
X0.1247 Y0.3196
G1 Z0.0404 F2.6
Z-0.001
X0.1209 Y0.326 F7.66
X0.0882
G3 X0.1374 Y0.2979 I0.0386 J0.0105
G1 X0.1247 Y0.3196
Z-0.002 F2.6
X0.1209 Y0.326 F7.66
X0.0882
G3 X0.1374 Y0.2979 I0.0386 J0.0105
G1 X0.1247 Y0.3196
Z-0.003 F2.6
X0.1209 Y0.326 F7.66
X0.0882
G3 X0.1374 Y0.2979 I0.0386 J0.0105
G1 X0.1247 Y0.3196
Z-0.004 F2.6
X0.1209 Y0.326 F7.66
X0.0882
G3 X0.1374 Y0.2979 I0.0386 J0.0105
G1 X0.1247 Y0.3196
Z-0.005 F2.6
X0.1209 Y0.326 F7.66
X0.0882
G3 X0.1374 Y0.2979 I0.0386 J0.0105
G1 X0.1247 Y0.3196
Z-0.006 F2.6
X0.1209 Y0.326 F7.66
X0.0882
G3 X0.1374 Y0.2979 I0.0386 J0.0105
G1 X0.1247 Y0.3196
Z-0.007 F2.6
X0.1209 Y0.326 F7.66
X0.0882
G3 X0.1374 Y0.2979 I0.0386 J0.0105
G1 X0.1247 Y0.3196
Z-0.008 F2.6
X0.1209 Y0.326 F7.66
X0.0882
G3 X0.1374 Y0.2979 I0.0386 J0.0105
G1 X0.1247 Y0.3196
Z-0.009 F2.6
X0.1209 Y0.326 F7.66
X0.0882
G3 X0.1374 Y0.2979 I0.0386 J0.0105
G1 X0.1247 Y0.3196
Z-0.01 F2.6
X0.1209 Y0.326 F7.66
X0.0882
G3 X0.1374 Y0.2979 I0.0386 J0.0105
G1 X0.1247 Y0.3196
Z-0.011 F2.6
X0.1209 Y0.326 F7.66
X0.0882
G3 X0.1374 Y0.2979 I0.0386 J0.0105
G1 X0.1247 Y0.3196
Z-0.012 F2.6
X0.1209 Y0.326 F7.66
X0.0882
G3 X0.1374 Y0.2979 I0.0386 J0.0105
G1 X0.1247 Y0.3196
G0 Z0.1
X0.1668 Y0.3367
G1 Z0.0404 F2.6
Z-0.001
G3 X0.1549 Y0.365 I-0.04 J-0.0002 F7.66
G1 X0.1386 Y0.3368
X0.147 Y0.3215
X0.1548 Y0.3079
G3 X0.1668 Y0.3367 I-0.028 J0.0286
G1 Z-0.002 F2.6
G3 X0.1549 Y0.365 I-0.04 J-0.0002 F7.66
G1 X0.1386 Y0.3368
X0.147 Y0.3215
X0.1548 Y0.3079
G3 X0.1668 Y0.3367 I-0.028 J0.0286
G1 Z-0.003 F2.6
G3 X0.1549 Y0.365 I-0.04 J-0.0002 F7.66
G1 X0.1386 Y0.3368
X0.147 Y0.3215
X0.1548 Y0.3079
G3 X0.1668 Y0.3367 I-0.028 J0.0286
G1 Z-0.004 F2.6
G3 X0.1549 Y0.365 I-0.04 J-0.0002 F7.66
G1 X0.1386 Y0.3368
X0.147 Y0.3215
X0.1548 Y0.3079
G3 X0.1668 Y0.3367 I-0.028 J0.0286
G1 Z-0.005 F2.6
G3 X0.1549 Y0.365 I-0.04 J-0.0002 F7.66
G1 X0.1386 Y0.3368
X0.147 Y0.3215
X0.1548 Y0.3079
G3 X0.1668 Y0.3367 I-0.028 J0.0286
G1 Z-0.006 F2.6
G3 X0.1549 Y0.365 I-0.04 J-0.0002 F7.66
G1 X0.1386 Y0.3368
X0.147 Y0.3215
X0.1548 Y0.3079
G3 X0.1668 Y0.3367 I-0.028 J0.0286
G1 Z-0.007 F2.6
G3 X0.1549 Y0.365 I-0.04 J-0.0002 F7.66
G1 X0.1386 Y0.3368
X0.147 Y0.3215
X0.1548 Y0.3079
G3 X0.1668 Y0.3367 I-0.028 J0.0286
G1 Z-0.008 F2.6
G3 X0.1549 Y0.365 I-0.04 J-0.0002 F7.66
G1 X0.1386 Y0.3368
X0.147 Y0.3215
X0.1548 Y0.3079
G3 X0.1668 Y0.3367 I-0.028 J0.0286
G1 Z-0.009 F2.6
G3 X0.1549 Y0.365 I-0.04 J-0.0002 F7.66
G1 X0.1386 Y0.3368
X0.147 Y0.3215
X0.1548 Y0.3079
G3 X0.1668 Y0.3367 I-0.028 J0.0286
G1 Z-0.01 F2.6
G3 X0.1549 Y0.365 I-0.04 J-0.0002 F7.66
G1 X0.1386 Y0.3368
X0.147 Y0.3215
X0.1548 Y0.3079
G3 X0.1668 Y0.3367 I-0.028 J0.0286
G1 Z-0.011 F2.6
G3 X0.1549 Y0.365 I-0.04 J-0.0002 F7.66
G1 X0.1386 Y0.3368
X0.147 Y0.3215
X0.1548 Y0.3079
G3 X0.1668 Y0.3367 I-0.028 J0.0286
G1 Z-0.012 F2.6
G3 X0.1549 Y0.365 I-0.04 J-0.0002 F7.66
G1 X0.1386 Y0.3368
X0.147 Y0.3215
X0.1548 Y0.3079
G3 X0.1668 Y0.3367 I-0.028 J0.0286
G0 Z0.1
X0.1894 Y0.3365
G1 Z0.0404 F2.6
Z-0.001
Y0.3342 F7.66
X0.1983 Y0.3365
X0.1894 Y0.3388
Y0.3365
Z-0.002 F2.6
Y0.3342 F7.66
X0.1983 Y0.3365
X0.1894 Y0.3388
Y0.3365
Z-0.003 F2.6
Y0.3342 F7.66
X0.1983 Y0.3365
X0.1894 Y0.3388
Y0.3365
Z-0.004 F2.6
Y0.3342 F7.66
X0.1983 Y0.3365
X0.1894 Y0.3388
Y0.3365
Z-0.005 F2.6
Y0.3342 F7.66
X0.1983 Y0.3365
X0.1894 Y0.3388
Y0.3365
Z-0.006 F2.6
Y0.3342 F7.66
X0.1983 Y0.3365
X0.1894 Y0.3388
Y0.3365
Z-0.007 F2.6
Y0.3342 F7.66
X0.1983 Y0.3365
X0.1894 Y0.3388
Y0.3365
Z-0.008 F2.6
Y0.3342 F7.66
X0.1983 Y0.3365
X0.1894 Y0.3388
Y0.3365
Z-0.009 F2.6
Y0.3342 F7.66
X0.1983 Y0.3365
X0.1894 Y0.3388
Y0.3365
Z-0.01 F2.6
Y0.3342 F7.66
X0.1983 Y0.3365
X0.1894 Y0.3388
Y0.3365
Z-0.011 F2.6
Y0.3342 F7.66
X0.1983 Y0.3365
X0.1894 Y0.3388
Y0.3365
Z-0.012 F2.6
Y0.3342 F7.66
X0.1983 Y0.3365
X0.1894 Y0.3388
Y0.3365
G0 Z0.1
X0.125 Y0.3535
G1 Z0.0404 F2.6
Z-0.001
X0.1375 Y0.375 F7.66
G3 X0.0882 Y0.347 I-0.0107 J-0.0385
G1 X0.1212
X0.125 Y0.3535
Z-0.002 F2.6
X0.1375 Y0.375 F7.66
G3 X0.0882 Y0.347 I-0.0107 J-0.0385
G1 X0.1212
X0.125 Y0.3535
Z-0.003 F2.6
X0.1375 Y0.375 F7.66
G3 X0.0882 Y0.347 I-0.0107 J-0.0385
G1 X0.1212
X0.125 Y0.3535
Z-0.004 F2.6
X0.1375 Y0.375 F7.66
G3 X0.0882 Y0.347 I-0.0107 J-0.0385
G1 X0.1212
X0.125 Y0.3535
Z-0.005 F2.6
X0.1375 Y0.375 F7.66
G3 X0.0882 Y0.347 I-0.0107 J-0.0385
G1 X0.1212
X0.125 Y0.3535
Z-0.006 F2.6
X0.1375 Y0.375 F7.66
G3 X0.0882 Y0.347 I-0.0107 J-0.0385
G1 X0.1212
X0.125 Y0.3535
Z-0.007 F2.6
X0.1375 Y0.375 F7.66
G3 X0.0882 Y0.347 I-0.0107 J-0.0385
G1 X0.1212
X0.125 Y0.3535
Z-0.008 F2.6
X0.1375 Y0.375 F7.66
G3 X0.0882 Y0.347 I-0.0107 J-0.0385
G1 X0.1212
X0.125 Y0.3535
Z-0.009 F2.6
X0.1375 Y0.375 F7.66
G3 X0.0882 Y0.347 I-0.0107 J-0.0385
G1 X0.1212
X0.125 Y0.3535
Z-0.01 F2.6
X0.1375 Y0.375 F7.66
G3 X0.0882 Y0.347 I-0.0107 J-0.0385
G1 X0.1212
X0.125 Y0.3535
Z-0.011 F2.6
X0.1375 Y0.375 F7.66
G3 X0.0882 Y0.347 I-0.0107 J-0.0385
G1 X0.1212
X0.125 Y0.3535
Z-0.012 F2.6
X0.1375 Y0.375 F7.66
G3 X0.0882 Y0.347 I-0.0107 J-0.0385
G1 X0.1212
X0.125 Y0.3535
G0 Z0.1
X0.0642 Y0.3365
G1 Z0.0404 F2.6
Z-0.001
X0.0643 Y0.3402 F7.66
X-0.0633
X-0.0631 Y0.3365
X-0.0633 Y0.3328
X0.0643
X0.0642 Y0.3365
Z-0.002 F2.6
X0.0643 Y0.3402 F7.66
X-0.0633
X-0.0631 Y0.3365
X-0.0633 Y0.3328
X0.0643
X0.0642 Y0.3365
Z-0.003 F2.6
X0.0643 Y0.3402 F7.66
X-0.0633
X-0.0631 Y0.3365
X-0.0633 Y0.3328
X0.0643
X0.0642 Y0.3365
Z-0.004 F2.6
X0.0643 Y0.3402 F7.66
X-0.0633
X-0.0631 Y0.3365
X-0.0633 Y0.3328
X0.0643
X0.0642 Y0.3365
Z-0.005 F2.6
X0.0643 Y0.3402 F7.66
X-0.0633
X-0.0631 Y0.3365
X-0.0633 Y0.3328
X0.0643
X0.0642 Y0.3365
Z-0.006 F2.6
X0.0643 Y0.3402 F7.66
X-0.0633
X-0.0631 Y0.3365
X-0.0633 Y0.3328
X0.0643
X0.0642 Y0.3365
Z-0.007 F2.6
X0.0643 Y0.3402 F7.66
X-0.0633
X-0.0631 Y0.3365
X-0.0633 Y0.3328
X0.0643
X0.0642 Y0.3365
Z-0.008 F2.6
X0.0643 Y0.3402 F7.66
X-0.0633
X-0.0631 Y0.3365
X-0.0633 Y0.3328
X0.0643
X0.0642 Y0.3365
Z-0.009 F2.6
X0.0643 Y0.3402 F7.66
X-0.0633
X-0.0631 Y0.3365
X-0.0633 Y0.3328
X0.0643
X0.0642 Y0.3365
Z-0.01 F2.6
X0.0643 Y0.3402 F7.66
X-0.0633
X-0.0631 Y0.3365
X-0.0633 Y0.3328
X0.0643
X0.0642 Y0.3365
Z-0.011 F2.6
X0.0643 Y0.3402 F7.66
X-0.0633
X-0.0631 Y0.3365
X-0.0633 Y0.3328
X0.0643
X0.0642 Y0.3365
Z-0.012 F2.6
X0.0643 Y0.3402 F7.66
X-0.0633
X-0.0631 Y0.3365
X-0.0633 Y0.3328
X0.0643
X0.0642 Y0.3365
G0 Z0.1
X0.1228 Y0.464
G1 Z0.0404 F2.6
Z-0.001
X0.119 Y0.4704 F7.66
X0.0863
G3 X0.1355 Y0.4423 I0.0386 J0.0105
G1 X0.1228 Y0.464
Z-0.002 F2.6
X0.119 Y0.4704 F7.66
X0.0863
G3 X0.1355 Y0.4423 I0.0386 J0.0105
G1 X0.1228 Y0.464
Z-0.003 F2.6
X0.119 Y0.4704 F7.66
X0.0863
G3 X0.1355 Y0.4423 I0.0386 J0.0105
G1 X0.1228 Y0.464
Z-0.004 F2.6
X0.119 Y0.4704 F7.66
X0.0863
G3 X0.1355 Y0.4423 I0.0386 J0.0105
G1 X0.1228 Y0.464
Z-0.005 F2.6
X0.119 Y0.4704 F7.66
X0.0863
G3 X0.1355 Y0.4423 I0.0386 J0.0105
G1 X0.1228 Y0.464
Z-0.006 F2.6
X0.119 Y0.4704 F7.66
X0.0863
G3 X0.1355 Y0.4423 I0.0386 J0.0105
G1 X0.1228 Y0.464
Z-0.007 F2.6
X0.119 Y0.4704 F7.66
X0.0863
G3 X0.1355 Y0.4423 I0.0386 J0.0105
G1 X0.1228 Y0.464
Z-0.008 F2.6
X0.119 Y0.4704 F7.66
X0.0863
G3 X0.1355 Y0.4423 I0.0386 J0.0105
G1 X0.1228 Y0.464
Z-0.009 F2.6
X0.119 Y0.4704 F7.66
X0.0863
G3 X0.1355 Y0.4423 I0.0386 J0.0105
G1 X0.1228 Y0.464
Z-0.01 F2.6
X0.119 Y0.4704 F7.66
X0.0863
G3 X0.1355 Y0.4423 I0.0386 J0.0105
G1 X0.1228 Y0.464
Z-0.011 F2.6
X0.119 Y0.4704 F7.66
X0.0863
G3 X0.1355 Y0.4423 I0.0386 J0.0105
G1 X0.1228 Y0.464
Z-0.012 F2.6
X0.119 Y0.4704 F7.66
X0.0863
G3 X0.1355 Y0.4423 I0.0386 J0.0105
G1 X0.1228 Y0.464
G0 Z0.1
X0.1649 Y0.4811
G1 Z0.0404 F2.6
Z-0.001
G3 X0.153 Y0.5094 I-0.04 J-0.0002 F7.66
G1 X0.1367 Y0.4812
X0.1451 Y0.4659
X0.1529 Y0.4523
G3 X0.1649 Y0.4811 I-0.028 J0.0286
G1 Z-0.002 F2.6
G3 X0.153 Y0.5094 I-0.04 J-0.0002 F7.66
G1 X0.1367 Y0.4812
X0.1451 Y0.4659
X0.1529 Y0.4523
G3 X0.1649 Y0.4811 I-0.028 J0.0286
G1 Z-0.003 F2.6
G3 X0.153 Y0.5094 I-0.04 J-0.0002 F7.66
G1 X0.1367 Y0.4812
X0.1451 Y0.4659
X0.1529 Y0.4523
G3 X0.1649 Y0.4811 I-0.028 J0.0286
G1 Z-0.004 F2.6
G3 X0.153 Y0.5094 I-0.04 J-0.0002 F7.66
G1 X0.1367 Y0.4812
X0.1451 Y0.4659
X0.1529 Y0.4523
G3 X0.1649 Y0.4811 I-0.028 J0.0286
G1 Z-0.005 F2.6
G3 X0.153 Y0.5094 I-0.04 J-0.0002 F7.66
G1 X0.1367 Y0.4812
X0.1451 Y0.4659
X0.1529 Y0.4523
G3 X0.1649 Y0.4811 I-0.028 J0.0286
G1 Z-0.006 F2.6
G3 X0.153 Y0.5094 I-0.04 J-0.0002 F7.66
G1 X0.1367 Y0.4812
X0.1451 Y0.4659
X0.1529 Y0.4523
G3 X0.1649 Y0.4811 I-0.028 J0.0286
G1 Z-0.007 F2.6
G3 X0.153 Y0.5094 I-0.04 J-0.0002 F7.66
G1 X0.1367 Y0.4812
X0.1451 Y0.4659
X0.1529 Y0.4523
G3 X0.1649 Y0.4811 I-0.028 J0.0286
G1 Z-0.008 F2.6
G3 X0.153 Y0.5094 I-0.04 J-0.0002 F7.66
G1 X0.1367 Y0.4812
X0.1451 Y0.4659
X0.1529 Y0.4523
G3 X0.1649 Y0.4811 I-0.028 J0.0286
G1 Z-0.009 F2.6
G3 X0.153 Y0.5094 I-0.04 J-0.0002 F7.66
G1 X0.1367 Y0.4812
X0.1451 Y0.4659
X0.1529 Y0.4523
G3 X0.1649 Y0.4811 I-0.028 J0.0286
G1 Z-0.01 F2.6
G3 X0.153 Y0.5094 I-0.04 J-0.0002 F7.66
G1 X0.1367 Y0.4812
X0.1451 Y0.4659
X0.1529 Y0.4523
G3 X0.1649 Y0.4811 I-0.028 J0.0286
G1 Z-0.011 F2.6
G3 X0.153 Y0.5094 I-0.04 J-0.0002 F7.66
G1 X0.1367 Y0.4812
X0.1451 Y0.4659
X0.1529 Y0.4523
G3 X0.1649 Y0.4811 I-0.028 J0.0286
G1 Z-0.012 F2.6
G3 X0.153 Y0.5094 I-0.04 J-0.0002 F7.66
G1 X0.1367 Y0.4812
X0.1451 Y0.4659
X0.1529 Y0.4523
G3 X0.1649 Y0.4811 I-0.028 J0.0286
G0 Z0.1
X0.1875 Y0.4809
G1 Z0.0404 F2.6
Z-0.001
Y0.4786 F7.66
X0.1964 Y0.4809
X0.1875 Y0.4831
Y0.4809
Z-0.002 F2.6
Y0.4786 F7.66
X0.1964 Y0.4809
X0.1875 Y0.4831
Y0.4809
Z-0.003 F2.6
Y0.4786 F7.66
X0.1964 Y0.4809
X0.1875 Y0.4831
Y0.4809
Z-0.004 F2.6
Y0.4786 F7.66
X0.1964 Y0.4809
X0.1875 Y0.4831
Y0.4809
Z-0.005 F2.6
Y0.4786 F7.66
X0.1964 Y0.4809
X0.1875 Y0.4831
Y0.4809
Z-0.006 F2.6
Y0.4786 F7.66
X0.1964 Y0.4809
X0.1875 Y0.4831
Y0.4809
Z-0.007 F2.6
Y0.4786 F7.66
X0.1964 Y0.4809
X0.1875 Y0.4831
Y0.4809
Z-0.008 F2.6
Y0.4786 F7.66
X0.1964 Y0.4809
X0.1875 Y0.4831
Y0.4809
Z-0.009 F2.6
Y0.4786 F7.66
X0.1964 Y0.4809
X0.1875 Y0.4831
Y0.4809
Z-0.01 F2.6
Y0.4786 F7.66
X0.1964 Y0.4809
X0.1875 Y0.4831
Y0.4809
Z-0.011 F2.6
Y0.4786 F7.66
X0.1964 Y0.4809
X0.1875 Y0.4831
Y0.4809
Z-0.012 F2.6
Y0.4786 F7.66
X0.1964 Y0.4809
X0.1875 Y0.4831
Y0.4809
G0 Z0.1
X0.1231 Y0.4979
G1 Z0.0404 F2.6
Z-0.001
X0.1356 Y0.5194 F7.66
G3 X0.0863 Y0.4913 I-0.0107 J-0.0385
G1 X0.1193 Y0.4914
X0.1231 Y0.4979
Z-0.002 F2.6
X0.1356 Y0.5194 F7.66
G3 X0.0863 Y0.4913 I-0.0107 J-0.0385
G1 X0.1193 Y0.4914
X0.1231 Y0.4979
Z-0.003 F2.6
X0.1356 Y0.5194 F7.66
G3 X0.0863 Y0.4913 I-0.0107 J-0.0385
G1 X0.1193 Y0.4914
X0.1231 Y0.4979
Z-0.004 F2.6
X0.1356 Y0.5194 F7.66
G3 X0.0863 Y0.4913 I-0.0107 J-0.0385
G1 X0.1193 Y0.4914
X0.1231 Y0.4979
Z-0.005 F2.6
X0.1356 Y0.5194 F7.66
G3 X0.0863 Y0.4913 I-0.0107 J-0.0385
G1 X0.1193 Y0.4914
X0.1231 Y0.4979
Z-0.006 F2.6
X0.1356 Y0.5194 F7.66
G3 X0.0863 Y0.4913 I-0.0107 J-0.0385
G1 X0.1193 Y0.4914
X0.1231 Y0.4979
Z-0.007 F2.6
X0.1356 Y0.5194 F7.66
G3 X0.0863 Y0.4913 I-0.0107 J-0.0385
G1 X0.1193 Y0.4914
X0.1231 Y0.4979
Z-0.008 F2.6
X0.1356 Y0.5194 F7.66
G3 X0.0863 Y0.4913 I-0.0107 J-0.0385
G1 X0.1193 Y0.4914
X0.1231 Y0.4979
Z-0.009 F2.6
X0.1356 Y0.5194 F7.66
G3 X0.0863 Y0.4913 I-0.0107 J-0.0385
G1 X0.1193 Y0.4914
X0.1231 Y0.4979
Z-0.01 F2.6
X0.1356 Y0.5194 F7.66
G3 X0.0863 Y0.4913 I-0.0107 J-0.0385
G1 X0.1193 Y0.4914
X0.1231 Y0.4979
Z-0.011 F2.6
X0.1356 Y0.5194 F7.66
G3 X0.0863 Y0.4913 I-0.0107 J-0.0385
G1 X0.1193 Y0.4914
X0.1231 Y0.4979
Z-0.012 F2.6
X0.1356 Y0.5194 F7.66
G3 X0.0863 Y0.4913 I-0.0107 J-0.0385
G1 X0.1193 Y0.4914
X0.1231 Y0.4979
G0 Z0.1
X-0.0613 Y0.4771
G1 Z0.0404 F2.6
Z-0.001
X0.0624 F7.66
X0.0623 Y0.4809
X0.0624 Y0.4846
X-0.0652
X-0.065 Y0.4809
X-0.0652 Y0.4771
X-0.0613
Z-0.002 F2.6
X0.0624 F7.66
X0.0623 Y0.4809
X0.0624 Y0.4846
X-0.0652
X-0.065 Y0.4809
X-0.0652 Y0.4771
X-0.0613
Z-0.003 F2.6
X0.0624 F7.66
X0.0623 Y0.4809
X0.0624 Y0.4846
X-0.0652
X-0.065 Y0.4809
X-0.0652 Y0.4771
X-0.0613
Z-0.004 F2.6
X0.0624 F7.66
X0.0623 Y0.4809
X0.0624 Y0.4846
X-0.0652
X-0.065 Y0.4809
X-0.0652 Y0.4771
X-0.0613
Z-0.005 F2.6
X0.0624 F7.66
X0.0623 Y0.4809
X0.0624 Y0.4846
X-0.0652
X-0.065 Y0.4809
X-0.0652 Y0.4771
X-0.0613
Z-0.006 F2.6
X0.0624 F7.66
X0.0623 Y0.4809
X0.0624 Y0.4846
X-0.0652
X-0.065 Y0.4809
X-0.0652 Y0.4771
X-0.0613
Z-0.007 F2.6
X0.0624 F7.66
X0.0623 Y0.4809
X0.0624 Y0.4846
X-0.0652
X-0.065 Y0.4809
X-0.0652 Y0.4771
X-0.0613
Z-0.008 F2.6
X0.0624 F7.66
X0.0623 Y0.4809
X0.0624 Y0.4846
X-0.0652
X-0.065 Y0.4809
X-0.0652 Y0.4771
X-0.0613
Z-0.009 F2.6
X0.0624 F7.66
X0.0623 Y0.4809
X0.0624 Y0.4846
X-0.0652
X-0.065 Y0.4809
X-0.0652 Y0.4771
X-0.0613
Z-0.01 F2.6
X0.0624 F7.66
X0.0623 Y0.4809
X0.0624 Y0.4846
X-0.0652
X-0.065 Y0.4809
X-0.0652 Y0.4771
X-0.0613
Z-0.011 F2.6
X0.0624 F7.66
X0.0623 Y0.4809
X0.0624 Y0.4846
X-0.0652
X-0.065 Y0.4809
X-0.0652 Y0.4771
X-0.0613
Z-0.012 F2.6
X0.0624 F7.66
X0.0623 Y0.4809
X0.0624 Y0.4846
X-0.0652
X-0.065 Y0.4809
X-0.0652 Y0.4771
X-0.0613
G0 Z0.1
X-0.111 Y0.47
G1 Z0.0404 F2.6
Z-0.001
G3 X-0.1011 Y0.4809 I-0.0011 J0.0109 F7.66
X-0.1231 I-0.011 J0
X-0.111 Y0.47 I0.011 J0
G1 Z-0.002 F2.6
G3 X-0.1011 Y0.4809 I-0.0011 J0.0109 F7.66
X-0.1231 I-0.011 J0
X-0.111 Y0.47 I0.011 J0
G1 Z-0.003 F2.6
G3 X-0.1011 Y0.4809 I-0.0011 J0.0109 F7.66
X-0.1231 I-0.011 J0
X-0.111 Y0.47 I0.011 J0
G1 Z-0.004 F2.6
G3 X-0.1011 Y0.4809 I-0.0011 J0.0109 F7.66
X-0.1231 I-0.011 J0
X-0.111 Y0.47 I0.011 J0
G1 Z-0.005 F2.6
G3 X-0.1011 Y0.4809 I-0.0011 J0.0109 F7.66
X-0.1231 I-0.011 J0
X-0.111 Y0.47 I0.011 J0
G1 Z-0.006 F2.6
G3 X-0.1011 Y0.4809 I-0.0011 J0.0109 F7.66
X-0.1231 I-0.011 J0
X-0.111 Y0.47 I0.011 J0
G1 Z-0.007 F2.6
G3 X-0.1011 Y0.4809 I-0.0011 J0.0109 F7.66
X-0.1231 I-0.011 J0
X-0.111 Y0.47 I0.011 J0
G1 Z-0.008 F2.6
G3 X-0.1011 Y0.4809 I-0.0011 J0.0109 F7.66
X-0.1231 I-0.011 J0
X-0.111 Y0.47 I0.011 J0
G1 Z-0.009 F2.6
G3 X-0.1011 Y0.4809 I-0.0011 J0.0109 F7.66
X-0.1231 I-0.011 J0
X-0.111 Y0.47 I0.011 J0
G1 Z-0.01 F2.6
G3 X-0.1011 Y0.4809 I-0.0011 J0.0109 F7.66
X-0.1231 I-0.011 J0
X-0.111 Y0.47 I0.011 J0
G1 Z-0.011 F2.6
G3 X-0.1011 Y0.4809 I-0.0011 J0.0109 F7.66
X-0.1231 I-0.011 J0
X-0.111 Y0.47 I0.011 J0
G1 Z-0.012 F2.6
G3 X-0.1011 Y0.4809 I-0.0011 J0.0109 F7.66
X-0.1231 I-0.011 J0
X-0.111 Y0.47 I0.011 J0
G0 Z0.1
X-0.1101 Y0.3474
G1 Z0.0404 F2.6
Z-0.001
G3 X-0.1211 Y0.3365 I-0.0001 J-0.0109 F7.66
X-0.0993 I0.0109 J0
X-0.1101 Y0.3474 I-0.0109 J0
G1 Z-0.002 F2.6
G3 X-0.1211 Y0.3365 I-0.0001 J-0.0109 F7.66
X-0.0993 I0.0109 J0
X-0.1101 Y0.3474 I-0.0109 J0
G1 Z-0.003 F2.6
G3 X-0.1211 Y0.3365 I-0.0001 J-0.0109 F7.66
X-0.0993 I0.0109 J0
X-0.1101 Y0.3474 I-0.0109 J0
G1 Z-0.004 F2.6
G3 X-0.1211 Y0.3365 I-0.0001 J-0.0109 F7.66
X-0.0993 I0.0109 J0
X-0.1101 Y0.3474 I-0.0109 J0
G1 Z-0.005 F2.6
G3 X-0.1211 Y0.3365 I-0.0001 J-0.0109 F7.66
X-0.0993 I0.0109 J0
X-0.1101 Y0.3474 I-0.0109 J0
G1 Z-0.006 F2.6
G3 X-0.1211 Y0.3365 I-0.0001 J-0.0109 F7.66
X-0.0993 I0.0109 J0
X-0.1101 Y0.3474 I-0.0109 J0
G1 Z-0.007 F2.6
G3 X-0.1211 Y0.3365 I-0.0001 J-0.0109 F7.66
X-0.0993 I0.0109 J0
X-0.1101 Y0.3474 I-0.0109 J0
G1 Z-0.008 F2.6
G3 X-0.1211 Y0.3365 I-0.0001 J-0.0109 F7.66
X-0.0993 I0.0109 J0
X-0.1101 Y0.3474 I-0.0109 J0
G1 Z-0.009 F2.6
G3 X-0.1211 Y0.3365 I-0.0001 J-0.0109 F7.66
X-0.0993 I0.0109 J0
X-0.1101 Y0.3474 I-0.0109 J0
G1 Z-0.01 F2.6
G3 X-0.1211 Y0.3365 I-0.0001 J-0.0109 F7.66
X-0.0993 I0.0109 J0
X-0.1101 Y0.3474 I-0.0109 J0
G1 Z-0.011 F2.6
G3 X-0.1211 Y0.3365 I-0.0001 J-0.0109 F7.66
X-0.0993 I0.0109 J0
X-0.1101 Y0.3474 I-0.0109 J0
G1 Z-0.012 F2.6
G3 X-0.1211 Y0.3365 I-0.0001 J-0.0109 F7.66
X-0.0993 I0.0109 J0
X-0.1101 Y0.3474 I-0.0109 J0
G0 Z0.1
X-0.0036 Y0.0969
G1 Z0.0404 F2.6
Z-0.001
X-0.0038 Y0.0971 F7.66
X-0.004 Y0.0969
X-0.0038 Y0.0967
X-0.0036 Y0.0969
Z-0.002 F2.6
X-0.0038 Y0.0971 F7.66
X-0.004 Y0.0969
X-0.0038 Y0.0967
X-0.0036 Y0.0969
Z-0.003 F2.6
X-0.0038 Y0.0971 F7.66
X-0.004 Y0.0969
X-0.0038 Y0.0967
X-0.0036 Y0.0969
Z-0.004 F2.6
X-0.0038 Y0.0971 F7.66
X-0.004 Y0.0969
X-0.0038 Y0.0967
X-0.0036 Y0.0969
Z-0.005 F2.6
X-0.0038 Y0.0971 F7.66
X-0.004 Y0.0969
X-0.0038 Y0.0967
X-0.0036 Y0.0969
Z-0.006 F2.6
X-0.0038 Y0.0971 F7.66
X-0.004 Y0.0969
X-0.0038 Y0.0967
X-0.0036 Y0.0969
Z-0.007 F2.6
X-0.0038 Y0.0971 F7.66
X-0.004 Y0.0969
X-0.0038 Y0.0967
X-0.0036 Y0.0969
Z-0.008 F2.6
X-0.0038 Y0.0971 F7.66
X-0.004 Y0.0969
X-0.0038 Y0.0967
X-0.0036 Y0.0969
Z-0.009 F2.6
X-0.0038 Y0.0971 F7.66
X-0.004 Y0.0969
X-0.0038 Y0.0967
X-0.0036 Y0.0969
Z-0.01 F2.6
X-0.0038 Y0.0971 F7.66
X-0.004 Y0.0969
X-0.0038 Y0.0967
X-0.0036 Y0.0969
Z-0.011 F2.6
X-0.0038 Y0.0971 F7.66
X-0.004 Y0.0969
X-0.0038 Y0.0967
X-0.0036 Y0.0969
Z-0.012 F2.6
X-0.0038 Y0.0971 F7.66
X-0.004 Y0.0969
X-0.0038 Y0.0967
X-0.0036 Y0.0969
G0 Z0.1
X0.0002 Y0
G1 Z0.0404 F2.6
Z-0.001
X0 Y0.0002 F7.66
X-0.0002 Y0
X0 Y-0.0002
X0.0002 Y0
Z-0.002 F2.6
X0 Y0.0002 F7.66
X-0.0002 Y0
X0 Y-0.0002
X0.0002 Y0
Z-0.003 F2.6
X0 Y0.0002 F7.66
X-0.0002 Y0
X0 Y-0.0002
X0.0002 Y0
Z-0.004 F2.6
X0 Y0.0002 F7.66
X-0.0002 Y0
X0 Y-0.0002
X0.0002 Y0
Z-0.005 F2.6
X0 Y0.0002 F7.66
X-0.0002 Y0
X0 Y-0.0002
X0.0002 Y0
Z-0.006 F2.6
X0 Y0.0002 F7.66
X-0.0002 Y0
X0 Y-0.0002
X0.0002 Y0
Z-0.007 F2.6
X0 Y0.0002 F7.66
X-0.0002 Y0
X0 Y-0.0002
X0.0002 Y0
Z-0.008 F2.6
X0 Y0.0002 F7.66
X-0.0002 Y0
X0 Y-0.0002
X0.0002 Y0
Z-0.009 F2.6
X0 Y0.0002 F7.66
X-0.0002 Y0
X0 Y-0.0002
X0.0002 Y0
Z-0.01 F2.6
X0 Y0.0002 F7.66
X-0.0002 Y0
X0 Y-0.0002
X0.0002 Y0
Z-0.011 F2.6
X0 Y0.0002 F7.66
X-0.0002 Y0
X0 Y-0.0002
X0.0002 Y0
Z-0.012 F2.6
X0 Y0.0002 F7.66
X-0.0002 Y0
X0 Y-0.0002
X0.0002 Y0
G0 Z0.1
X-0.0036 Y-0.1102
G1 Z0.0404 F2.6
Z-0.001
X-0.0038 Y-0.11 F7.66
X-0.004 Y-0.1102
X-0.0038 Y-0.1104
X-0.0036 Y-0.1102
Z-0.002 F2.6
X-0.0038 Y-0.11 F7.66
X-0.004 Y-0.1102
X-0.0038 Y-0.1104
X-0.0036 Y-0.1102
Z-0.003 F2.6
X-0.0038 Y-0.11 F7.66
X-0.004 Y-0.1102
X-0.0038 Y-0.1104
X-0.0036 Y-0.1102
Z-0.004 F2.6
X-0.0038 Y-0.11 F7.66
X-0.004 Y-0.1102
X-0.0038 Y-0.1104
X-0.0036 Y-0.1102
Z-0.005 F2.6
X-0.0038 Y-0.11 F7.66
X-0.004 Y-0.1102
X-0.0038 Y-0.1104
X-0.0036 Y-0.1102
Z-0.006 F2.6
X-0.0038 Y-0.11 F7.66
X-0.004 Y-0.1102
X-0.0038 Y-0.1104
X-0.0036 Y-0.1102
Z-0.007 F2.6
X-0.0038 Y-0.11 F7.66
X-0.004 Y-0.1102
X-0.0038 Y-0.1104
X-0.0036 Y-0.1102
Z-0.008 F2.6
X-0.0038 Y-0.11 F7.66
X-0.004 Y-0.1102
X-0.0038 Y-0.1104
X-0.0036 Y-0.1102
Z-0.009 F2.6
X-0.0038 Y-0.11 F7.66
X-0.004 Y-0.1102
X-0.0038 Y-0.1104
X-0.0036 Y-0.1102
Z-0.01 F2.6
X-0.0038 Y-0.11 F7.66
X-0.004 Y-0.1102
X-0.0038 Y-0.1104
X-0.0036 Y-0.1102
Z-0.011 F2.6
X-0.0038 Y-0.11 F7.66
X-0.004 Y-0.1102
X-0.0038 Y-0.1104
X-0.0036 Y-0.1102
Z-0.012 F2.6
X-0.0038 Y-0.11 F7.66
X-0.004 Y-0.1102
X-0.0038 Y-0.1104
X-0.0036 Y-0.1102
G0 Z0.1
X0.2145 Y-0.215
G1 Z0.0404 F2.6
Z-0.001
Y-0.2088 F7.66
X-0.0955
Y-0.2212
X0.2145
Y-0.215
Z-0.002 F2.6
Y-0.2088 F7.66
X-0.0955
Y-0.2212
X0.2145
Y-0.215
Z-0.003 F2.6
Y-0.2088 F7.66
X-0.0955
Y-0.2212
X0.2145
Y-0.215
Z-0.004 F2.6
Y-0.2088 F7.66
X-0.0955
Y-0.2212
X0.2145
Y-0.215
Z-0.005 F2.6
Y-0.2088 F7.66
X-0.0955
Y-0.2212
X0.2145
Y-0.215
Z-0.006 F2.6
Y-0.2088 F7.66
X-0.0955
Y-0.2212
X0.2145
Y-0.215
Z-0.007 F2.6
Y-0.2088 F7.66
X-0.0955
Y-0.2212
X0.2145
Y-0.215
Z-0.008 F2.6
Y-0.2088 F7.66
X-0.0955
Y-0.2212
X0.2145
Y-0.215
Z-0.009 F2.6
Y-0.2088 F7.66
X-0.0955
Y-0.2212
X0.2145
Y-0.215
Z-0.01 F2.6
Y-0.2088 F7.66
X-0.0955
Y-0.2212
X0.2145
Y-0.215
Z-0.011 F2.6
Y-0.2088 F7.66
X-0.0955
Y-0.2212
X0.2145
Y-0.215
Z-0.012 F2.6
Y-0.2088 F7.66
X-0.0955
Y-0.2212
X0.2145
Y-0.215
G0 Z0.1
X0.2972 Y-0.1096
G1 Z0.0404 F2.6
Z-0.001
G3 X0.2506 Y-0.1107 I-0.0233 J-0.0006 F7.66
X0.2972 Y-0.1096 I0.0233 J0.0005
G1 Z-0.002 F2.6
G3 X0.2506 Y-0.1107 I-0.0233 J-0.0006 F7.66
X0.2972 Y-0.1096 I0.0233 J0.0005
G1 Z-0.003 F2.6
G3 X0.2506 Y-0.1107 I-0.0233 J-0.0006 F7.66
X0.2972 Y-0.1096 I0.0233 J0.0005
G1 Z-0.004 F2.6
G3 X0.2506 Y-0.1107 I-0.0233 J-0.0006 F7.66
X0.2972 Y-0.1096 I0.0233 J0.0005
G1 Z-0.005 F2.6
G3 X0.2506 Y-0.1107 I-0.0233 J-0.0006 F7.66
X0.2972 Y-0.1096 I0.0233 J0.0005
G1 Z-0.006 F2.6
G3 X0.2506 Y-0.1107 I-0.0233 J-0.0006 F7.66
X0.2972 Y-0.1096 I0.0233 J0.0005
G1 Z-0.007 F2.6
G3 X0.2506 Y-0.1107 I-0.0233 J-0.0006 F7.66
X0.2972 Y-0.1096 I0.0233 J0.0005
G1 Z-0.008 F2.6
G3 X0.2506 Y-0.1107 I-0.0233 J-0.0006 F7.66
X0.2972 Y-0.1096 I0.0233 J0.0005
G1 Z-0.009 F2.6
G3 X0.2506 Y-0.1107 I-0.0233 J-0.0006 F7.66
X0.2972 Y-0.1096 I0.0233 J0.0005
G1 Z-0.01 F2.6
G3 X0.2506 Y-0.1107 I-0.0233 J-0.0006 F7.66
X0.2972 Y-0.1096 I0.0233 J0.0005
G1 Z-0.011 F2.6
G3 X0.2506 Y-0.1107 I-0.0233 J-0.0006 F7.66
X0.2972 Y-0.1096 I0.0233 J0.0005
G1 Z-0.012 F2.6
G3 X0.2506 Y-0.1107 I-0.0233 J-0.0006 F7.66
X0.2972 Y-0.1096 I0.0233 J0.0005
G0 Z0.1
X0.301 Y0
G1 Z0.0404 F2.6
Z-0.001
G3 X0.2544 I-0.0233 J0 F7.66
X0.301 I0.0233 J0
G1 Z-0.002 F2.6
G3 X0.2544 I-0.0233 J0 F7.66
X0.301 I0.0233 J0
G1 Z-0.003 F2.6
G3 X0.2544 I-0.0233 J0 F7.66
X0.301 I0.0233 J0
G1 Z-0.004 F2.6
G3 X0.2544 I-0.0233 J0 F7.66
X0.301 I0.0233 J0
G1 Z-0.005 F2.6
G3 X0.2544 I-0.0233 J0 F7.66
X0.301 I0.0233 J0
G1 Z-0.006 F2.6
G3 X0.2544 I-0.0233 J0 F7.66
X0.301 I0.0233 J0
G1 Z-0.007 F2.6
G3 X0.2544 I-0.0233 J0 F7.66
X0.301 I0.0233 J0
G1 Z-0.008 F2.6
G3 X0.2544 I-0.0233 J0 F7.66
X0.301 I0.0233 J0
G1 Z-0.009 F2.6
G3 X0.2544 I-0.0233 J0 F7.66
X0.301 I0.0233 J0
G1 Z-0.01 F2.6
G3 X0.2544 I-0.0233 J0 F7.66
X0.301 I0.0233 J0
G1 Z-0.011 F2.6
G3 X0.2544 I-0.0233 J0 F7.66
X0.301 I0.0233 J0
G1 Z-0.012 F2.6
G3 X0.2544 I-0.0233 J0 F7.66
X0.301 I0.0233 J0
G0 Z0.1
X0.2972 Y0.0975
G1 Z0.0404 F2.6
Z-0.001
G3 X0.2506 Y0.0963 I-0.0233 J-0.0006 F7.66
X0.2972 Y0.0975 I0.0233 J0.0006
G1 Z-0.002 F2.6
G3 X0.2506 Y0.0963 I-0.0233 J-0.0006 F7.66
X0.2972 Y0.0975 I0.0233 J0.0006
G1 Z-0.003 F2.6
G3 X0.2506 Y0.0963 I-0.0233 J-0.0006 F7.66
X0.2972 Y0.0975 I0.0233 J0.0006
G1 Z-0.004 F2.6
G3 X0.2506 Y0.0963 I-0.0233 J-0.0006 F7.66
X0.2972 Y0.0975 I0.0233 J0.0006
G1 Z-0.005 F2.6
G3 X0.2506 Y0.0963 I-0.0233 J-0.0006 F7.66
X0.2972 Y0.0975 I0.0233 J0.0006
G1 Z-0.006 F2.6
G3 X0.2506 Y0.0963 I-0.0233 J-0.0006 F7.66
X0.2972 Y0.0975 I0.0233 J0.0006
G1 Z-0.007 F2.6
G3 X0.2506 Y0.0963 I-0.0233 J-0.0006 F7.66
X0.2972 Y0.0975 I0.0233 J0.0006
G1 Z-0.008 F2.6
G3 X0.2506 Y0.0963 I-0.0233 J-0.0006 F7.66
X0.2972 Y0.0975 I0.0233 J0.0006
G1 Z-0.009 F2.6
G3 X0.2506 Y0.0963 I-0.0233 J-0.0006 F7.66
X0.2972 Y0.0975 I0.0233 J0.0006
G1 Z-0.01 F2.6
G3 X0.2506 Y0.0963 I-0.0233 J-0.0006 F7.66
X0.2972 Y0.0975 I0.0233 J0.0006
G1 Z-0.011 F2.6
G3 X0.2506 Y0.0963 I-0.0233 J-0.0006 F7.66
X0.2972 Y0.0975 I0.0233 J0.0006
G1 Z-0.012 F2.6
G3 X0.2506 Y0.0963 I-0.0233 J-0.0006 F7.66
X0.2972 Y0.0975 I0.0233 J0.0006
G0 Z0.1
X-0.1551 Y-0.215
G1 Z0.0404 F2.6
Z-0.001
G3 X-0.1787 I-0.0118 J0 F7.66
X-0.1551 I0.0118 J0
G1 Z-0.002 F2.6
G3 X-0.1787 I-0.0118 J0 F7.66
X-0.1551 I0.0118 J0
G1 Z-0.003 F2.6
G3 X-0.1787 I-0.0118 J0 F7.66
X-0.1551 I0.0118 J0
G1 Z-0.004 F2.6
G3 X-0.1787 I-0.0118 J0 F7.66
X-0.1551 I0.0118 J0
G1 Z-0.005 F2.6
G3 X-0.1787 I-0.0118 J0 F7.66
X-0.1551 I0.0118 J0
G1 Z-0.006 F2.6
G3 X-0.1787 I-0.0118 J0 F7.66
X-0.1551 I0.0118 J0
G1 Z-0.007 F2.6
G3 X-0.1787 I-0.0118 J0 F7.66
X-0.1551 I0.0118 J0
G1 Z-0.008 F2.6
G3 X-0.1787 I-0.0118 J0 F7.66
X-0.1551 I0.0118 J0
G1 Z-0.009 F2.6
G3 X-0.1787 I-0.0118 J0 F7.66
X-0.1551 I0.0118 J0
G1 Z-0.01 F2.6
G3 X-0.1787 I-0.0118 J0 F7.66
X-0.1551 I0.0118 J0
G1 Z-0.011 F2.6
G3 X-0.1787 I-0.0118 J0 F7.66
X-0.1551 I0.0118 J0
G1 Z-0.012 F2.6
G3 X-0.1787 I-0.0118 J0 F7.66
X-0.1551 I0.0118 J0
G0 Z0.1
X-0.3112
G1 Z0.0404 F2.6
Z-0.001
G3 X-0.3348 I-0.0118 J0 F7.66
X-0.3112 I0.0118 J0
G1 Z-0.002 F2.6
G3 X-0.3348 I-0.0118 J0 F7.66
X-0.3112 I0.0118 J0
G1 Z-0.003 F2.6
G3 X-0.3348 I-0.0118 J0 F7.66
X-0.3112 I0.0118 J0
G1 Z-0.004 F2.6
G3 X-0.3348 I-0.0118 J0 F7.66
X-0.3112 I0.0118 J0
G1 Z-0.005 F2.6
G3 X-0.3348 I-0.0118 J0 F7.66
X-0.3112 I0.0118 J0
G1 Z-0.006 F2.6
G3 X-0.3348 I-0.0118 J0 F7.66
X-0.3112 I0.0118 J0
G1 Z-0.007 F2.6
G3 X-0.3348 I-0.0118 J0 F7.66
X-0.3112 I0.0118 J0
G1 Z-0.008 F2.6
G3 X-0.3348 I-0.0118 J0 F7.66
X-0.3112 I0.0118 J0
G1 Z-0.009 F2.6
G3 X-0.3348 I-0.0118 J0 F7.66
X-0.3112 I0.0118 J0
G1 Z-0.01 F2.6
G3 X-0.3348 I-0.0118 J0 F7.66
X-0.3112 I0.0118 J0
G1 Z-0.011 F2.6
G3 X-0.3348 I-0.0118 J0 F7.66
X-0.3112 I0.0118 J0
G1 Z-0.012 F2.6
G3 X-0.3348 I-0.0118 J0 F7.66
X-0.3112 I0.0118 J0
G0 Z0.1
X-0.3168 Y-0.1373
G1 Z0.0404 F2.6
Z-0.001
Y0.1664 F7.66
X-0.3292
Y-0.1436
X-0.3168
Y-0.1373
Z-0.002 F2.6
Y0.1664 F7.66
X-0.3292
Y-0.1436
X-0.3168
Y-0.1373
Z-0.003 F2.6
Y0.1664 F7.66
X-0.3292
Y-0.1436
X-0.3168
Y-0.1373
Z-0.004 F2.6
Y0.1664 F7.66
X-0.3292
Y-0.1436
X-0.3168
Y-0.1373
Z-0.005 F2.6
Y0.1664 F7.66
X-0.3292
Y-0.1436
X-0.3168
Y-0.1373
Z-0.006 F2.6
Y0.1664 F7.66
X-0.3292
Y-0.1436
X-0.3168
Y-0.1373
Z-0.007 F2.6
Y0.1664 F7.66
X-0.3292
Y-0.1436
X-0.3168
Y-0.1373
Z-0.008 F2.6
Y0.1664 F7.66
X-0.3292
Y-0.1436
X-0.3168
Y-0.1373
Z-0.009 F2.6
Y0.1664 F7.66
X-0.3292
Y-0.1436
X-0.3168
Y-0.1373
Z-0.01 F2.6
Y0.1664 F7.66
X-0.3292
Y-0.1436
X-0.3168
Y-0.1373
Z-0.011 F2.6
Y0.1664 F7.66
X-0.3292
Y-0.1436
X-0.3168
Y-0.1373
Z-0.012 F2.6
Y0.1664 F7.66
X-0.3292
Y-0.1436
X-0.3168
Y-0.1373
G0 Z0.1
X-0.4707 Y0.1678
G1 Z0.0404 F2.6
Z-0.001
Y0.174 F7.66
X-0.4831
Y-0.136
X-0.4707
Y0.1678
Z-0.002 F2.6
Y0.174 F7.66
X-0.4831
Y-0.136
X-0.4707
Y0.1678
Z-0.003 F2.6
Y0.174 F7.66
X-0.4831
Y-0.136
X-0.4707
Y0.1678
Z-0.004 F2.6
Y0.174 F7.66
X-0.4831
Y-0.136
X-0.4707
Y0.1678
Z-0.005 F2.6
Y0.174 F7.66
X-0.4831
Y-0.136
X-0.4707
Y0.1678
Z-0.006 F2.6
Y0.174 F7.66
X-0.4831
Y-0.136
X-0.4707
Y0.1678
Z-0.007 F2.6
Y0.174 F7.66
X-0.4831
Y-0.136
X-0.4707
Y0.1678
Z-0.008 F2.6
Y0.174 F7.66
X-0.4831
Y-0.136
X-0.4707
Y0.1678
Z-0.009 F2.6
Y0.174 F7.66
X-0.4831
Y-0.136
X-0.4707
Y0.1678
Z-0.01 F2.6
Y0.174 F7.66
X-0.4831
Y-0.136
X-0.4707
Y0.1678
Z-0.011 F2.6
Y0.174 F7.66
X-0.4831
Y-0.136
X-0.4707
Y0.1678
Z-0.012 F2.6
Y0.174 F7.66
X-0.4831
Y-0.136
X-0.4707
Y0.1678
G0 Z0.1
X-0.4651 Y-0.2074
G1 Z0.0404 F2.6
Z-0.001
G3 X-0.4887 I-0.0118 J0 F7.66
X-0.4651 I0.0118 J0
G1 Z-0.002 F2.6
G3 X-0.4887 I-0.0118 J0 F7.66
X-0.4651 I0.0118 J0
G1 Z-0.003 F2.6
G3 X-0.4887 I-0.0118 J0 F7.66
X-0.4651 I0.0118 J0
G1 Z-0.004 F2.6
G3 X-0.4887 I-0.0118 J0 F7.66
X-0.4651 I0.0118 J0
G1 Z-0.005 F2.6
G3 X-0.4887 I-0.0118 J0 F7.66
X-0.4651 I0.0118 J0
G1 Z-0.006 F2.6
G3 X-0.4887 I-0.0118 J0 F7.66
X-0.4651 I0.0118 J0
G1 Z-0.007 F2.6
G3 X-0.4887 I-0.0118 J0 F7.66
X-0.4651 I0.0118 J0
G1 Z-0.008 F2.6
G3 X-0.4887 I-0.0118 J0 F7.66
X-0.4651 I0.0118 J0
G1 Z-0.009 F2.6
G3 X-0.4887 I-0.0118 J0 F7.66
X-0.4651 I0.0118 J0
G1 Z-0.01 F2.6
G3 X-0.4887 I-0.0118 J0 F7.66
X-0.4651 I0.0118 J0
G1 Z-0.011 F2.6
G3 X-0.4887 I-0.0118 J0 F7.66
X-0.4651 I0.0118 J0
G1 Z-0.012 F2.6
G3 X-0.4887 I-0.0118 J0 F7.66
X-0.4651 I0.0118 J0
G0 Z0.2

(2D Contour2 4)
Z0.6
X0.054 Y0.0097
Z0.2
G1 Z0.0404 F2.6
Z-0.001
X0.2332 F7.66
G2 X0.3222 I0.0445 J-0.0097
G1 X0.4089
X0.4091
X0.4927 Y0.006
G2 Y-0.006 I-0.0002 J-0.006
G1 X0.4091 Y-0.0097
X0.4089
X0.3222
G2 X0.2332 I-0.0445 J0.0097
G1 X0.0324
G2 X-0.0324 I-0.0324 J0.0097
G1 X-0.1601
G2 X-0.2029 Y0.0097 I-0.0214 J0.0097
X-0.1601 I0.0214 J-0.0097
G1 X-0.0324
G2 X0.0324 I0.0324 J-0.0097
G1 X0.054
G0 Z0.2
Y0.0872
G1 Z0.0404 F2.6
Z-0.001
X0.0286 F7.66
G2 X-0.0362 I-0.0324 J0.0097
G1 X-0.1639
G2 X-0.2067 Y0.1066 I-0.0214 J0.0097
X-0.1639 I0.0214 J-0.0097
G1 X-0.0362
G2 X0.0286 I0.0324 J-0.0097
G1 X0.2294
G2 X0.3184 I0.0445 J-0.0097
G1 X0.4051
X0.4053
X0.4889 Y0.1029
G2 Y0.0909 I-0.0002 J-0.006
G1 X0.4053 Y0.0872
X0.4051
X0.3184
G2 X0.2294 I-0.0445 J0.0097
G1 X0.054
Z-0.002 F2.6
X0.0286 F7.66
G2 X-0.0362 I-0.0324 J0.0097
G1 X-0.1639
G2 X-0.2067 Y0.1066 I-0.0214 J0.0097
X-0.1639 I0.0214 J-0.0097
G1 X-0.0362
G2 X0.0286 I0.0324 J-0.0097
G1 X0.2294
G2 X0.3184 I0.0445 J-0.0097
G1 X0.4051
X0.4053
X0.4889 Y0.1029
G2 Y0.0909 I-0.0002 J-0.006
G1 X0.4053 Y0.0872
X0.4051
X0.3184
G2 X0.2294 I-0.0445 J0.0097
G1 X0.054
G0 Z0.2
Y0.0097
G1 Z0.0394 F2.6
Z-0.002
X0.2332 F7.66
G2 X0.3222 I0.0445 J-0.0097
G1 X0.4089
X0.4091
X0.4927 Y0.006
G2 Y-0.006 I-0.0002 J-0.006
G1 X0.4091 Y-0.0097
X0.4089
X0.3222
G2 X0.2332 I-0.0445 J0.0097
G1 X0.0324
G2 X-0.0324 I-0.0324 J0.0097
G1 X-0.1601
G2 X-0.2029 Y0.0097 I-0.0214 J0.0097
X-0.1601 I0.0214 J-0.0097
G1 X-0.0324
G2 X0.0324 I0.0324 J-0.0097
G1 X0.054
Z-0.003 F2.6
X0.2332 F7.66
G2 X0.3222 I0.0445 J-0.0097
G1 X0.4089
X0.4091
X0.4927 Y0.006
G2 Y-0.006 I-0.0002 J-0.006
G1 X0.4091 Y-0.0097
X0.4089
X0.3222
G2 X0.2332 I-0.0445 J0.0097
G1 X0.0324
G2 X-0.0324 I-0.0324 J0.0097
G1 X-0.1601
G2 X-0.2029 Y0.0097 I-0.0214 J0.0097
X-0.1601 I0.0214 J-0.0097
G1 X-0.0324
G2 X0.0324 I0.0324 J-0.0097
G1 X0.054
G0 Z0.2
Y0.0872
G1 Z0.0384 F2.6
Z-0.003
X0.0286 F7.66
G2 X-0.0362 I-0.0324 J0.0097
G1 X-0.1639
G2 X-0.2067 Y0.1066 I-0.0214 J0.0097
X-0.1639 I0.0214 J-0.0097
G1 X-0.0362
G2 X0.0286 I0.0324 J-0.0097
G1 X0.2294
G2 X0.3184 I0.0445 J-0.0097
G1 X0.4051
X0.4053
X0.4889 Y0.1029
G2 Y0.0909 I-0.0002 J-0.006
G1 X0.4053 Y0.0872
X0.4051
X0.3184
G2 X0.2294 I-0.0445 J0.0097
G1 X0.054
Z-0.004 F2.6
X0.0286 F7.66
G2 X-0.0362 I-0.0324 J0.0097
G1 X-0.1639
G2 X-0.2067 Y0.1066 I-0.0214 J0.0097
X-0.1639 I0.0214 J-0.0097
G1 X-0.0362
G2 X0.0286 I0.0324 J-0.0097
G1 X0.2294
G2 X0.3184 I0.0445 J-0.0097
G1 X0.4051
X0.4053
X0.4889 Y0.1029
G2 Y0.0909 I-0.0002 J-0.006
G1 X0.4053 Y0.0872
X0.4051
X0.3184
G2 X0.2294 I-0.0445 J0.0097
G1 X0.054
G0 Z0.2
Y0.0097
G1 Z0.0374 F2.6
Z-0.004
X0.2332 F7.66
G2 X0.3222 I0.0445 J-0.0097
G1 X0.4089
X0.4091
X0.4927 Y0.006
G2 Y-0.006 I-0.0002 J-0.006
G1 X0.4091 Y-0.0097
X0.4089
X0.3222
G2 X0.2332 I-0.0445 J0.0097
G1 X0.0324
G2 X-0.0324 I-0.0324 J0.0097
G1 X-0.1601
G2 X-0.2029 Y0.0097 I-0.0214 J0.0097
X-0.1601 I0.0214 J-0.0097
G1 X-0.0324
G2 X0.0324 I0.0324 J-0.0097
G1 X0.054
Z-0.005 F2.6
X0.2332 F7.66
G2 X0.3222 I0.0445 J-0.0097
G1 X0.4089
X0.4091
X0.4927 Y0.006
G2 Y-0.006 I-0.0002 J-0.006
G1 X0.4091 Y-0.0097
X0.4089
X0.3222
G2 X0.2332 I-0.0445 J0.0097
G1 X0.0324
G2 X-0.0324 I-0.0324 J0.0097
G1 X-0.1601
G2 X-0.2029 Y0.0097 I-0.0214 J0.0097
X-0.1601 I0.0214 J-0.0097
G1 X-0.0324
G2 X0.0324 I0.0324 J-0.0097
G1 X0.054
G0 Z0.2
Y0.0872
G1 Z0.0364 F2.6
Z-0.005
X0.0286 F7.66
G2 X-0.0362 I-0.0324 J0.0097
G1 X-0.1639
G2 X-0.2067 Y0.1066 I-0.0214 J0.0097
X-0.1639 I0.0214 J-0.0097
G1 X-0.0362
G2 X0.0286 I0.0324 J-0.0097
G1 X0.2294
G2 X0.3184 I0.0445 J-0.0097
G1 X0.4051
X0.4053
X0.4889 Y0.1029
G2 Y0.0909 I-0.0002 J-0.006
G1 X0.4053 Y0.0872
X0.4051
X0.3184
G2 X0.2294 I-0.0445 J0.0097
G1 X0.054
Z-0.006 F2.6
X0.0286 F7.66
G2 X-0.0362 I-0.0324 J0.0097
G1 X-0.1639
G2 X-0.2067 Y0.1066 I-0.0214 J0.0097
X-0.1639 I0.0214 J-0.0097
G1 X-0.0362
G2 X0.0286 I0.0324 J-0.0097
G1 X0.2294
G2 X0.3184 I0.0445 J-0.0097
G1 X0.4051
X0.4053
X0.4889 Y0.1029
G2 Y0.0909 I-0.0002 J-0.006
G1 X0.4053 Y0.0872
X0.4051
X0.3184
G2 X0.2294 I-0.0445 J0.0097
G1 X0.054
G0 Z0.2
Y0.0097
G1 Z0.0354 F2.6
Z-0.006
X0.2332 F7.66
G2 X0.3222 I0.0445 J-0.0097
G1 X0.4089
X0.4091
X0.4927 Y0.006
G2 Y-0.006 I-0.0002 J-0.006
G1 X0.4091 Y-0.0097
X0.4089
X0.3222
G2 X0.2332 I-0.0445 J0.0097
G1 X0.0324
G2 X-0.0324 I-0.0324 J0.0097
G1 X-0.1601
G2 X-0.2029 Y0.0097 I-0.0214 J0.0097
X-0.1601 I0.0214 J-0.0097
G1 X-0.0324
G2 X0.0324 I0.0324 J-0.0097
G1 X0.054
Z-0.007 F2.6
X0.2332 F7.66
G2 X0.3222 I0.0445 J-0.0097
G1 X0.4089
X0.4091
X0.4927 Y0.006
G2 Y-0.006 I-0.0002 J-0.006
G1 X0.4091 Y-0.0097
X0.4089
X0.3222
G2 X0.2332 I-0.0445 J0.0097
G1 X0.0324
G2 X-0.0324 I-0.0324 J0.0097
G1 X-0.1601
G2 X-0.2029 Y0.0097 I-0.0214 J0.0097
X-0.1601 I0.0214 J-0.0097
G1 X-0.0324
G2 X0.0324 I0.0324 J-0.0097
G1 X0.054
G0 Z0.2
Y0.0872
G1 Z0.0344 F2.6
Z-0.007
X0.0286 F7.66
G2 X-0.0362 I-0.0324 J0.0097
G1 X-0.1639
G2 X-0.2067 Y0.1066 I-0.0214 J0.0097
X-0.1639 I0.0214 J-0.0097
G1 X-0.0362
G2 X0.0286 I0.0324 J-0.0097
G1 X0.2294
G2 X0.3184 I0.0445 J-0.0097
G1 X0.4051
X0.4053
X0.4889 Y0.1029
G2 Y0.0909 I-0.0002 J-0.006
G1 X0.4053 Y0.0872
X0.4051
X0.3184
G2 X0.2294 I-0.0445 J0.0097
G1 X0.054
Z-0.008 F2.6
X0.0286 F7.66
G2 X-0.0362 I-0.0324 J0.0097
G1 X-0.1639
G2 X-0.2067 Y0.1066 I-0.0214 J0.0097
X-0.1639 I0.0214 J-0.0097
G1 X-0.0362
G2 X0.0286 I0.0324 J-0.0097
G1 X0.2294
G2 X0.3184 I0.0445 J-0.0097
G1 X0.4051
X0.4053
X0.4889 Y0.1029
G2 Y0.0909 I-0.0002 J-0.006
G1 X0.4053 Y0.0872
X0.4051
X0.3184
G2 X0.2294 I-0.0445 J0.0097
G1 X0.054
G0 Z0.2
Y0.0097
G1 Z0.0334 F2.6
Z-0.008
X0.2332 F7.66
G2 X0.3222 I0.0445 J-0.0097
G1 X0.4089
X0.4091
X0.4927 Y0.006
G2 Y-0.006 I-0.0002 J-0.006
G1 X0.4091 Y-0.0097
X0.4089
X0.3222
G2 X0.2332 I-0.0445 J0.0097
G1 X0.0324
G2 X-0.0324 I-0.0324 J0.0097
G1 X-0.1601
G2 X-0.2029 Y0.0097 I-0.0214 J0.0097
X-0.1601 I0.0214 J-0.0097
G1 X-0.0324
G2 X0.0324 I0.0324 J-0.0097
G1 X0.054
Z-0.009 F2.6
X0.2332 F7.66
G2 X0.3222 I0.0445 J-0.0097
G1 X0.4089
X0.4091
X0.4927 Y0.006
G2 Y-0.006 I-0.0002 J-0.006
G1 X0.4091 Y-0.0097
X0.4089
X0.3222
G2 X0.2332 I-0.0445 J0.0097
G1 X0.0324
G2 X-0.0324 I-0.0324 J0.0097
G1 X-0.1601
G2 X-0.2029 Y0.0097 I-0.0214 J0.0097
X-0.1601 I0.0214 J-0.0097
G1 X-0.0324
G2 X0.0324 I0.0324 J-0.0097
G1 X0.054
G0 Z0.2
Y0.0872
G1 Z0.0324 F2.6
Z-0.009
X0.0286 F7.66
G2 X-0.0362 I-0.0324 J0.0097
G1 X-0.1639
G2 X-0.2067 Y0.1066 I-0.0214 J0.0097
X-0.1639 I0.0214 J-0.0097
G1 X-0.0362
G2 X0.0286 I0.0324 J-0.0097
G1 X0.2294
G2 X0.3184 I0.0445 J-0.0097
G1 X0.4051
X0.4053
X0.4889 Y0.1029
G2 Y0.0909 I-0.0002 J-0.006
G1 X0.4053 Y0.0872
X0.4051
X0.3184
G2 X0.2294 I-0.0445 J0.0097
G1 X0.054
Z-0.01 F2.6
X0.0286 F7.66
G2 X-0.0362 I-0.0324 J0.0097
G1 X-0.1639
G2 X-0.2067 Y0.1066 I-0.0214 J0.0097
X-0.1639 I0.0214 J-0.0097
G1 X-0.0362
G2 X0.0286 I0.0324 J-0.0097
G1 X0.2294
G2 X0.3184 I0.0445 J-0.0097
G1 X0.4051
X0.4053
X0.4889 Y0.1029
G2 Y0.0909 I-0.0002 J-0.006
G1 X0.4053 Y0.0872
X0.4051
X0.3184
G2 X0.2294 I-0.0445 J0.0097
G1 X0.054
G0 Z0.2
Y0.0097
G1 Z0.0314 F2.6
Z-0.01
X0.2332 F7.66
G2 X0.3222 I0.0445 J-0.0097
G1 X0.4089
X0.4091
X0.4927 Y0.006
G2 Y-0.006 I-0.0002 J-0.006
G1 X0.4091 Y-0.0097
X0.4089
X0.3222
G2 X0.2332 I-0.0445 J0.0097
G1 X0.0324
G2 X-0.0324 I-0.0324 J0.0097
G1 X-0.1601
G2 X-0.2029 Y0.0097 I-0.0214 J0.0097
X-0.1601 I0.0214 J-0.0097
G1 X-0.0324
G2 X0.0324 I0.0324 J-0.0097
G1 X0.054
Z-0.011 F2.6
X0.2332 F7.66
G2 X0.3222 I0.0445 J-0.0097
G1 X0.4089
X0.4091
X0.4927 Y0.006
G2 Y-0.006 I-0.0002 J-0.006
G1 X0.4091 Y-0.0097
X0.4089
X0.3222
G2 X0.2332 I-0.0445 J0.0097
G1 X0.0324
G2 X-0.0324 I-0.0324 J0.0097
G1 X-0.1601
G2 X-0.2029 Y0.0097 I-0.0214 J0.0097
X-0.1601 I0.0214 J-0.0097
G1 X-0.0324
G2 X0.0324 I0.0324 J-0.0097
G1 X0.054
G0 Z0.2
Y0.0872
G1 Z0.0304 F2.6
Z-0.011
X0.0286 F7.66
G2 X-0.0362 I-0.0324 J0.0097
G1 X-0.1639
G2 X-0.2067 Y0.1066 I-0.0214 J0.0097
X-0.1639 I0.0214 J-0.0097
G1 X-0.0362
G2 X0.0286 I0.0324 J-0.0097
G1 X0.2294
G2 X0.3184 I0.0445 J-0.0097
G1 X0.4051
X0.4053
X0.4889 Y0.1029
G2 Y0.0909 I-0.0002 J-0.006
G1 X0.4053 Y0.0872
X0.4051
X0.3184
G2 X0.2294 I-0.0445 J0.0097
G1 X0.054
Z-0.012 F2.6
X0.0286 F7.66
G2 X-0.0362 I-0.0324 J0.0097
G1 X-0.1639
G2 X-0.2067 Y0.1066 I-0.0214 J0.0097
X-0.1639 I0.0214 J-0.0097
G1 X-0.0362
G2 X0.0286 I0.0324 J-0.0097
G1 X0.2294
G2 X0.3184 I0.0445 J-0.0097
G1 X0.4051
X0.4053
X0.4889 Y0.1029
G2 Y0.0909 I-0.0002 J-0.006
G1 X0.4053 Y0.0872
X0.4051
X0.3184
G2 X0.2294 I-0.0445 J0.0097
G1 X0.054
G0 Z0.2
Y0.0097
G1 Z0.0294 F2.6
Z-0.012
X0.2332 F7.66
G2 X0.3222 I0.0445 J-0.0097
G1 X0.4089
X0.4091
X0.4927 Y0.006
G2 Y-0.006 I-0.0002 J-0.006
G1 X0.4091 Y-0.0097
X0.4089
X0.3222
G2 X0.2332 I-0.0445 J0.0097
G1 X0.0324
G2 X-0.0324 I-0.0324 J0.0097
G1 X-0.1601
G2 X-0.2029 Y0.0097 I-0.0214 J0.0097
X-0.1601 I0.0214 J-0.0097
G1 X-0.0324
G2 X0.0324 I0.0324 J-0.0097
G1 X0.054
G0 Z0.2
X0.0569 Y-0.1005
G1 Z0.0404 F2.6
Z-0.001
X0.2294 F7.66
G2 X0.3184 I0.0445 J-0.0097
G1 X0.4051
X0.4053
X0.4889 Y-0.1042
G2 Y-0.1162 I-0.0002 J-0.006
G1 X0.4053 Y-0.1199
X0.4051
X0.3184
G2 X0.2294 I-0.0445 J0.0097
G1 X0.0286
G2 X-0.0362 I-0.0324 J0.0097
G1 X-0.1639
G2 X-0.2067 Y-0.1005 I-0.0214 J0.0097
X-0.1639 I0.0214 J-0.0097
G1 X-0.0362
G2 X0.0286 I0.0324 J-0.0097
G1 X0.0569
Z-0.002 F2.6
X0.2294 F7.66
G2 X0.3184 I0.0445 J-0.0097
G1 X0.4051
X0.4053
X0.4889 Y-0.1042
G2 Y-0.1162 I-0.0002 J-0.006
G1 X0.4053 Y-0.1199
X0.4051
X0.3184
G2 X0.2294 I-0.0445 J0.0097
G1 X0.0286
G2 X-0.0362 I-0.0324 J0.0097
G1 X-0.1639
G2 X-0.2067 Y-0.1005 I-0.0214 J0.0097
X-0.1639 I0.0214 J-0.0097
G1 X-0.0362
G2 X0.0286 I0.0324 J-0.0097
G1 X0.0569
Z-0.003 F2.6
X0.2294 F7.66
G2 X0.3184 I0.0445 J-0.0097
G1 X0.4051
X0.4053
X0.4889 Y-0.1042
G2 Y-0.1162 I-0.0002 J-0.006
G1 X0.4053 Y-0.1199
X0.4051
X0.3184
G2 X0.2294 I-0.0445 J0.0097
G1 X0.0286
G2 X-0.0362 I-0.0324 J0.0097
G1 X-0.1639
G2 X-0.2067 Y-0.1005 I-0.0214 J0.0097
X-0.1639 I0.0214 J-0.0097
G1 X-0.0362
G2 X0.0286 I0.0324 J-0.0097
G1 X0.0569
Z-0.004 F2.6
X0.2294 F7.66
G2 X0.3184 I0.0445 J-0.0097
G1 X0.4051
X0.4053
X0.4889 Y-0.1042
G2 Y-0.1162 I-0.0002 J-0.006
G1 X0.4053 Y-0.1199
X0.4051
X0.3184
G2 X0.2294 I-0.0445 J0.0097
G1 X0.0286
G2 X-0.0362 I-0.0324 J0.0097
G1 X-0.1639
G2 X-0.2067 Y-0.1005 I-0.0214 J0.0097
X-0.1639 I0.0214 J-0.0097
G1 X-0.0362
G2 X0.0286 I0.0324 J-0.0097
G1 X0.0569
Z-0.005 F2.6
X0.2294 F7.66
G2 X0.3184 I0.0445 J-0.0097
G1 X0.4051
X0.4053
X0.4889 Y-0.1042
G2 Y-0.1162 I-0.0002 J-0.006
G1 X0.4053 Y-0.1199
X0.4051
X0.3184
G2 X0.2294 I-0.0445 J0.0097
G1 X0.0286
G2 X-0.0362 I-0.0324 J0.0097
G1 X-0.1639
G2 X-0.2067 Y-0.1005 I-0.0214 J0.0097
X-0.1639 I0.0214 J-0.0097
G1 X-0.0362
G2 X0.0286 I0.0324 J-0.0097
G1 X0.0569
Z-0.006 F2.6
X0.2294 F7.66
G2 X0.3184 I0.0445 J-0.0097
G1 X0.4051
X0.4053
X0.4889 Y-0.1042
G2 Y-0.1162 I-0.0002 J-0.006
G1 X0.4053 Y-0.1199
X0.4051
X0.3184
G2 X0.2294 I-0.0445 J0.0097
G1 X0.0286
G2 X-0.0362 I-0.0324 J0.0097
G1 X-0.1639
G2 X-0.2067 Y-0.1005 I-0.0214 J0.0097
X-0.1639 I0.0214 J-0.0097
G1 X-0.0362
G2 X0.0286 I0.0324 J-0.0097
G1 X0.0569
Z-0.007 F2.6
X0.2294 F7.66
G2 X0.3184 I0.0445 J-0.0097
G1 X0.4051
X0.4053
X0.4889 Y-0.1042
G2 Y-0.1162 I-0.0002 J-0.006
G1 X0.4053 Y-0.1199
X0.4051
X0.3184
G2 X0.2294 I-0.0445 J0.0097
G1 X0.0286
G2 X-0.0362 I-0.0324 J0.0097
G1 X-0.1639
G2 X-0.2067 Y-0.1005 I-0.0214 J0.0097
X-0.1639 I0.0214 J-0.0097
G1 X-0.0362
G2 X0.0286 I0.0324 J-0.0097
G1 X0.0569
Z-0.008 F2.6
X0.2294 F7.66
G2 X0.3184 I0.0445 J-0.0097
G1 X0.4051
X0.4053
X0.4889 Y-0.1042
G2 Y-0.1162 I-0.0002 J-0.006
G1 X0.4053 Y-0.1199
X0.4051
X0.3184
G2 X0.2294 I-0.0445 J0.0097
G1 X0.0286
G2 X-0.0362 I-0.0324 J0.0097
G1 X-0.1639
G2 X-0.2067 Y-0.1005 I-0.0214 J0.0097
X-0.1639 I0.0214 J-0.0097
G1 X-0.0362
G2 X0.0286 I0.0324 J-0.0097
G1 X0.0569
Z-0.009 F2.6
X0.2294 F7.66
G2 X0.3184 I0.0445 J-0.0097
G1 X0.4051
X0.4053
X0.4889 Y-0.1042
G2 Y-0.1162 I-0.0002 J-0.006
G1 X0.4053 Y-0.1199
X0.4051
X0.3184
G2 X0.2294 I-0.0445 J0.0097
G1 X0.0286
G2 X-0.0362 I-0.0324 J0.0097
G1 X-0.1639
G2 X-0.2067 Y-0.1005 I-0.0214 J0.0097
X-0.1639 I0.0214 J-0.0097
G1 X-0.0362
G2 X0.0286 I0.0324 J-0.0097
G1 X0.0569
Z-0.01 F2.6
X0.2294 F7.66
G2 X0.3184 I0.0445 J-0.0097
G1 X0.4051
X0.4053
X0.4889 Y-0.1042
G2 Y-0.1162 I-0.0002 J-0.006
G1 X0.4053 Y-0.1199
X0.4051
X0.3184
G2 X0.2294 I-0.0445 J0.0097
G1 X0.0286
G2 X-0.0362 I-0.0324 J0.0097
G1 X-0.1639
G2 X-0.2067 Y-0.1005 I-0.0214 J0.0097
X-0.1639 I0.0214 J-0.0097
G1 X-0.0362
G2 X0.0286 I0.0324 J-0.0097
G1 X0.0569
Z-0.011 F2.6
X0.2294 F7.66
G2 X0.3184 I0.0445 J-0.0097
G1 X0.4051
X0.4053
X0.4889 Y-0.1042
G2 Y-0.1162 I-0.0002 J-0.006
G1 X0.4053 Y-0.1199
X0.4051
X0.3184
G2 X0.2294 I-0.0445 J0.0097
G1 X0.0286
G2 X-0.0362 I-0.0324 J0.0097
G1 X-0.1639
G2 X-0.2067 Y-0.1005 I-0.0214 J0.0097
X-0.1639 I0.0214 J-0.0097
G1 X-0.0362
G2 X0.0286 I0.0324 J-0.0097
G1 X0.0569
Z-0.012 F2.6
X0.2294 F7.66
G2 X0.3184 I0.0445 J-0.0097
G1 X0.4051
X0.4053
X0.4889 Y-0.1042
G2 Y-0.1162 I-0.0002 J-0.006
G1 X0.4053 Y-0.1199
X0.4051
X0.3184
G2 X0.2294 I-0.0445 J0.0097
G1 X0.0286
G2 X-0.0362 I-0.0324 J0.0097
G1 X-0.1639
G2 X-0.2067 Y-0.1005 I-0.0214 J0.0097
X-0.1639 I0.0214 J-0.0097
G1 X-0.0362
G2 X0.0286 I0.0324 J-0.0097
G1 X0.0569
G0 Z0.2
X-0.1072 Y-0.1901
G1 Z0.0404 F2.6
Z-0.001
X-0.1033 Y-0.1889 F7.66
X-0.1015 Y-0.1886
X0.2205
X0.2216 Y-0.1887
X0.3248 Y-0.2091
G2 Y-0.2209 I-0.0012 J-0.0059
G1 X0.2216 Y-0.2412
X0.2205 Y-0.2413
X-0.1015
X-0.1033 Y-0.241
X-0.1302 Y-0.2325
G2 X-0.2036 Y-0.1975 I-0.0367 J0.0175
X-0.1302 Y-0.1974 I0.0367 J-0.0175
G1 X-0.1072 Y-0.1901
Z-0.002 F2.6
X-0.1033 Y-0.1889 F7.66
X-0.1015 Y-0.1886
X0.2205
X0.2216 Y-0.1887
X0.3248 Y-0.2091
G2 Y-0.2209 I-0.0012 J-0.0059
G1 X0.2216 Y-0.2412
X0.2205 Y-0.2413
X-0.1015
X-0.1033 Y-0.241
X-0.1302 Y-0.2325
G2 X-0.2036 Y-0.1975 I-0.0367 J0.0175
X-0.1302 Y-0.1974 I0.0367 J-0.0175
G1 X-0.1072 Y-0.1901
Z-0.003 F2.6
X-0.1033 Y-0.1889 F7.66
X-0.1015 Y-0.1886
X0.2205
X0.2216 Y-0.1887
X0.3248 Y-0.2091
G2 Y-0.2209 I-0.0012 J-0.0059
G1 X0.2216 Y-0.2412
X0.2205 Y-0.2413
X-0.1015
X-0.1033 Y-0.241
X-0.1302 Y-0.2325
G2 X-0.2036 Y-0.1975 I-0.0367 J0.0175
X-0.1302 Y-0.1974 I0.0367 J-0.0175
G1 X-0.1072 Y-0.1901
Z-0.004 F2.6
X-0.1033 Y-0.1889 F7.66
X-0.1015 Y-0.1886
X0.2205
X0.2216 Y-0.1887
X0.3248 Y-0.2091
G2 Y-0.2209 I-0.0012 J-0.0059
G1 X0.2216 Y-0.2412
X0.2205 Y-0.2413
X-0.1015
X-0.1033 Y-0.241
X-0.1302 Y-0.2325
G2 X-0.2036 Y-0.1975 I-0.0367 J0.0175
X-0.1302 Y-0.1974 I0.0367 J-0.0175
G1 X-0.1072 Y-0.1901
Z-0.005 F2.6
X-0.1033 Y-0.1889 F7.66
X-0.1015 Y-0.1886
X0.2205
X0.2216 Y-0.1887
X0.3248 Y-0.2091
G2 Y-0.2209 I-0.0012 J-0.0059
G1 X0.2216 Y-0.2412
X0.2205 Y-0.2413
X-0.1015
X-0.1033 Y-0.241
X-0.1302 Y-0.2325
G2 X-0.2036 Y-0.1975 I-0.0367 J0.0175
X-0.1302 Y-0.1974 I0.0367 J-0.0175
G1 X-0.1072 Y-0.1901
Z-0.006 F2.6
X-0.1033 Y-0.1889 F7.66
X-0.1015 Y-0.1886
X0.2205
X0.2216 Y-0.1887
X0.3248 Y-0.2091
G2 Y-0.2209 I-0.0012 J-0.0059
G1 X0.2216 Y-0.2412
X0.2205 Y-0.2413
X-0.1015
X-0.1033 Y-0.241
X-0.1302 Y-0.2325
G2 X-0.2036 Y-0.1975 I-0.0367 J0.0175
X-0.1302 Y-0.1974 I0.0367 J-0.0175
G1 X-0.1072 Y-0.1901
Z-0.007 F2.6
X-0.1033 Y-0.1889 F7.66
X-0.1015 Y-0.1886
X0.2205
X0.2216 Y-0.1887
X0.3248 Y-0.2091
G2 Y-0.2209 I-0.0012 J-0.0059
G1 X0.2216 Y-0.2412
X0.2205 Y-0.2413
X-0.1015
X-0.1033 Y-0.241
X-0.1302 Y-0.2325
G2 X-0.2036 Y-0.1975 I-0.0367 J0.0175
X-0.1302 Y-0.1974 I0.0367 J-0.0175
G1 X-0.1072 Y-0.1901
Z-0.008 F2.6
X-0.1033 Y-0.1889 F7.66
X-0.1015 Y-0.1886
X0.2205
X0.2216 Y-0.1887
X0.3248 Y-0.2091
G2 Y-0.2209 I-0.0012 J-0.0059
G1 X0.2216 Y-0.2412
X0.2205 Y-0.2413
X-0.1015
X-0.1033 Y-0.241
X-0.1302 Y-0.2325
G2 X-0.2036 Y-0.1975 I-0.0367 J0.0175
X-0.1302 Y-0.1974 I0.0367 J-0.0175
G1 X-0.1072 Y-0.1901
Z-0.009 F2.6
X-0.1033 Y-0.1889 F7.66
X-0.1015 Y-0.1886
X0.2205
X0.2216 Y-0.1887
X0.3248 Y-0.2091
G2 Y-0.2209 I-0.0012 J-0.0059
G1 X0.2216 Y-0.2412
X0.2205 Y-0.2413
X-0.1015
X-0.1033 Y-0.241
X-0.1302 Y-0.2325
G2 X-0.2036 Y-0.1975 I-0.0367 J0.0175
X-0.1302 Y-0.1974 I0.0367 J-0.0175
G1 X-0.1072 Y-0.1901
Z-0.01 F2.6
X-0.1033 Y-0.1889 F7.66
X-0.1015 Y-0.1886
X0.2205
X0.2216 Y-0.1887
X0.3248 Y-0.2091
G2 Y-0.2209 I-0.0012 J-0.0059
G1 X0.2216 Y-0.2412
X0.2205 Y-0.2413
X-0.1015
X-0.1033 Y-0.241
X-0.1302 Y-0.2325
G2 X-0.2036 Y-0.1975 I-0.0367 J0.0175
X-0.1302 Y-0.1974 I0.0367 J-0.0175
G1 X-0.1072 Y-0.1901
Z-0.011 F2.6
X-0.1033 Y-0.1889 F7.66
X-0.1015 Y-0.1886
X0.2205
X0.2216 Y-0.1887
X0.3248 Y-0.2091
G2 Y-0.2209 I-0.0012 J-0.0059
G1 X0.2216 Y-0.2412
X0.2205 Y-0.2413
X-0.1015
X-0.1033 Y-0.241
X-0.1302 Y-0.2325
G2 X-0.2036 Y-0.1975 I-0.0367 J0.0175
X-0.1302 Y-0.1974 I0.0367 J-0.0175
G1 X-0.1072 Y-0.1901
Z-0.012 F2.6
X-0.1033 Y-0.1889 F7.66
X-0.1015 Y-0.1886
X0.2205
X0.2216 Y-0.1887
X0.3248 Y-0.2091
G2 Y-0.2209 I-0.0012 J-0.0059
G1 X0.2216 Y-0.2412
X0.2205 Y-0.2413
X-0.1015
X-0.1033 Y-0.241
X-0.1302 Y-0.2325
G2 X-0.2036 Y-0.1975 I-0.0367 J0.0175
X-0.1302 Y-0.1974 I0.0367 J-0.0175
G1 X-0.1072 Y-0.1901
G0 Z0.2
X-0.2967 Y-0.1496
G1 Z0.0404 F2.6
Z-0.001
X-0.2969 Y-0.1514 F7.66
X-0.3054 Y-0.1782
G2 X-0.3406 Y-0.2518 I-0.0176 J-0.0368
Y-0.1782 I0.0176 J0.0368
G1 X-0.349 Y-0.1514
X-0.3493 Y-0.1496
Y0.1724
X-0.3492 Y0.1736
X-0.3289 Y0.2767
G2 X-0.3171 I0.0059 J-0.0011
G1 X-0.2968 Y0.1736
X-0.2967 Y0.1724
Y-0.1496
Z-0.002 F2.6
X-0.2969 Y-0.1514 F7.66
X-0.3054 Y-0.1782
G2 X-0.3406 Y-0.2518 I-0.0176 J-0.0368
Y-0.1782 I0.0176 J0.0368
G1 X-0.349 Y-0.1514
X-0.3493 Y-0.1496
Y0.1724
X-0.3492 Y0.1736
X-0.3289 Y0.2767
G2 X-0.3171 I0.0059 J-0.0011
G1 X-0.2968 Y0.1736
X-0.2967 Y0.1724
Y-0.1496
Z-0.003 F2.6
X-0.2969 Y-0.1514 F7.66
X-0.3054 Y-0.1782
G2 X-0.3406 Y-0.2518 I-0.0176 J-0.0368
Y-0.1782 I0.0176 J0.0368
G1 X-0.349 Y-0.1514
X-0.3493 Y-0.1496
Y0.1724
X-0.3492 Y0.1736
X-0.3289 Y0.2767
G2 X-0.3171 I0.0059 J-0.0011
G1 X-0.2968 Y0.1736
X-0.2967 Y0.1724
Y-0.1496
Z-0.004 F2.6
X-0.2969 Y-0.1514 F7.66
X-0.3054 Y-0.1782
G2 X-0.3406 Y-0.2518 I-0.0176 J-0.0368
Y-0.1782 I0.0176 J0.0368
G1 X-0.349 Y-0.1514
X-0.3493 Y-0.1496
Y0.1724
X-0.3492 Y0.1736
X-0.3289 Y0.2767
G2 X-0.3171 I0.0059 J-0.0011
G1 X-0.2968 Y0.1736
X-0.2967 Y0.1724
Y-0.1496
Z-0.005 F2.6
X-0.2969 Y-0.1514 F7.66
X-0.3054 Y-0.1782
G2 X-0.3406 Y-0.2518 I-0.0176 J-0.0368
Y-0.1782 I0.0176 J0.0368
G1 X-0.349 Y-0.1514
X-0.3493 Y-0.1496
Y0.1724
X-0.3492 Y0.1736
X-0.3289 Y0.2767
G2 X-0.3171 I0.0059 J-0.0011
G1 X-0.2968 Y0.1736
X-0.2967 Y0.1724
Y-0.1496
Z-0.006 F2.6
X-0.2969 Y-0.1514 F7.66
X-0.3054 Y-0.1782
G2 X-0.3406 Y-0.2518 I-0.0176 J-0.0368
Y-0.1782 I0.0176 J0.0368
G1 X-0.349 Y-0.1514
X-0.3493 Y-0.1496
Y0.1724
X-0.3492 Y0.1736
X-0.3289 Y0.2767
G2 X-0.3171 I0.0059 J-0.0011
G1 X-0.2968 Y0.1736
X-0.2967 Y0.1724
Y-0.1496
Z-0.007 F2.6
X-0.2969 Y-0.1514 F7.66
X-0.3054 Y-0.1782
G2 X-0.3406 Y-0.2518 I-0.0176 J-0.0368
Y-0.1782 I0.0176 J0.0368
G1 X-0.349 Y-0.1514
X-0.3493 Y-0.1496
Y0.1724
X-0.3492 Y0.1736
X-0.3289 Y0.2767
G2 X-0.3171 I0.0059 J-0.0011
G1 X-0.2968 Y0.1736
X-0.2967 Y0.1724
Y-0.1496
Z-0.008 F2.6
X-0.2969 Y-0.1514 F7.66
X-0.3054 Y-0.1782
G2 X-0.3406 Y-0.2518 I-0.0176 J-0.0368
Y-0.1782 I0.0176 J0.0368
G1 X-0.349 Y-0.1514
X-0.3493 Y-0.1496
Y0.1724
X-0.3492 Y0.1736
X-0.3289 Y0.2767
G2 X-0.3171 I0.0059 J-0.0011
G1 X-0.2968 Y0.1736
X-0.2967 Y0.1724
Y-0.1496
Z-0.009 F2.6
X-0.2969 Y-0.1514 F7.66
X-0.3054 Y-0.1782
G2 X-0.3406 Y-0.2518 I-0.0176 J-0.0368
Y-0.1782 I0.0176 J0.0368
G1 X-0.349 Y-0.1514
X-0.3493 Y-0.1496
Y0.1724
X-0.3492 Y0.1736
X-0.3289 Y0.2767
G2 X-0.3171 I0.0059 J-0.0011
G1 X-0.2968 Y0.1736
X-0.2967 Y0.1724
Y-0.1496
Z-0.01 F2.6
X-0.2969 Y-0.1514 F7.66
X-0.3054 Y-0.1782
G2 X-0.3406 Y-0.2518 I-0.0176 J-0.0368
Y-0.1782 I0.0176 J0.0368
G1 X-0.349 Y-0.1514
X-0.3493 Y-0.1496
Y0.1724
X-0.3492 Y0.1736
X-0.3289 Y0.2767
G2 X-0.3171 I0.0059 J-0.0011
G1 X-0.2968 Y0.1736
X-0.2967 Y0.1724
Y-0.1496
Z-0.011 F2.6
X-0.2969 Y-0.1514 F7.66
X-0.3054 Y-0.1782
G2 X-0.3406 Y-0.2518 I-0.0176 J-0.0368
Y-0.1782 I0.0176 J0.0368
G1 X-0.349 Y-0.1514
X-0.3493 Y-0.1496
Y0.1724
X-0.3492 Y0.1736
X-0.3289 Y0.2767
G2 X-0.3171 I0.0059 J-0.0011
G1 X-0.2968 Y0.1736
X-0.2967 Y0.1724
Y-0.1496
Z-0.012 F2.6
X-0.2969 Y-0.1514 F7.66
X-0.3054 Y-0.1782
G2 X-0.3406 Y-0.2518 I-0.0176 J-0.0368
Y-0.1782 I0.0176 J0.0368
G1 X-0.349 Y-0.1514
X-0.3493 Y-0.1496
Y0.1724
X-0.3492 Y0.1736
X-0.3289 Y0.2767
G2 X-0.3171 I0.0059 J-0.0011
G1 X-0.2968 Y0.1736
X-0.2967 Y0.1724
Y-0.1496
G0 Z0.2
X-0.4543 Y-0.2413
G1 Z0.0404 F2.6
Z-0.001
G2 X-0.5123 Y-0.2275 I-0.0226 J0.0339 F7.66
X-0.4944 Y-0.1707 I0.0354 J0.0201
G1 X-0.5029 Y-0.1438
X-0.5032 Y-0.142
Y0.18
X-0.5031 Y0.1812
X-0.4828 Y0.2843
G2 X-0.471 I0.0059 J-0.0011
G1 X-0.4507 Y0.1812
X-0.4506 Y0.18
Y-0.142
X-0.4508 Y-0.1438
X-0.4593 Y-0.1706
G2 X-0.4543 Y-0.2413 I-0.0176 J-0.0368
G1 Z-0.002 F2.6
G2 X-0.5123 Y-0.2275 I-0.0226 J0.0339 F7.66
X-0.4944 Y-0.1707 I0.0354 J0.0201
G1 X-0.5029 Y-0.1438
X-0.5032 Y-0.142
Y0.18
X-0.5031 Y0.1812
X-0.4828 Y0.2843
G2 X-0.471 I0.0059 J-0.0011
G1 X-0.4507 Y0.1812
X-0.4506 Y0.18
Y-0.142
X-0.4508 Y-0.1438
X-0.4593 Y-0.1706
G2 X-0.4543 Y-0.2413 I-0.0176 J-0.0368
G1 Z-0.003 F2.6
G2 X-0.5123 Y-0.2275 I-0.0226 J0.0339 F7.66
X-0.4944 Y-0.1707 I0.0354 J0.0201
G1 X-0.5029 Y-0.1438
X-0.5032 Y-0.142
Y0.18
X-0.5031 Y0.1812
X-0.4828 Y0.2843
G2 X-0.471 I0.0059 J-0.0011
G1 X-0.4507 Y0.1812
X-0.4506 Y0.18
Y-0.142
X-0.4508 Y-0.1438
X-0.4593 Y-0.1706
G2 X-0.4543 Y-0.2413 I-0.0176 J-0.0368
G1 Z-0.004 F2.6
G2 X-0.5123 Y-0.2275 I-0.0226 J0.0339 F7.66
X-0.4944 Y-0.1707 I0.0354 J0.0201
G1 X-0.5029 Y-0.1438
X-0.5032 Y-0.142
Y0.18
X-0.5031 Y0.1812
X-0.4828 Y0.2843
G2 X-0.471 I0.0059 J-0.0011
G1 X-0.4507 Y0.1812
X-0.4506 Y0.18
Y-0.142
X-0.4508 Y-0.1438
X-0.4593 Y-0.1706
G2 X-0.4543 Y-0.2413 I-0.0176 J-0.0368
G1 Z-0.005 F2.6
G2 X-0.5123 Y-0.2275 I-0.0226 J0.0339 F7.66
X-0.4944 Y-0.1707 I0.0354 J0.0201
G1 X-0.5029 Y-0.1438
X-0.5032 Y-0.142
Y0.18
X-0.5031 Y0.1812
X-0.4828 Y0.2843
G2 X-0.471 I0.0059 J-0.0011
G1 X-0.4507 Y0.1812
X-0.4506 Y0.18
Y-0.142
X-0.4508 Y-0.1438
X-0.4593 Y-0.1706
G2 X-0.4543 Y-0.2413 I-0.0176 J-0.0368
G1 Z-0.006 F2.6
G2 X-0.5123 Y-0.2275 I-0.0226 J0.0339 F7.66
X-0.4944 Y-0.1707 I0.0354 J0.0201
G1 X-0.5029 Y-0.1438
X-0.5032 Y-0.142
Y0.18
X-0.5031 Y0.1812
X-0.4828 Y0.2843
G2 X-0.471 I0.0059 J-0.0011
G1 X-0.4507 Y0.1812
X-0.4506 Y0.18
Y-0.142
X-0.4508 Y-0.1438
X-0.4593 Y-0.1706
G2 X-0.4543 Y-0.2413 I-0.0176 J-0.0368
G1 Z-0.007 F2.6
G2 X-0.5123 Y-0.2275 I-0.0226 J0.0339 F7.66
X-0.4944 Y-0.1707 I0.0354 J0.0201
G1 X-0.5029 Y-0.1438
X-0.5032 Y-0.142
Y0.18
X-0.5031 Y0.1812
X-0.4828 Y0.2843
G2 X-0.471 I0.0059 J-0.0011
G1 X-0.4507 Y0.1812
X-0.4506 Y0.18
Y-0.142
X-0.4508 Y-0.1438
X-0.4593 Y-0.1706
G2 X-0.4543 Y-0.2413 I-0.0176 J-0.0368
G1 Z-0.008 F2.6
G2 X-0.5123 Y-0.2275 I-0.0226 J0.0339 F7.66
X-0.4944 Y-0.1707 I0.0354 J0.0201
G1 X-0.5029 Y-0.1438
X-0.5032 Y-0.142
Y0.18
X-0.5031 Y0.1812
X-0.4828 Y0.2843
G2 X-0.471 I0.0059 J-0.0011
G1 X-0.4507 Y0.1812
X-0.4506 Y0.18
Y-0.142
X-0.4508 Y-0.1438
X-0.4593 Y-0.1706
G2 X-0.4543 Y-0.2413 I-0.0176 J-0.0368
G1 Z-0.009 F2.6
G2 X-0.5123 Y-0.2275 I-0.0226 J0.0339 F7.66
X-0.4944 Y-0.1707 I0.0354 J0.0201
G1 X-0.5029 Y-0.1438
X-0.5032 Y-0.142
Y0.18
X-0.5031 Y0.1812
X-0.4828 Y0.2843
G2 X-0.471 I0.0059 J-0.0011
G1 X-0.4507 Y0.1812
X-0.4506 Y0.18
Y-0.142
X-0.4508 Y-0.1438
X-0.4593 Y-0.1706
G2 X-0.4543 Y-0.2413 I-0.0176 J-0.0368
G1 Z-0.01 F2.6
G2 X-0.5123 Y-0.2275 I-0.0226 J0.0339 F7.66
X-0.4944 Y-0.1707 I0.0354 J0.0201
G1 X-0.5029 Y-0.1438
X-0.5032 Y-0.142
Y0.18
X-0.5031 Y0.1812
X-0.4828 Y0.2843
G2 X-0.471 I0.0059 J-0.0011
G1 X-0.4507 Y0.1812
X-0.4506 Y0.18
Y-0.142
X-0.4508 Y-0.1438
X-0.4593 Y-0.1706
G2 X-0.4543 Y-0.2413 I-0.0176 J-0.0368
G1 Z-0.011 F2.6
G2 X-0.5123 Y-0.2275 I-0.0226 J0.0339 F7.66
X-0.4944 Y-0.1707 I0.0354 J0.0201
G1 X-0.5029 Y-0.1438
X-0.5032 Y-0.142
Y0.18
X-0.5031 Y0.1812
X-0.4828 Y0.2843
G2 X-0.471 I0.0059 J-0.0011
G1 X-0.4507 Y0.1812
X-0.4506 Y0.18
Y-0.142
X-0.4508 Y-0.1438
X-0.4593 Y-0.1706
G2 X-0.4543 Y-0.2413 I-0.0176 J-0.0368
G1 Z-0.012 F2.6
G2 X-0.5123 Y-0.2275 I-0.0226 J0.0339 F7.66
X-0.4944 Y-0.1707 I0.0354 J0.0201
G1 X-0.5029 Y-0.1438
X-0.5032 Y-0.142
Y0.18
X-0.5031 Y0.1812
X-0.4828 Y0.2843
G2 X-0.471 I0.0059 J-0.0011
G1 X-0.4507 Y0.1812
X-0.4506 Y0.18
Y-0.142
X-0.4508 Y-0.1438
X-0.4593 Y-0.1706
G2 X-0.4543 Y-0.2413 I-0.0176 J-0.0368
G0 Z0.2
X-0.602 Y0
G1 Z0.0404 F2.6
Z-0.001
G3 X0.602 I0.602 J0 F7.66
X-0.602 I-0.602 J0
G1 Z-0.002 F2.6
G3 X0.602 I0.602 J0 F7.66
X-0.602 I-0.602 J0
G1 Z-0.003 F2.6
G3 X0.602 I0.602 J0 F7.66
X-0.602 I-0.602 J0
G1 Z-0.004 F2.6
G3 X0.602 I0.602 J0 F7.66
X-0.602 I-0.602 J0
G1 Z-0.005 F2.6
G3 X0.602 I0.602 J0 F7.66
X-0.602 I-0.602 J0
G1 Z-0.006 F2.6
G3 X0.602 I0.602 J0 F7.66
X-0.602 I-0.602 J0
G1 Z-0.007 F2.6
G3 X0.602 I0.602 J0 F7.66
X-0.602 I-0.602 J0
G1 Z-0.008 F2.6
G3 X0.602 I0.602 J0 F7.66
X-0.602 I-0.602 J0
G1 Z-0.009 F2.6
G3 X0.602 I0.602 J0 F7.66
X-0.602 I-0.602 J0
G1 Z-0.01 F2.6
G3 X0.602 I0.602 J0 F7.66
X-0.602 I-0.602 J0
G1 Z-0.011 F2.6
G3 X0.602 I0.602 J0 F7.66
X-0.602 I-0.602 J0
G1 Z-0.012 F2.6
G3 X0.602 I0.602 J0 F7.66
X-0.602 I-0.602 J0
G0 Z0.2
X-0.717
G1 Z0.0404 F2.6
Z-0.001
G2 X0.717 I0.717 J0 F7.66
X-0.717 I-0.717 J0
G1 Z-0.002 F2.6
G2 X0.717 I0.717 J0 F7.66
X-0.717 I-0.717 J0
G1 Z-0.003 F2.6
G2 X0.717 I0.717 J0 F7.66
X-0.717 I-0.717 J0
G1 Z-0.004 F2.6
G2 X0.717 I0.717 J0 F7.66
X-0.717 I-0.717 J0
G1 Z-0.005 F2.6
G2 X0.717 I0.717 J0 F7.66
X-0.717 I-0.717 J0
G1 Z-0.006 F2.6
G2 X0.717 I0.717 J0 F7.66
X-0.717 I-0.717 J0
G1 Z-0.007 F2.6
G2 X0.717 I0.717 J0 F7.66
X-0.717 I-0.717 J0
G1 Z-0.008 F2.6
G2 X0.717 I0.717 J0 F7.66
X-0.717 I-0.717 J0
G1 Z-0.009 F2.6
G2 X0.717 I0.717 J0 F7.66
X-0.717 I-0.717 J0
G1 Z-0.01 F2.6
G2 X0.717 I0.717 J0 F7.66
X-0.717 I-0.717 J0
G1 Z-0.011 F2.6
G2 X0.717 I0.717 J0 F7.66
X-0.717 I-0.717 J0
G1 Z-0.012 F2.6
G2 X0.717 I0.717 J0 F7.66
X-0.717 I-0.717 J0
G0 Z0.2
X-0.1533 Y0.1996
G1 Z0.0404 F2.6
Z-0.001
G2 X-0.0675 Y0.2223 I0.0469 J-0.0037 F7.66
G1 X0.0739
G2 X0.1878 Y0.2212 I0.0567 J-0.0264
G1 X0.2531 Y0.2016
G2 Y0.1902 I-0.0017 J-0.0057
G1 X0.1878 Y0.1705
G2 X0.0739 Y0.1694 I-0.0572 J0.0254
G1 X-0.0038
X-0.0675
G2 X-0.1535 Y0.1959 I-0.0389 J0.0265
G1 X-0.1533 Y0.1996
Z-0.002 F2.6
G2 X-0.0675 Y0.2223 I0.0469 J-0.0037 F7.66
G1 X0.0739
G2 X0.1878 Y0.2212 I0.0567 J-0.0264
G1 X0.2531 Y0.2016
G2 Y0.1902 I-0.0017 J-0.0057
G1 X0.1878 Y0.1705
G2 X0.0739 Y0.1694 I-0.0572 J0.0254
G1 X-0.0038
X-0.0675
G2 X-0.1535 Y0.1959 I-0.0389 J0.0265
G1 X-0.1533 Y0.1996
Z-0.003 F2.6
G2 X-0.0675 Y0.2223 I0.0469 J-0.0037 F7.66
G1 X0.0739
G2 X0.1878 Y0.2212 I0.0567 J-0.0264
G1 X0.2531 Y0.2016
G2 Y0.1902 I-0.0017 J-0.0057
G1 X0.1878 Y0.1705
G2 X0.0739 Y0.1694 I-0.0572 J0.0254
G1 X-0.0038
X-0.0675
G2 X-0.1535 Y0.1959 I-0.0389 J0.0265
G1 X-0.1533 Y0.1996
Z-0.004 F2.6
G2 X-0.0675 Y0.2223 I0.0469 J-0.0037 F7.66
G1 X0.0739
G2 X0.1878 Y0.2212 I0.0567 J-0.0264
G1 X0.2531 Y0.2016
G2 Y0.1902 I-0.0017 J-0.0057
G1 X0.1878 Y0.1705
G2 X0.0739 Y0.1694 I-0.0572 J0.0254
G1 X-0.0038
X-0.0675
G2 X-0.1535 Y0.1959 I-0.0389 J0.0265
G1 X-0.1533 Y0.1996
Z-0.005 F2.6
G2 X-0.0675 Y0.2223 I0.0469 J-0.0037 F7.66
G1 X0.0739
G2 X0.1878 Y0.2212 I0.0567 J-0.0264
G1 X0.2531 Y0.2016
G2 Y0.1902 I-0.0017 J-0.0057
G1 X0.1878 Y0.1705
G2 X0.0739 Y0.1694 I-0.0572 J0.0254
G1 X-0.0038
X-0.0675
G2 X-0.1535 Y0.1959 I-0.0389 J0.0265
G1 X-0.1533 Y0.1996
Z-0.006 F2.6
G2 X-0.0675 Y0.2223 I0.0469 J-0.0037 F7.66
G1 X0.0739
G2 X0.1878 Y0.2212 I0.0567 J-0.0264
G1 X0.2531 Y0.2016
G2 Y0.1902 I-0.0017 J-0.0057
G1 X0.1878 Y0.1705
G2 X0.0739 Y0.1694 I-0.0572 J0.0254
G1 X-0.0038
X-0.0675
G2 X-0.1535 Y0.1959 I-0.0389 J0.0265
G1 X-0.1533 Y0.1996
Z-0.007 F2.6
G2 X-0.0675 Y0.2223 I0.0469 J-0.0037 F7.66
G1 X0.0739
G2 X0.1878 Y0.2212 I0.0567 J-0.0264
G1 X0.2531 Y0.2016
G2 Y0.1902 I-0.0017 J-0.0057
G1 X0.1878 Y0.1705
G2 X0.0739 Y0.1694 I-0.0572 J0.0254
G1 X-0.0038
X-0.0675
G2 X-0.1535 Y0.1959 I-0.0389 J0.0265
G1 X-0.1533 Y0.1996
Z-0.008 F2.6
G2 X-0.0675 Y0.2223 I0.0469 J-0.0037 F7.66
G1 X0.0739
G2 X0.1878 Y0.2212 I0.0567 J-0.0264
G1 X0.2531 Y0.2016
G2 Y0.1902 I-0.0017 J-0.0057
G1 X0.1878 Y0.1705
G2 X0.0739 Y0.1694 I-0.0572 J0.0254
G1 X-0.0038
X-0.0675
G2 X-0.1535 Y0.1959 I-0.0389 J0.0265
G1 X-0.1533 Y0.1996
Z-0.009 F2.6
G2 X-0.0675 Y0.2223 I0.0469 J-0.0037 F7.66
G1 X0.0739
G2 X0.1878 Y0.2212 I0.0567 J-0.0264
G1 X0.2531 Y0.2016
G2 Y0.1902 I-0.0017 J-0.0057
G1 X0.1878 Y0.1705
G2 X0.0739 Y0.1694 I-0.0572 J0.0254
G1 X-0.0038
X-0.0675
G2 X-0.1535 Y0.1959 I-0.0389 J0.0265
G1 X-0.1533 Y0.1996
Z-0.01 F2.6
G2 X-0.0675 Y0.2223 I0.0469 J-0.0037 F7.66
G1 X0.0739
G2 X0.1878 Y0.2212 I0.0567 J-0.0264
G1 X0.2531 Y0.2016
G2 Y0.1902 I-0.0017 J-0.0057
G1 X0.1878 Y0.1705
G2 X0.0739 Y0.1694 I-0.0572 J0.0254
G1 X-0.0038
X-0.0675
G2 X-0.1535 Y0.1959 I-0.0389 J0.0265
G1 X-0.1533 Y0.1996
Z-0.011 F2.6
G2 X-0.0675 Y0.2223 I0.0469 J-0.0037 F7.66
G1 X0.0739
G2 X0.1878 Y0.2212 I0.0567 J-0.0264
G1 X0.2531 Y0.2016
G2 Y0.1902 I-0.0017 J-0.0057
G1 X0.1878 Y0.1705
G2 X0.0739 Y0.1694 I-0.0572 J0.0254
G1 X-0.0038
X-0.0675
G2 X-0.1535 Y0.1959 I-0.0389 J0.0265
G1 X-0.1533 Y0.1996
Z-0.012 F2.6
G2 X-0.0675 Y0.2223 I0.0469 J-0.0037 F7.66
G1 X0.0739
G2 X0.1878 Y0.2212 I0.0567 J-0.0264
G1 X0.2531 Y0.2016
G2 Y0.1902 I-0.0017 J-0.0057
G1 X0.1878 Y0.1705
G2 X0.0739 Y0.1694 I-0.0572 J0.0254
G1 X-0.0038
X-0.0675
G2 X-0.1535 Y0.1959 I-0.0389 J0.0265
G1 X-0.1533 Y0.1996
G0 Z0.2
X-0.1498 Y0.311
G1 Z0.0404 F2.6
Z-0.001
G2 X-0.1573 Y0.3365 I0.0396 J0.0255 F7.66
X-0.0712 Y0.3629 I0.0471 J0
G1 X0.0701
G2 X0.184 Y0.3618 I0.0567 J-0.0264
G1 X0.2493 Y0.3422
G2 Y0.3308 I-0.0017 J-0.0057
G1 X0.184 Y0.3111
G2 X0.0701 Y0.31 I-0.0572 J0.0254
G1 X-0.0713
G2 X-0.1498 Y0.311 I-0.0389 J0.0265
G1 Z-0.002 F2.6
G2 X-0.1573 Y0.3365 I0.0396 J0.0255 F7.66
X-0.0712 Y0.3629 I0.0471 J0
G1 X0.0701
G2 X0.184 Y0.3618 I0.0567 J-0.0264
G1 X0.2493 Y0.3422
G2 Y0.3308 I-0.0017 J-0.0057
G1 X0.184 Y0.3111
G2 X0.0701 Y0.31 I-0.0572 J0.0254
G1 X-0.0713
G2 X-0.1498 Y0.311 I-0.0389 J0.0265
G1 Z-0.003 F2.6
G2 X-0.1573 Y0.3365 I0.0396 J0.0255 F7.66
X-0.0712 Y0.3629 I0.0471 J0
G1 X0.0701
G2 X0.184 Y0.3618 I0.0567 J-0.0264
G1 X0.2493 Y0.3422
G2 Y0.3308 I-0.0017 J-0.0057
G1 X0.184 Y0.3111
G2 X0.0701 Y0.31 I-0.0572 J0.0254
G1 X-0.0713
G2 X-0.1498 Y0.311 I-0.0389 J0.0265
G1 Z-0.004 F2.6
G2 X-0.1573 Y0.3365 I0.0396 J0.0255 F7.66
X-0.0712 Y0.3629 I0.0471 J0
G1 X0.0701
G2 X0.184 Y0.3618 I0.0567 J-0.0264
G1 X0.2493 Y0.3422
G2 Y0.3308 I-0.0017 J-0.0057
G1 X0.184 Y0.3111
G2 X0.0701 Y0.31 I-0.0572 J0.0254
G1 X-0.0713
G2 X-0.1498 Y0.311 I-0.0389 J0.0265
G1 Z-0.005 F2.6
G2 X-0.1573 Y0.3365 I0.0396 J0.0255 F7.66
X-0.0712 Y0.3629 I0.0471 J0
G1 X0.0701
G2 X0.184 Y0.3618 I0.0567 J-0.0264
G1 X0.2493 Y0.3422
G2 Y0.3308 I-0.0017 J-0.0057
G1 X0.184 Y0.3111
G2 X0.0701 Y0.31 I-0.0572 J0.0254
G1 X-0.0713
G2 X-0.1498 Y0.311 I-0.0389 J0.0265
G1 Z-0.006 F2.6
G2 X-0.1573 Y0.3365 I0.0396 J0.0255 F7.66
X-0.0712 Y0.3629 I0.0471 J0
G1 X0.0701
G2 X0.184 Y0.3618 I0.0567 J-0.0264
G1 X0.2493 Y0.3422
G2 Y0.3308 I-0.0017 J-0.0057
G1 X0.184 Y0.3111
G2 X0.0701 Y0.31 I-0.0572 J0.0254
G1 X-0.0713
G2 X-0.1498 Y0.311 I-0.0389 J0.0265
G1 Z-0.007 F2.6
G2 X-0.1573 Y0.3365 I0.0396 J0.0255 F7.66
X-0.0712 Y0.3629 I0.0471 J0
G1 X0.0701
G2 X0.184 Y0.3618 I0.0567 J-0.0264
G1 X0.2493 Y0.3422
G2 Y0.3308 I-0.0017 J-0.0057
G1 X0.184 Y0.3111
G2 X0.0701 Y0.31 I-0.0572 J0.0254
G1 X-0.0713
G2 X-0.1498 Y0.311 I-0.0389 J0.0265
G1 Z-0.008 F2.6
G2 X-0.1573 Y0.3365 I0.0396 J0.0255 F7.66
X-0.0712 Y0.3629 I0.0471 J0
G1 X0.0701
G2 X0.184 Y0.3618 I0.0567 J-0.0264
G1 X0.2493 Y0.3422
G2 Y0.3308 I-0.0017 J-0.0057
G1 X0.184 Y0.3111
G2 X0.0701 Y0.31 I-0.0572 J0.0254
G1 X-0.0713
G2 X-0.1498 Y0.311 I-0.0389 J0.0265
G1 Z-0.009 F2.6
G2 X-0.1573 Y0.3365 I0.0396 J0.0255 F7.66
X-0.0712 Y0.3629 I0.0471 J0
G1 X0.0701
G2 X0.184 Y0.3618 I0.0567 J-0.0264
G1 X0.2493 Y0.3422
G2 Y0.3308 I-0.0017 J-0.0057
G1 X0.184 Y0.3111
G2 X0.0701 Y0.31 I-0.0572 J0.0254
G1 X-0.0713
G2 X-0.1498 Y0.311 I-0.0389 J0.0265
G1 Z-0.01 F2.6
G2 X-0.1573 Y0.3365 I0.0396 J0.0255 F7.66
X-0.0712 Y0.3629 I0.0471 J0
G1 X0.0701
G2 X0.184 Y0.3618 I0.0567 J-0.0264
G1 X0.2493 Y0.3422
G2 Y0.3308 I-0.0017 J-0.0057
G1 X0.184 Y0.3111
G2 X0.0701 Y0.31 I-0.0572 J0.0254
G1 X-0.0713
G2 X-0.1498 Y0.311 I-0.0389 J0.0265
G1 Z-0.011 F2.6
G2 X-0.1573 Y0.3365 I0.0396 J0.0255 F7.66
X-0.0712 Y0.3629 I0.0471 J0
G1 X0.0701
G2 X0.184 Y0.3618 I0.0567 J-0.0264
G1 X0.2493 Y0.3422
G2 Y0.3308 I-0.0017 J-0.0057
G1 X0.184 Y0.3111
G2 X0.0701 Y0.31 I-0.0572 J0.0254
G1 X-0.0713
G2 X-0.1498 Y0.311 I-0.0389 J0.0265
G1 Z-0.012 F2.6
G2 X-0.1573 Y0.3365 I0.0396 J0.0255 F7.66
X-0.0712 Y0.3629 I0.0471 J0
G1 X0.0701
G2 X0.184 Y0.3618 I0.0567 J-0.0264
G1 X0.2493 Y0.3422
G2 Y0.3308 I-0.0017 J-0.0057
G1 X0.184 Y0.3111
G2 X0.0701 Y0.31 I-0.0572 J0.0254
G1 X-0.0713
G2 X-0.1498 Y0.311 I-0.0389 J0.0265
G0 Z0.2
X-0.1542 Y0.4598
G1 Z0.0404 F2.6
Z-0.001
G2 X-0.1592 Y0.4809 I0.0421 J0.0211 F7.66
X-0.0731 Y0.5073 I0.0471 J0
G1 X0.0682
G2 X0.1821 Y0.5062 I0.0567 J-0.0264
G1 X0.2474 Y0.4866
G2 Y0.4752 I-0.0017 J-0.0057
G1 X0.1821 Y0.4555
G2 X0.0682 Y0.4544 I-0.0572 J0.0254
G1 X-0.0732
G2 X-0.1542 Y0.4598 I-0.0389 J0.0265
G1 Z-0.002 F2.6
G2 X-0.1592 Y0.4809 I0.0421 J0.0211 F7.66
X-0.0731 Y0.5073 I0.0471 J0
G1 X0.0682
G2 X0.1821 Y0.5062 I0.0567 J-0.0264
G1 X0.2474 Y0.4866
G2 Y0.4752 I-0.0017 J-0.0057
G1 X0.1821 Y0.4555
G2 X0.0682 Y0.4544 I-0.0572 J0.0254
G1 X-0.0732
G2 X-0.1542 Y0.4598 I-0.0389 J0.0265
G1 Z-0.003 F2.6
G2 X-0.1592 Y0.4809 I0.0421 J0.0211 F7.66
X-0.0731 Y0.5073 I0.0471 J0
G1 X0.0682
G2 X0.1821 Y0.5062 I0.0567 J-0.0264
G1 X0.2474 Y0.4866
G2 Y0.4752 I-0.0017 J-0.0057
G1 X0.1821 Y0.4555
G2 X0.0682 Y0.4544 I-0.0572 J0.0254
G1 X-0.0732
G2 X-0.1542 Y0.4598 I-0.0389 J0.0265
G1 Z-0.004 F2.6
G2 X-0.1592 Y0.4809 I0.0421 J0.0211 F7.66
X-0.0731 Y0.5073 I0.0471 J0
G1 X0.0682
G2 X0.1821 Y0.5062 I0.0567 J-0.0264
G1 X0.2474 Y0.4866
G2 Y0.4752 I-0.0017 J-0.0057
G1 X0.1821 Y0.4555
G2 X0.0682 Y0.4544 I-0.0572 J0.0254
G1 X-0.0732
G2 X-0.1542 Y0.4598 I-0.0389 J0.0265
G1 Z-0.005 F2.6
G2 X-0.1592 Y0.4809 I0.0421 J0.0211 F7.66
X-0.0731 Y0.5073 I0.0471 J0
G1 X0.0682
G2 X0.1821 Y0.5062 I0.0567 J-0.0264
G1 X0.2474 Y0.4866
G2 Y0.4752 I-0.0017 J-0.0057
G1 X0.1821 Y0.4555
G2 X0.0682 Y0.4544 I-0.0572 J0.0254
G1 X-0.0732
G2 X-0.1542 Y0.4598 I-0.0389 J0.0265
G1 Z-0.006 F2.6
G2 X-0.1592 Y0.4809 I0.0421 J0.0211 F7.66
X-0.0731 Y0.5073 I0.0471 J0
G1 X0.0682
G2 X0.1821 Y0.5062 I0.0567 J-0.0264
G1 X0.2474 Y0.4866
G2 Y0.4752 I-0.0017 J-0.0057
G1 X0.1821 Y0.4555
G2 X0.0682 Y0.4544 I-0.0572 J0.0254
G1 X-0.0732
G2 X-0.1542 Y0.4598 I-0.0389 J0.0265
G1 Z-0.007 F2.6
G2 X-0.1592 Y0.4809 I0.0421 J0.0211 F7.66
X-0.0731 Y0.5073 I0.0471 J0
G1 X0.0682
G2 X0.1821 Y0.5062 I0.0567 J-0.0264
G1 X0.2474 Y0.4866
G2 Y0.4752 I-0.0017 J-0.0057
G1 X0.1821 Y0.4555
G2 X0.0682 Y0.4544 I-0.0572 J0.0254
G1 X-0.0732
G2 X-0.1542 Y0.4598 I-0.0389 J0.0265
G1 Z-0.008 F2.6
G2 X-0.1592 Y0.4809 I0.0421 J0.0211 F7.66
X-0.0731 Y0.5073 I0.0471 J0
G1 X0.0682
G2 X0.1821 Y0.5062 I0.0567 J-0.0264
G1 X0.2474 Y0.4866
G2 Y0.4752 I-0.0017 J-0.0057
G1 X0.1821 Y0.4555
G2 X0.0682 Y0.4544 I-0.0572 J0.0254
G1 X-0.0732
G2 X-0.1542 Y0.4598 I-0.0389 J0.0265
G1 Z-0.009 F2.6
G2 X-0.1592 Y0.4809 I0.0421 J0.0211 F7.66
X-0.0731 Y0.5073 I0.0471 J0
G1 X0.0682
G2 X0.1821 Y0.5062 I0.0567 J-0.0264
G1 X0.2474 Y0.4866
G2 Y0.4752 I-0.0017 J-0.0057
G1 X0.1821 Y0.4555
G2 X0.0682 Y0.4544 I-0.0572 J0.0254
G1 X-0.0732
G2 X-0.1542 Y0.4598 I-0.0389 J0.0265
G1 Z-0.01 F2.6
G2 X-0.1592 Y0.4809 I0.0421 J0.0211 F7.66
X-0.0731 Y0.5073 I0.0471 J0
G1 X0.0682
G2 X0.1821 Y0.5062 I0.0567 J-0.0264
G1 X0.2474 Y0.4866
G2 Y0.4752 I-0.0017 J-0.0057
G1 X0.1821 Y0.4555
G2 X0.0682 Y0.4544 I-0.0572 J0.0254
G1 X-0.0732
G2 X-0.1542 Y0.4598 I-0.0389 J0.0265
G1 Z-0.011 F2.6
G2 X-0.1592 Y0.4809 I0.0421 J0.0211 F7.66
X-0.0731 Y0.5073 I0.0471 J0
G1 X0.0682
G2 X0.1821 Y0.5062 I0.0567 J-0.0264
G1 X0.2474 Y0.4866
G2 Y0.4752 I-0.0017 J-0.0057
G1 X0.1821 Y0.4555
G2 X0.0682 Y0.4544 I-0.0572 J0.0254
G1 X-0.0732
G2 X-0.1542 Y0.4598 I-0.0389 J0.0265
G1 Z-0.012 F2.6
G2 X-0.1592 Y0.4809 I0.0421 J0.0211 F7.66
X-0.0731 Y0.5073 I0.0471 J0
G1 X0.0682
G2 X0.1821 Y0.5062 I0.0567 J-0.0264
G1 X0.2474 Y0.4866
G2 Y0.4752 I-0.0017 J-0.0057
G1 X0.1821 Y0.4555
G2 X0.0682 Y0.4544 I-0.0572 J0.0254
G1 X-0.0732
G2 X-0.1542 Y0.4598 I-0.0389 J0.0265
G0 Z0.6
M9
G28 G91 Z0
G90
G28 G91 X0 Y0
G90
M30
%
