%
(Bezel_Back)
(Machine)
(  vendor: Carbide 3D)
(  model: Nomad 3)
(  description: Nomad 3 micro mill)
(T2  D=0.125 CR=0 - ZMIN=-0.0192 - flat end mill)
G90
G17
G20
G28 G91 Z0
G90

(Faceing Operation 2)
T2 M6
S10000 M3
G54
G0 X1.6461 Y0.9767
Z0.6
Z0.2
Z0.1
G3 X1.7436 Y0.9086 Z0.0935 I0.0487 J-0.0341 F13
X1.6461 Y0.9767 Z0.087 I-0.0488 J0.034
X1.7436 Y0.9086 Z0.0805 I0.0487 J-0.0341
X1.6461 Y0.9767 Z0.0739 I-0.0488 J0.034
X1.7436 Y0.9086 Z0.0674 I0.0487 J-0.0341
X1.6461 Y0.9767 Z0.0609 I-0.0488 J0.034
X1.7436 Y0.9086 Z0.0544 I0.0487 J-0.0341
X1.6461 Y0.9767 Z0.0479 I-0.0488 J0.034
X1.7436 Y0.9086 Z0.0414 I0.0487 J-0.0341
X1.6461 Y0.9767 Z0.0349 I-0.0488 J0.034
X1.7436 Y0.9086 Z0.0283 I0.0487 J-0.0341
X1.6461 Y0.9767 Z0.0218 I-0.0488 J0.034
X1.7436 Y0.9086 Z0.0153 I0.0487 J-0.0341
X1.6461 Y0.9767 Z0.0088 I-0.0488 J0.034
X1.7436 Y0.9086 Z0.0023 I0.0487 J-0.0341
X1.6461 Y0.9767 Z-0.0042 I-0.0488 J0.034
X1.7436 Y0.9086 Z-0.0107 I0.0487 J-0.0341
X1.7543 Y0.9426 Z-0.012 I-0.0488 J0.034
X1.6353 I-0.0595 J0
X1.7543 I0.0595 J0
G1 X1.7546 Y0.9579 F26
X1.7545 Y0.9639
X1.7532 Y0.9697
X1.7511 Y0.9753
X1.7482 Y0.9806
X1.7448 Y0.9855
X1.7408 Y0.99
X1.7364 Y0.9941
X1.7317 Y0.9978
X1.7266 Y1.001
X1.7212 Y1.0037
X1.7156 Y1.0058
X1.7099 Y1.0075
X1.704 Y1.0086
X1.698 Y1.0092
X1.692
X1.686 Y1.0087
X1.6801 Y1.0077
X1.6743 Y1.0061
X1.6687 Y1.004
X1.6633 Y1.0014
X1.6581 Y0.9983
X1.6533 Y0.9948
X1.6488 Y0.9909
X1.6446 Y0.9865
X1.6409 Y0.9818
X1.6376 Y0.9768
X1.6347 Y0.9715
X1.6324 Y0.966
X1.6305 Y0.9603
X1.6292 Y0.9545
X1.6284 Y0.9485
X1.6281 Y0.9425
X1.6284 Y0.9365
X1.6292 Y0.9306
X1.6306 Y0.9247
X1.6325 Y0.919
X1.6348 Y0.9135
X1.6377 Y0.9083
X1.641 Y0.9033
X1.6448 Y0.8986
X1.649 Y0.8943
X1.6535 Y0.8903
X1.6584 Y0.8868
X1.6635 Y0.8838
X1.6689 Y0.8812
X1.6746 Y0.8791
X1.6804 Y0.8776
X1.6863 Y0.8765
X1.6923 Y0.876
X1.6983 Y0.8761
X1.7042 Y0.8767
X1.7101 Y0.8778
X1.7159 Y0.8794
X1.7215 Y0.8816
X1.7269 Y0.8842
X1.732 Y0.8873
X1.7368 Y0.8909
X1.7413 Y0.8949
X1.7454 Y0.8993
X1.7491 Y0.904
X1.7524 Y0.9091
X1.7551 Y0.9144
X1.7574 Y0.9199
X1.7592 Y0.9256
X1.7606 Y0.9315
X1.7617 Y0.9374
X1.7626 Y0.9433
X1.7631 Y0.9493
Y0.9553
X1.7625 Y0.9613
X1.7613 Y0.9671
X1.7596 Y0.9729
X1.7573 Y0.9784
X1.7545 Y0.9837
X1.7512 Y0.9887
X1.7474 Y0.9934
X1.7432 Y0.9977
X1.7387 Y1.0016
X1.7338 Y1.0051
X1.7286 Y1.0082
X1.7232 Y1.0108
X1.7176 Y1.0129
X1.7119 Y1.0146
X1.706 Y1.0158
X1.7 Y1.0165
X1.694 Y1.0167
X1.688 Y1.0164
X1.6821 Y1.0157
X1.6762 Y1.0144
X1.6705 Y1.0127
X1.6649 Y1.0105
X1.6595 Y1.0079
X1.6544 Y1.0048
X1.6495 Y1.0013
X1.6449 Y0.9975
X1.6406 Y0.9933
X1.6367 Y0.9887
X1.6331 Y0.9839
X1.63 Y0.9788
X1.6273 Y0.9734
X1.625 Y0.9678
X1.6232 Y0.9621
X1.6219 Y0.9563
X1.621 Y0.9503
X1.6207 Y0.9443
Y0.9383
X1.6213 Y0.9324
X1.6224 Y0.9265
X1.6239 Y0.9207
X1.626 Y0.915
X1.6284 Y0.9095
X1.6313 Y0.9043
X1.6346 Y0.8993
X1.6383 Y0.8946
X1.6424 Y0.8902
X1.6468 Y0.8861
X1.6515 Y0.8824
X1.6565 Y0.8791
X1.6618 Y0.8762
X1.6673 Y0.8738
X1.6729 Y0.8718
X1.6787 Y0.8702
X1.6847 Y0.8692
X1.6906 Y0.8686
X1.6966 Y0.8685
X1.7026 Y0.8689
X1.7085 Y0.8698
X1.7144 Y0.8711
X1.7201 Y0.8729
X1.7257 Y0.8752
X1.731 Y0.8779
X1.7361 Y0.8811
X1.741 Y0.8846
X1.7455 Y0.8885
X1.7497 Y0.8928
X1.7536 Y0.8974
X1.757 Y0.9023
X1.7601 Y0.9075
X1.7628 Y0.9128
X1.765 Y0.9184
X1.767 Y0.9241
X1.7686 Y0.9298
X1.7698 Y0.9357
X1.7706 Y0.9417
X1.771 Y0.9476
Y0.9536
X1.7705 Y0.9596
X1.7695 Y0.9655
X1.768 Y0.9714
X1.766 Y0.977
X1.7636 Y0.9825
X1.7607 Y0.9878
X1.7574 Y0.9928
X1.7537 Y0.9975
X1.7496 Y1.0019
X1.7452 Y1.006
X1.7405 Y1.0097
X1.7355 Y1.013
X1.7303 Y1.0159
X1.7248 Y1.0184
X1.7192 Y1.0205
X1.7134 Y1.0221
X1.7075 Y1.0233
X1.7016 Y1.0241
X1.6956 Y1.0244
X1.6896 Y1.0243
X1.6836 Y1.0237
X1.6777 Y1.0227
X1.6719 Y1.0213
X1.6662 Y1.0194
X1.6606 Y1.0171
X1.6553 Y1.0144
X1.6501 Y1.0113
X1.6452 Y1.0079
X1.6406 Y1.0041
X1.6362 Y0.9999
X1.6322 Y0.9955
X1.6285 Y0.9908
X1.6251 Y0.9858
X1.6222 Y0.9806
X1.6196 Y0.9752
X1.6174 Y0.9696
X1.6156 Y0.9638
X1.6143 Y0.958
X1.6134 Y0.9521
X1.6129 Y0.9461
Y0.9401
X1.6133 Y0.9341
X1.6141 Y0.9282
X1.6154 Y0.9223
X1.6171 Y0.9165
X1.6192 Y0.9109
X1.6218 Y0.9055
X1.6247 Y0.9002
X1.628 Y0.8952
X1.6316 Y0.8905
X1.6356 Y0.886
X1.6399 Y0.8818
X1.6445 Y0.8779
X1.6494 Y0.8744
X1.6545 Y0.8713
X1.6598 Y0.8685
X1.6653 Y0.8662
X1.671 Y0.8642
X1.6768 Y0.8627
X1.6827 Y0.8616
X1.6887 Y0.8609
X1.6947 Y0.8607
X1.7007 Y0.8609
X1.7066 Y0.8616
X1.7125 Y0.8626
X1.7183 Y0.8641
X1.724 Y0.8661
X1.7295 Y0.8684
X1.7349 Y0.8712
X1.74 Y0.8743
X1.7449 Y0.8778
X1.7495 Y0.8816
X1.7538 Y0.8858
X1.7578 Y0.8903
X1.7615 Y0.895
X1.7648 Y0.9
X1.7678 Y0.9052
X1.7705 Y0.9106
X1.7728 Y0.9161
X1.7748 Y0.9217
X1.7765 Y0.9275
X1.7777 Y0.9334
X1.7786 Y0.9393
X1.779 Y0.9453
X1.7791 Y0.9513
X1.7787 Y0.9573
X1.778 Y0.9633
X1.7767 Y0.9691
X1.7751 Y0.9749
X1.773 Y0.9805
X1.7705 Y0.986
X1.7677 Y0.9913
X1.7644 Y0.9963
X1.7608 Y1.0011
X1.7569 Y1.0056
X1.7526 Y1.0098
X1.748 Y1.0137
X1.7432 Y1.0173
X1.7382 Y1.0205
X1.7329 Y1.0234
X1.7274 Y1.0258
X1.7218 Y1.0279
X1.716 Y1.0296
X1.7102 Y1.0309
X1.7042 Y1.0318
X1.6982 Y1.0323
X1.6922
X1.6862 Y1.032
X1.6803 Y1.0313
X1.6744 Y1.0301
X1.6686 Y1.0286
X1.6629 Y1.0267
X1.6574 Y1.0244
X1.652 Y1.0217
X1.6468 Y1.0187
X1.6419 Y1.0153
X1.6371 Y1.0116
X1.6327 Y1.0076
X1.6284 Y1.0033
X1.6245 Y0.9988
X1.6209 Y0.994
X1.6177 Y0.989
X1.6148 Y0.9837
X1.6122 Y0.9783
X1.61 Y0.9727
X1.6082 Y0.967
X1.6068 Y0.9611
X1.6058 Y0.9552
X1.6051 Y0.9493
X1.6049 Y0.9433
X1.605 Y0.9373
X1.6056 Y0.9313
X1.6065 Y0.9254
X1.6078 Y0.9195
X1.6096 Y0.9138
X1.6117 Y0.9082
X1.6142 Y0.9027
X1.617 Y0.8974
X1.6202 Y0.8924
X1.6238 Y0.8875
X1.6276 Y0.8829
X1.6317 Y0.8785
X1.6361 Y0.8745
X1.6408 Y0.8707
X1.6457 Y0.8672
X1.6508 Y0.8641
X1.6562 Y0.8614
X1.6617 Y0.859
X1.6673 Y0.857
X1.6731 Y0.8554
X1.679 Y0.8541
X1.6849 Y0.8533
X1.6909 Y0.8528
X1.6969 Y0.8527
X1.7029 Y0.8531
X1.7088 Y0.8538
X1.7147 Y0.8549
X1.7205 Y0.8564
X1.7262 Y0.8584
X1.7318 Y0.8607
X1.7372 Y0.8633
X1.7423 Y0.8663
X1.7473 Y0.8697
X1.7521 Y0.8733
X1.7566 Y0.8773
X1.7608 Y0.8815
X1.7648 Y0.886
X1.7684 Y0.8908
X1.7718 Y0.8958
X1.7749 Y0.9009
X1.7776 Y0.9063
X1.78 Y0.9118
X1.7821 Y0.9174
X1.7839 Y0.9231
X1.7853 Y0.929
X1.7863 Y0.9349
X1.787 Y0.9408
X1.7873 Y0.9468
X1.7872 Y0.9528
X1.7868 Y0.9588
X1.7859 Y0.9647
X1.7847 Y0.9706
X1.7831 Y0.9764
X1.7811 Y0.982
X1.7787 Y0.9875
X1.776 Y0.9929
X1.7729 Y0.998
X1.7695 Y1.003
X1.7658 Y1.0077
X1.7617 Y1.0121
X1.7574 Y1.0163
X1.7529 Y1.0202
X1.748 Y1.0238
X1.743 Y1.027
X1.7378 Y1.0299
X1.7323 Y1.0325
X1.7268 Y1.0348
X1.7211 Y1.0366
X1.7153 Y1.0381
X1.7094 Y1.0393
X1.7034 Y1.0401
X1.6974 Y1.0405
X1.6914
X1.6854 Y1.0402
X1.6795 Y1.0394
X1.6736 Y1.0383
X1.6678 Y1.0369
X1.662 Y1.0351
X1.6564 Y1.0329
X1.651 Y1.0304
X1.6457 Y1.0276
X1.6406 Y1.0244
X1.6357 Y1.021
X1.631 Y1.0172
X1.6266 Y1.0132
X1.6224 Y1.0089
X1.6184 Y1.0043
X1.6148 Y0.9996
X1.6115 Y0.9946
X1.6085 Y0.9894
X1.6058 Y0.984
X1.6034 Y0.9785
X1.6014 Y0.9729
X1.5997 Y0.9671
X1.5984 Y0.9612
X1.5975 Y0.9553
X1.5969 Y0.9493
X1.5966 Y0.9434
X1.5968 Y0.9374
X1.5973 Y0.9314
X1.5981 Y0.9254
X1.5994 Y0.9196
X1.601 Y0.9138
X1.6029 Y0.9081
X1.6052 Y0.9026
X1.6078 Y0.8972
X1.6108 Y0.8919
X1.614 Y0.8869
X1.6176 Y0.882
X1.6214 Y0.8774
X1.6255 Y0.8731
X1.6299 Y0.869
X1.6345 Y0.8652
X1.6394 Y0.8616
X1.6444 Y0.8584
X1.6497 Y0.8555
X1.6551 Y0.8529
X1.6606 Y0.8506
X1.6663 Y0.8487
X1.6721 Y0.8471
X1.678 Y0.8459
X1.6839 Y0.8451
X1.6899 Y0.8446
X1.6959 Y0.8445
X1.7019 Y0.8447
X1.7079 Y0.8454
X1.7138 Y0.8463
X1.7196 Y0.8477
X1.7254 Y0.8494
X1.731 Y0.8514
X1.7365 Y0.8538
X1.7419 Y0.8565
X1.7471 Y0.8596
X1.7521 Y0.8629
X1.7568 Y0.8665
X1.7614 Y0.8704
X1.7657 Y0.8746
X1.7697 Y0.879
X1.7735 Y0.8837
X1.7771 Y0.8886
X1.7803 Y0.8936
X1.7833 Y0.8988
X1.7859 Y0.9042
X1.7883 Y0.9097
X1.7903 Y0.9154
X1.7921 Y0.9211
X1.7935 Y0.9269
X1.7945 Y0.9328
X1.7953 Y0.9388
X1.7956 Y0.9448
X1.7957 Y0.9508
X1.7953 Y0.9568
X1.7947 Y0.9627
X1.7936 Y0.9686
X1.7922 Y0.9745
X1.7905 Y0.9802
X1.7884 Y0.9859
X1.786 Y0.9914
X1.7833 Y0.9967
X1.7803 Y1.0019
X1.7769 Y1.0068
X1.7732 Y1.0116
X1.7693 Y1.0161
X1.7651 Y1.0204
X1.7607 Y1.0244
X1.756 Y1.0282
X1.7511 Y1.0317
X1.746 Y1.0349
X1.7407 Y1.0377
X1.7353 Y1.0403
X1.7297 Y1.0425
X1.7241 Y1.0444
X1.7183 Y1.046
X1.7124 Y1.0472
X1.7065 Y1.0481
X1.7005 Y1.0487
X1.6945 Y1.0489
X1.6885 Y1.0487
X1.6825 Y1.0482
X1.6766 Y1.0474
X1.6707 Y1.0463
X1.6649 Y1.0448
X1.6592 Y1.0429
X1.6536 Y1.0408
X1.6481 Y1.0383
X1.6428 Y1.0356
X1.6376 Y1.0325
X1.6326 Y1.0291
X1.6279 Y1.0255
X1.6233 Y1.0216
X1.619 Y1.0175
X1.6149 Y1.0131
X1.611 Y1.0085
X1.6074 Y1.0037
X1.6041 Y0.9986
X1.6011 Y0.9935
X1.5984 Y0.9881
X1.596 Y0.9826
X1.5939 Y0.977
X1.5921 Y0.9713
X1.5907 Y0.9654
X1.5896 Y0.9595
X1.5888 Y0.9536
X1.5883 Y0.9476
X1.5882 Y0.9416
X1.5884 Y0.9356
X1.589 Y0.9296
X1.5899 Y0.9237
X1.5911 Y0.9178
X1.5927 Y0.912
X1.5946 Y0.9063
X1.5968 Y0.9008
X1.5993 Y0.8953
X1.6021 Y0.89
X1.6052 Y0.8849
X1.6086 Y0.8799
X1.6123 Y0.8752
X1.6162 Y0.8706
X1.6204 Y0.8663
X1.6248 Y0.8623
X1.6294 Y0.8585
X1.6343 Y0.8549
X1.6393 Y0.8516
X1.6445 Y0.8487
X1.6499 Y0.846
X1.6554 Y0.8436
X1.661 Y0.8416
X1.6668 Y0.8398
X1.6726 Y0.8384
X1.6785 Y0.8373
X1.6845 Y0.8366
X1.6904 Y0.8361
X1.6964
X1.7024 Y0.8363
X1.7084 Y0.8369
X1.7143 Y0.8379
X1.7202 Y0.8391
X1.726 Y0.8407
X1.7317 Y0.8426
X1.7372 Y0.8449
X1.7427 Y0.8474
X1.7479 Y0.8503
X1.7531 Y0.8534
X1.758 Y0.8568
X1.7628 Y0.8605
X1.7673 Y0.8644
X1.7716 Y0.8686
X1.7757 Y0.8729
X1.7796 Y0.8775
X1.7832 Y0.8823
X1.7865 Y0.8873
X1.7896 Y0.8925
X1.7924 Y0.8978
X1.7949 Y0.9032
X1.7971 Y0.9088
X1.7991 Y0.9145
X1.8007 Y0.9203
X1.802 Y0.9261
X1.8031 Y0.932
X1.8038 Y0.938
X1.8042 Y0.944
Y0.95
X1.804 Y0.956
X1.8034 Y0.9619
X1.8024 Y0.9679
X1.8012 Y0.9737
X1.7996 Y0.9795
X1.7977 Y0.9852
X1.7956 Y0.9908
X1.7931 Y0.9963
X1.7903 Y1.0016
X1.7872 Y1.0067
X1.7838 Y1.0117
X1.7802 Y1.0165
X1.7763 Y1.021
X1.7722 Y1.0254
X1.7678 Y1.0295
X1.7632 Y1.0333
X1.7584 Y1.0369
X1.7534 Y1.0403
X1.7482 Y1.0433
X1.7429 Y1.0461
X1.7375 Y1.0486
X1.7319 Y1.0508
X1.7262 Y1.0527
X1.7204 Y1.0542
X1.7145 Y1.0555
X1.7086 Y1.0565
X1.7026 Y1.0571
X1.6966 Y1.0574
X1.6906
X1.6847 Y1.057
X1.6787 Y1.0564
X1.6728 Y1.0554
X1.6669 Y1.0541
X1.6611 Y1.0526
X1.6554 Y1.0507
X1.6498 Y1.0485
X1.6444 Y1.046
X1.639 Y1.0433
X1.6338 Y1.0403
X1.6288 Y1.037
X1.624 Y1.0334
X1.6194 Y1.0296
X1.6149 Y1.0256
X1.6107 Y1.0213
X1.6067 Y1.0168
X1.603 Y1.0121
X1.5995 Y1.0072
X1.5962 Y1.0022
X1.5933 Y0.997
X1.5906 Y0.9916
X1.5882 Y0.9861
X1.586 Y0.9805
X1.5842 Y0.9748
X1.5827 Y0.969
X1.5815 Y0.9631
X1.5805 Y0.9572
X1.5799 Y0.9512
X1.5797 Y0.9452
Y0.9392
X1.58 Y0.9332
X1.5807 Y0.9273
X1.5816 Y0.9214
X1.5829 Y0.9155
X1.5844 Y0.9097
X1.5863 Y0.904
X1.5884 Y0.8984
X1.5909 Y0.8929
X1.5936 Y0.8876
X1.5966 Y0.8824
X1.5999 Y0.8774
X1.6034 Y0.8725
X1.6072 Y0.8678
X1.6112 Y0.8634
X1.6155 Y0.8591
X1.6199 Y0.8551
X1.6246 Y0.8513
X1.6294 Y0.8478
X1.6345 Y0.8445
X1.6396 Y0.8415
X1.645 Y0.8388
X1.6505 Y0.8363
X1.6561 Y0.8342
X1.6618 Y0.8323
X1.6676 Y0.8307
X1.6734 Y0.8295
X1.6793 Y0.8285
X1.6853 Y0.8279
X1.6913 Y0.8275
X1.6973
X1.7033 Y0.8278
X1.7093 Y0.8284
X1.7152 Y0.8293
X1.7211 Y0.8305
X1.7269 Y0.832
X1.7326 Y0.8338
X1.7382 Y0.836
X1.7437 Y0.8384
X1.7491 Y0.841
X1.7543 Y0.844
X1.7594 Y0.8472
X1.7642 Y0.8507
X1.769 Y0.8544
X1.7735 Y0.8583
X1.7778 Y0.8625
X1.7819 Y0.8669
X1.7858 Y0.8714
X1.7895 Y0.8762
X1.7929 Y0.8811
X1.796 Y0.8862
X1.799 Y0.8915
X1.8016 Y0.8969
X1.804 Y0.9024
X1.8061 Y0.908
X1.808 Y0.9137
X1.8095 Y0.9195
X1.8108 Y0.9253
X1.8118 Y0.9313
X1.8125 Y0.9372
X1.8128 Y0.9432
X1.8129 Y0.9492
X1.8127 Y0.9552
X1.8122 Y0.9612
X1.8114 Y0.9671
X1.8103 Y0.973
X1.8088 Y0.9788
X1.8071 Y0.9846
X1.8051 Y0.9902
X1.8028 Y0.9958
X1.8002 Y1.0012
X1.7974 Y1.0065
X1.7943 Y1.0116
X1.7909 Y1.0166
X1.7873 Y1.0214
X1.7835 Y1.026
X1.7794 Y1.0304
X1.7751 Y1.0346
X1.7706 Y1.0385
X1.7658 Y1.0422
X1.7609 Y1.0457
X1.7559 Y1.0489
X1.7507 Y1.0519
X1.7453 Y1.0546
X1.7398 Y1.057
X1.7342 Y1.0592
X1.7285 Y1.061
X1.7227 Y1.0626
X1.7169 Y1.0639
X1.711 Y1.0649
X1.705 Y1.0656
X1.699 Y1.066
X1.693 Y1.0661
X1.687 Y1.0659
X1.681 Y1.0655
X1.6751 Y1.0647
X1.6692 Y1.0636
X1.6633 Y1.0623
X1.6576 Y1.0606
X1.6519 Y1.0587
X1.6463 Y1.0565
X1.6408 Y1.054
X1.6355 Y1.0513
X1.6303 Y1.0483
X1.6252 Y1.0451
X1.6203 Y1.0416
X1.6156 Y1.0379
X1.6111 Y1.034
X1.6068 Y1.0298
X1.6027 Y1.0254
X1.5988 Y1.0209
X1.5951 Y1.0162
X1.5916 Y1.0112
X1.5884 Y1.0062
X1.5855 Y1.001
X1.5828 Y0.9956
X1.5803 Y0.9901
X1.5797 Y0.9885
X1.578 Y0.9835
X1.5768 Y0.9783
X1.5762 Y0.9731
X1.5735 Y0.9393
X1.5733 Y0.9333
X1.5735 Y0.9273
X1.574 Y0.9213
X1.5749 Y0.9154
X1.5761 Y0.9095
X1.5777 Y0.9037
X1.5796 Y0.898
X1.5818 Y0.8925
X1.5843 Y0.887
X1.5871 Y0.8817
X1.5902 Y0.8765
X1.5935 Y0.8715
X1.597 Y0.8667
X1.6008 Y0.862
X1.6048 Y0.8575
X1.609 Y0.8533
X1.6134 Y0.8492
X1.618 Y0.8454
X1.6228 Y0.8418
X1.6278 Y0.8384
X1.6329 Y0.8353
X1.6382 Y0.8324
X1.6436 Y0.8298
X1.6491 Y0.8274
X1.6547 Y0.8254
X1.6605 Y0.8236
X1.6663 Y0.822
X1.6721 Y0.8208
X1.6781 Y0.8198
X1.684 Y0.8192
X1.69 Y0.8188
X1.696 Y0.8187
X1.702 Y0.8189
X1.708 Y0.8194
X1.7139 Y0.8202
X1.7198 Y0.8212
X1.7257 Y0.8226
X1.7314 Y0.8242
X1.7371 Y0.8262
X1.7427 Y0.8283
X1.7482 Y0.8308
X1.7536 Y0.8335
X1.7588 Y0.8364
X1.7639 Y0.8396
X1.7688 Y0.8431
X1.7735 Y0.8467
X1.7781 Y0.8506
X1.7825 Y0.8547
X1.7867 Y0.859
X1.7907 Y0.8635
X1.7945 Y0.8681
X1.798 Y0.8729
X1.8014 Y0.8779
X1.8045 Y0.8831
X1.806 Y0.8859
X1.809 Y0.8923
X1.8111 Y0.8989
X1.8123 Y0.9058
X1.8128 Y0.9104
X1.8146 Y0.9277
X1.8151 Y0.9335
X1.8163 Y0.9509
X1.8169 Y0.9624
Y0.9684
X1.8165 Y0.9744
X1.8157 Y0.9803
X1.8144 Y0.9862
X1.8127 Y0.992
X1.8107 Y0.9976
X1.8084 Y1.0032
X1.8058 Y1.0086
X1.8029 Y1.0138
X1.7997 Y1.0189
X1.7963 Y1.0238
X1.7926 Y1.0286
X1.7887 Y1.0331
X1.7846 Y1.0375
X1.7802 Y1.0416
X1.7757 Y1.0456
X1.771 Y1.0493
X1.7661 Y1.0528
X1.7611 Y1.056
X1.7559 Y1.0591
X1.7506 Y1.0618
X1.7451 Y1.0644
X1.7396 Y1.0666
X1.7339 Y1.0686
X1.7282 Y1.0703
X1.7223 Y1.0718
X1.7165 Y1.073
X1.7105 Y1.0739
X1.7046 Y1.0745
X1.6986 Y1.0749
X1.6926 Y1.075
X1.6866 Y1.0748
X1.6806 Y1.0743
X1.6746 Y1.0736
X1.6687 Y1.0726
X1.6629 Y1.0713
X1.6571 Y1.0698
X1.6514 Y1.068
X1.6457 Y1.0659
X1.6402 Y1.0636
X1.6348 Y1.061
X1.6295 Y1.0582
X1.6243 Y1.0551
X1.6193 Y1.0518
X1.6144 Y1.0483
X1.6097 Y1.0446
X1.6052 Y1.0406
X1.6009 Y1.0365
X1.5967 Y1.0322
X1.5928 Y1.0276
X1.589 Y1.023
X1.5869 Y1.0201
X1.5818 Y1.0112
X1.5786 Y1.0015
X1.5776 Y0.9913
X1.5767 Y0.9798
X1.5762 Y0.9731
G3 X1.5881 Y0.96 I0.0125 J-0.0006
G1 X1.5994 Y0.9596
X1.7921 Y0.9515
X1.8039 Y0.951
G3 X1.8169 Y0.9624 I0.0005 J0.0125
G1 X1.8172 Y0.9682
X1.8174 Y0.974
X1.8176 Y0.9855
X1.8174 Y0.9915
X1.8166 Y0.9975
X1.8152 Y1.0033
X1.8132 Y1.009
X1.8109 Y1.0145
X1.8082 Y1.0199
X1.8051 Y1.025
X1.8018 Y1.03
X1.7982 Y1.0348
X1.7944 Y1.0394
X1.7903 Y1.0438
X1.786 Y1.048
X1.7815 Y1.052
X1.7769 Y1.0558
X1.7721 Y1.0594
X1.7671 Y1.0627
X1.7619 Y1.0659
X1.7567 Y1.0687
X1.7513 Y1.0714
X1.7458 Y1.0738
X1.7402 Y1.0759
X1.7345 Y1.0778
X1.7287 Y1.0795
X1.7229 Y1.0809
X1.717 Y1.082
X1.7111 Y1.0829
X1.7051 Y1.0835
X1.6991 Y1.0839
X1.6931 Y1.084
X1.6871 Y1.0838
X1.6811 Y1.0834
X1.6752 Y1.0828
X1.6692 Y1.0819
X1.6634 Y1.0807
X1.6575 Y1.0793
X1.6518 Y1.0776
X1.6461 Y1.0757
X1.6405 Y1.0735
X1.635 Y1.0711
X1.6296 Y1.0685
X1.6243 Y1.0656
X1.6192 Y1.0625
X1.6142 Y1.0592
X1.6093 Y1.0557
X1.6046 Y1.052
X1.6 Y1.0481
X1.5956 Y1.044
X1.5914 Y1.0397
X1.5909 Y1.0391
X1.5852 Y1.0313
X1.581 Y1.0225
X1.5784 Y1.0131
X1.5776 Y1.0034
Y0.9913
G3 X1.5897 Y0.9793 I0.0125 J0.0005
G1 X1.6018 Y0.979
X1.7931 Y0.9741
X1.8048 Y0.9738
G3 X1.8176 Y0.9855 I0.0003 J0.0125
G1 X1.8177 Y0.9913
Y1.0029
X1.8174 Y1.0089
X1.8163 Y1.0148
X1.8146 Y1.0205
X1.8122 Y1.026
X1.8095 Y1.0314
X1.8064 Y1.0365
X1.8029 Y1.0414
X1.7992 Y1.0461
X1.7952 Y1.0506
X1.791 Y1.0549
X1.7866 Y1.059
X1.782 Y1.0628
X1.7772 Y1.0664
X1.7723 Y1.0699
X1.7672 Y1.0731
X1.762 Y1.076
X1.7567 Y1.0788
X1.7512 Y1.0813
X1.7456 Y1.0835
X1.74 Y1.0856
X1.7343 Y1.0874
X1.7285 Y1.0889
X1.7226 Y1.0902
X1.7167 Y1.0913
X1.7108 Y1.0921
X1.7048 Y1.0927
X1.6988 Y1.093
X1.6928 Y1.0931
X1.6868 Y1.093
X1.6808 Y1.0926
X1.6749 Y1.092
X1.6689 Y1.0911
X1.663 Y1.09
X1.6572 Y1.0886
X1.6514 Y1.0871
X1.6457 Y1.0852
X1.64 Y1.0832
X1.6345 Y1.0809
X1.629 Y1.0784
X1.6237 Y1.0757
X1.6184 Y1.0728
X1.6133 Y1.0697
X1.6083 Y1.0664
X1.6035 Y1.0628
X1.5988 Y1.0591
X1.5943 Y1.0551
X1.5933 Y1.0541
X1.5859 Y1.045
X1.5807 Y1.0346
X1.5778 Y1.0232
X1.5774 Y1.0115
G3 X1.5892 Y1.0004 I0.0124 J0.0014
G1 X1.6024 Y0.9998
X1.7935 Y0.9913
X1.8047 Y0.9908
G3 X1.8177 Y1.0029 I0.0005 J0.0125
G1 Y1.0087
X1.8175 Y1.0191
X1.8171 Y1.025
X1.8156 Y1.0309
X1.8134 Y1.0365
X1.8107 Y1.0418
X1.8076 Y1.0469
X1.8041 Y1.0518
X1.8004 Y1.0565
X1.7963 Y1.0609
X1.7921 Y1.0652
X1.7876 Y1.0691
X1.7829 Y1.0729
X1.7781 Y1.0765
X1.7731 Y1.0798
X1.7679 Y1.0829
X1.7627 Y1.0858
X1.7573 Y1.0884
X1.7518 Y1.0908
X1.7462 Y1.093
X1.7405 Y1.095
X1.7348 Y1.0967
X1.729 Y1.0982
X1.7231 Y1.0995
X1.7172 Y1.1005
X1.7113 Y1.1013
X1.7053 Y1.1019
X1.6993 Y1.1022
X1.6933 Y1.1024
X1.6873 Y1.1023
X1.6813 Y1.1019
X1.6753 Y1.1013
X1.6694 Y1.1006
X1.6635 Y1.0995
X1.6576 Y1.0983
X1.6518 Y1.0968
X1.646 Y1.0951
X1.6403 Y1.0932
X1.6347 Y1.0911
X1.6292 Y1.0888
X1.6238 Y1.0862
X1.6184 Y1.0835
X1.6132 Y1.0805
X1.6081 Y1.0774
X1.6031 Y1.074
X1.5984 Y1.0703
X1.5938 Y1.0664
X1.5929 Y1.0655
X1.5853 Y1.0563
X1.5799 Y1.0457
X1.5769 Y1.0341
X1.5766 Y1.0221
X1.5774 Y1.0115
G3 X1.5902 Y1.0004 I0.0124 J0.0014
G1 X1.6024 Y1.0007
X1.7936 Y1.0064
X1.8054 Y1.0067
G3 X1.8175 Y1.0191 I-0.0004 J0.0125
G1 X1.8174 Y1.026
X1.8172 Y1.0318
X1.8166 Y1.0378
X1.8151 Y1.0436
X1.8129 Y1.0492
X1.8101 Y1.0545
X1.8068 Y1.0595
X1.8032 Y1.0643
X1.7993 Y1.0688
X1.7951 Y1.0731
X1.7907 Y1.0772
X1.7861 Y1.081
X1.7813 Y1.0846
X1.7763 Y1.088
X1.7712 Y1.0911
X1.7659 Y1.094
X1.7606 Y1.0967
X1.7551 Y1.0992
X1.7495 Y1.1014
X1.7439 Y1.1035
X1.7382 Y1.1053
X1.7324 Y1.1068
X1.7265 Y1.1082
X1.7206 Y1.1093
X1.7147 Y1.1102
X1.7088 Y1.1109
X1.7028 Y1.1114
X1.6968 Y1.1117
X1.6908
X1.6848 Y1.1115
X1.6788 Y1.1111
X1.6728 Y1.1105
X1.6669 Y1.1097
X1.661 Y1.1086
X1.6551 Y1.1073
X1.6493 Y1.1059
X1.6435 Y1.1042
X1.6378 Y1.1023
X1.6322 Y1.1002
X1.6267 Y1.0979
X1.6212 Y1.0954
X1.6159 Y1.0927
X1.6106 Y1.0898
X1.6055 Y1.0867
X1.6006 Y1.0833
X1.5959 Y1.0795
X1.5913 Y1.0756
X1.5909 Y1.0752
X1.5838 Y1.0661
X1.5788 Y1.0557
X1.576 Y1.0445
X1.5757 Y1.0329
X1.5766 Y1.0221
G3 X1.5894 Y1.0111 I0.0124 J0.0015
G1 X1.6017 Y1.0115
X1.7934 Y1.0189
X1.8051 Y1.0193
G3 X1.8172 Y1.0318 I-0.0004 J0.0125
G1 X1.8165 Y1.0451
X1.8159 Y1.0511
X1.8142 Y1.0569
X1.8118 Y1.0623
X1.8088 Y1.0675
X1.8053 Y1.0724
X1.8015 Y1.0771
X1.7974 Y1.0814
X1.7931 Y1.0856
X1.7885 Y1.0895
X1.7837 Y1.0931
X1.7788 Y1.0965
X1.7737 Y1.0997
X1.7685 Y1.1026
X1.7631 Y1.1054
X1.7577 Y1.1079
X1.7521 Y1.1101
X1.7465 Y1.1122
X1.7408 Y1.1141
X1.735 Y1.1157
X1.7292 Y1.1171
X1.7233 Y1.1183
X1.7174 Y1.1193
X1.7114 Y1.1201
X1.7055 Y1.1206
X1.6995 Y1.121
X1.6935 Y1.1211
X1.6875
X1.6815 Y1.1208
X1.6755 Y1.1203
X1.6695 Y1.1196
X1.6636 Y1.1187
X1.6577 Y1.1176
X1.6518 Y1.1163
X1.646 Y1.1148
X1.6403 Y1.1131
X1.6346 Y1.1112
X1.629 Y1.1091
X1.6234 Y1.1068
X1.618 Y1.1043
X1.6126 Y1.1016
X1.6074 Y1.0986
X1.6023 Y1.0955
X1.5974 Y1.092
X1.5928 Y1.0882
X1.5922 Y1.0876
X1.5842 Y1.0783
X1.5785 Y1.0675
X1.5753 Y1.0556
X1.5749 Y1.0433
X1.5757 Y1.0329
G3 X1.5887 Y1.0218 I0.0124 J0.0014
G1 X1.6008 Y1.0224
X1.7929 Y1.0318
X1.8046 Y1.0324
G3 X1.8165 Y1.0451 I-0.0006 J0.0125
G1 X1.8163 Y1.0491
X1.8157 Y1.0581
X1.815 Y1.0641
X1.8131 Y1.0698
X1.8104 Y1.0751
X1.8072 Y1.0802
X1.8036 Y1.085
X1.7996 Y1.0895
X1.7954 Y1.0937
X1.7909 Y1.0977
X1.7862 Y1.1014
X1.7813 Y1.1049
X1.7762 Y1.1081
X1.771 Y1.1111
X1.7657 Y1.1139
X1.7603 Y1.1165
X1.7548 Y1.1188
X1.7491 Y1.1209
X1.7435 Y1.1228
X1.7377 Y1.1245
X1.7319 Y1.126
X1.726 Y1.1273
X1.7201 Y1.1283
X1.7142 Y1.1292
X1.7082 Y1.1299
X1.7022 Y1.1303
X1.6962 Y1.1306
X1.6902
X1.6842 Y1.1305
X1.6782 Y1.1301
X1.6723 Y1.1296
X1.6663 Y1.1288
X1.6604 Y1.1279
X1.6545 Y1.1267
X1.6487 Y1.1254
X1.6429 Y1.1239
X1.6371 Y1.1221
X1.6314 Y1.1202
X1.6258 Y1.1181
X1.6203 Y1.1158
X1.6148 Y1.1132
X1.6095 Y1.1105
X1.6043 Y1.1075
X1.5993 Y1.1042
X1.5945 Y1.1006
X1.5899 Y1.0967
X1.5897 Y1.0964
X1.5824 Y1.0873
X1.5772 Y1.0768
X1.5744 Y1.0655
X1.5741 Y1.0538
X1.5749 Y1.0433
G3 X1.588 Y1.0323 I0.0124 J0.0015
G1 X1.6 Y1.033
X1.7923 Y1.0445
X1.8039 Y1.0452
G3 X1.8157 Y1.0581 I-0.0007 J0.0125
G1 X1.8151 Y1.0665
X1.8148 Y1.0697
X1.814 Y1.0756
X1.8121 Y1.0813
X1.8094 Y1.0867
X1.8061 Y1.0917
X1.8024 Y1.0964
X1.7984 Y1.1008
X1.794 Y1.105
X1.7894 Y1.1088
X1.7846 Y1.1125
X1.7797 Y1.1158
X1.7746 Y1.119
X1.7693 Y1.1219
X1.7639 Y1.1245
X1.7584 Y1.127
X1.7529 Y1.1292
X1.7472 Y1.1312
X1.7415 Y1.133
X1.7357 Y1.1346
X1.7299 Y1.136
X1.724 Y1.1372
X1.7181 Y1.1382
X1.7121 Y1.139
X1.7062 Y1.1396
X1.7002 Y1.14
X1.6942 Y1.1401
X1.6882
X1.6822 Y1.14
X1.6762 Y1.1396
X1.6702 Y1.139
X1.6643 Y1.1382
X1.6584 Y1.1373
X1.6525 Y1.1361
X1.6466 Y1.1348
X1.6408 Y1.1333
X1.6351 Y1.1316
X1.6294 Y1.1296
X1.6238 Y1.1275
X1.6182 Y1.1252
X1.6128 Y1.1227
X1.6075 Y1.1199
X1.6023 Y1.1169
X1.5973 Y1.1136
X1.5925 Y1.1099
X1.5917 Y1.1092
X1.5832 Y1.0998
X1.5771 Y1.0887
X1.5737 Y1.0765
X1.5733 Y1.0639
X1.5741 Y1.0538
G3 X1.5873 Y1.0427 I0.0124 J0.0014
G1 X1.5992 Y1.0435
X1.7918 Y1.0558
X1.8031 Y1.0565
G3 X1.8148 Y1.0697 I-0.0008 J0.0125
G1 X1.814 Y1.0781
X1.8135 Y1.0827
X1.8126 Y1.0886
X1.8104 Y1.0942
X1.8074 Y1.0994
X1.8039 Y1.1043
X1.8 Y1.1088
X1.7958 Y1.1131
X1.7913 Y1.1171
X1.7866 Y1.1208
X1.7817 Y1.1242
X1.7767 Y1.1275
X1.7714 Y1.1304
X1.7661 Y1.1332
X1.7607 Y1.1357
X1.7551 Y1.138
X1.7495 Y1.1401
X1.7438 Y1.1419
X1.738 Y1.1436
X1.7322 Y1.1451
X1.7263 Y1.1463
X1.7204 Y1.1474
X1.7145 Y1.1482
X1.7085 Y1.1489
X1.7025 Y1.1494
X1.6965 Y1.1497
X1.6905 Y1.1498
X1.6844 Y1.1497
X1.6783 Y1.1494
X1.6722 Y1.1489
X1.6661 Y1.1482
X1.66 Y1.1474
X1.6541 Y1.1463
X1.6482 Y1.1451
X1.6424 Y1.1437
X1.6366 Y1.1421
X1.6308 Y1.1403
X1.6252 Y1.1383
X1.6196 Y1.1361
X1.6141 Y1.1337
X1.6087 Y1.1311
X1.6035 Y1.1282
X1.5984 Y1.125
X1.5936 Y1.1214
X1.5889 Y1.1176
X1.5885 Y1.1172
X1.5811 Y1.108
X1.5757 Y1.0975
X1.5728 Y1.086
X1.5725 Y1.0741
X1.5733 Y1.0639
G3 X1.5866 Y1.0529 I0.0124 J0.0014
G1 X1.5984 Y1.0537
X1.7906 Y1.0685
X1.802 Y1.0694
G3 X1.8135 Y1.0827 I-0.0009 J0.0124
G1 X1.8128 Y1.0896
X1.8123 Y1.0937
X1.8114 Y1.0996
X1.8092 Y1.1052
X1.8062 Y1.1104
X1.8027 Y1.1152
X1.7987 Y1.1197
X1.7944 Y1.1239
X1.7899 Y1.1279
X1.7851 Y1.1315
X1.7802 Y1.1349
X1.7751 Y1.138
X1.7698 Y1.1409
X1.7644 Y1.1436
X1.759 Y1.146
X1.7534 Y1.1482
X1.7477 Y1.1503
X1.742 Y1.1521
X1.7362 Y1.1536
X1.7304 Y1.155
X1.7245 Y1.1562
X1.7186 Y1.1572
X1.7126 Y1.158
X1.7066 Y1.1587
X1.7005 Y1.1591
X1.6943 Y1.1594
X1.6881
X1.6819 Y1.1593
X1.6756 Y1.159
X1.6694 Y1.1584
X1.6632 Y1.1577
X1.657 Y1.1568
X1.6511 Y1.1557
X1.6452 Y1.1544
X1.6394 Y1.153
X1.6336 Y1.1513
X1.6279 Y1.1495
X1.6223 Y1.1474
X1.6167 Y1.1452
X1.6112 Y1.1427
X1.6059 Y1.14
X1.6007 Y1.137
X1.5957 Y1.1338
X1.5929 Y1.1317
X1.585 Y1.1242
X1.5787 Y1.1153
X1.5743 Y1.1054
X1.5719 Y1.0947
X1.5717 Y1.0838
X1.5725 Y1.0741
G3 X1.5859 Y1.0631 I0.0124 J0.0015
G1 X1.5975 Y1.064
X1.7896 Y1.0793
X1.8009 Y1.0802
G3 X1.8124 Y1.0937 I-0.001 J0.0125
G1 X1.8111 Y1.1044
X1.8102 Y1.1103
X1.808 Y1.1159
X1.805 Y1.1211
X1.8014 Y1.1259
X1.7974 Y1.1304
X1.7931 Y1.1346
X1.7885 Y1.1384
X1.7837 Y1.142
X1.7788 Y1.1454
X1.7736 Y1.1484
X1.7683 Y1.1513
X1.7629 Y1.1539
X1.7574 Y1.1562
X1.7518 Y1.1584
X1.7461 Y1.1604
X1.7404 Y1.1621
X1.7346 Y1.1636
X1.7287 Y1.165
X1.7228 Y1.1661
X1.7169 Y1.1671
X1.7108 Y1.1679
X1.7047 Y1.1685
X1.6985 Y1.1689
X1.6922 Y1.1691
X1.6858
X1.6795 Y1.1689
X1.6731 Y1.1686
X1.6668 Y1.168
X1.6606 Y1.1672
X1.6545 Y1.1662
X1.6485 Y1.1651
X1.6426 Y1.1638
X1.6368 Y1.1623
X1.6311 Y1.1606
X1.6254 Y1.1588
X1.6197 Y1.1567
X1.6142 Y1.1544
X1.6087 Y1.1519
X1.6034 Y1.1491
X1.5983 Y1.146
X1.5933 Y1.1426
X1.5887 Y1.1388
X1.5876 Y1.1378
X1.5804 Y1.1298
X1.575 Y1.1204
X1.5715 Y1.1102
X1.5701 Y1.0995
X1.5709 Y1.0887
X1.5717 Y1.0838
G3 X1.5849 Y1.074 I0.0122 J0.0026
G1 X1.5977 Y1.0749
X1.7884 Y1.09
X1.7997 Y1.0909
G3 X1.8112 Y1.1044 I-0.001 J0.0125
G1 X1.8108 Y1.107
X1.8093 Y1.1174
X1.8081 Y1.1232
X1.8055 Y1.1287
X1.8022 Y1.1337
X1.7985 Y1.1384
X1.7943 Y1.1427
X1.7898 Y1.1467
X1.7851 Y1.1504
X1.7802 Y1.1538
X1.7751 Y1.157
X1.7699 Y1.1599
X1.7645 Y1.1626
X1.759 Y1.1651
X1.7535 Y1.1673
X1.7478 Y1.1693
X1.7421 Y1.1712
X1.7363 Y1.1728
X1.7305 Y1.1742
X1.7246 Y1.1754
X1.7187 Y1.1764
X1.7126 Y1.1773
X1.7064 Y1.178
X1.7001 Y1.1785
X1.6937 Y1.1788
X1.6873 Y1.1789
X1.6808 Y1.1788
X1.6744 Y1.1784
X1.668 Y1.1779
X1.6617 Y1.1772
X1.6554 Y1.1763
X1.6494 Y1.1752
X1.6434 Y1.174
X1.6376 Y1.1726
X1.6318 Y1.171
X1.6261 Y1.1692
X1.6204 Y1.1672
X1.6148 Y1.1649
X1.6094 Y1.1625
X1.604 Y1.1598
X1.5988 Y1.1568
X1.5938 Y1.1535
X1.589 Y1.1499
X1.5845 Y1.146
X1.5837 Y1.1451
X1.5772 Y1.137
X1.5723 Y1.1277
X1.5694 Y1.1177
X1.5683 Y1.1074
X1.5693 Y1.097
X1.5709 Y1.0887
G3 X1.5845 Y1.0788 I0.0122 J0.0025
G1 X1.5969 Y1.0802
X1.7871 Y1.1022
X1.7983 Y1.1035
G3 X1.8093 Y1.1174 I-0.0014 J0.0124
G1 X1.8077 Y1.1275
X1.8065 Y1.1334
X1.8041 Y1.1389
X1.8009 Y1.1439
X1.7971 Y1.1486
X1.793 Y1.1529
X1.7885 Y1.1569
X1.7838 Y1.1606
X1.7788 Y1.164
X1.7737 Y1.1672
X1.7685 Y1.1701
X1.7631 Y1.1727
X1.7576 Y1.1752
X1.752 Y1.1774
X1.7464 Y1.1794
X1.7406 Y1.1811
X1.7348 Y1.1827
X1.729 Y1.1841
X1.7231 Y1.1853
X1.7171 Y1.1863
X1.711 Y1.1872
X1.7048 Y1.1878
X1.6984 Y1.1883
X1.692 Y1.1886
X1.6855
X1.679 Y1.1885
X1.6725 Y1.1881
X1.666 Y1.1876
X1.6596 Y1.1869
X1.6534 Y1.1859
X1.6473 Y1.1848
X1.6414 Y1.1836
X1.6356 Y1.1821
X1.6298 Y1.1805
X1.6241 Y1.1787
X1.6185 Y1.1766
X1.6129 Y1.1744
X1.6075 Y1.1719
X1.6021 Y1.1691
X1.5969 Y1.1661
X1.5919 Y1.1629
X1.5871 Y1.1592
X1.5826 Y1.1553
X1.5817 Y1.1543
X1.5751 Y1.1459
X1.5702 Y1.1363
X1.5673 Y1.126
X1.5664 Y1.1153
X1.5677 Y1.1046
X1.5685 Y1.1012
X1.5693 Y1.097
G3 X1.583 Y1.0874 I0.0122 J0.0028
G1 X1.5955 Y1.0889
X1.7856 Y1.1122
X1.7968 Y1.1136
G3 X1.8077 Y1.1275 I-0.0015 J0.0124
G1 X1.8059 Y1.1388
X1.8047 Y1.1447
X1.8021 Y1.1501
X1.7988 Y1.1551
X1.795 Y1.1597
X1.7907 Y1.164
X1.7862 Y1.1679
X1.7814 Y1.1715
X1.7764 Y1.1749
X1.7713 Y1.1779
X1.766 Y1.1807
X1.7605 Y1.1833
X1.755 Y1.1857
X1.7494 Y1.1878
X1.7437 Y1.1897
X1.738 Y1.1914
X1.7322 Y1.1929
X1.7263 Y1.1943
X1.7203 Y1.1954
X1.7142 Y1.1964
X1.708 Y1.1972
X1.7016 Y1.1978
X1.6952 Y1.1982
X1.6887 Y1.1984
X1.6822
X1.6756 Y1.1982
X1.6691 Y1.1978
X1.6627 Y1.1971
X1.6564 Y1.1963
X1.6502 Y1.1954
X1.6442 Y1.1942
X1.6384 Y1.1929
X1.6326 Y1.1914
X1.6268 Y1.1897
X1.6211 Y1.1878
X1.6155 Y1.1857
X1.61 Y1.1834
X1.6045 Y1.1808
X1.5992 Y1.178
X1.5941 Y1.1749
X1.5891 Y1.1716
X1.5844 Y1.1678
X1.5799 Y1.1638
X1.5789 Y1.1628
X1.5724 Y1.1543
X1.5677 Y1.1446
X1.565 Y1.1342
X1.5643 Y1.1235
X1.5658 Y1.1129
X1.5675 Y1.1057
X1.5677 Y1.1046
G3 X1.5815 Y1.0954 I0.0121 J0.0032
G1 X1.5942 Y1.0971
X1.7839 Y1.1234
X1.7952 Y1.125
G3 X1.8058 Y1.1388 I-0.0017 J0.0123
G1 X1.8046 Y1.1474
X1.804 Y1.1504
X1.8025 Y1.1562
X1.7998 Y1.1616
X1.7963 Y1.1665
X1.7924 Y1.171
X1.7881 Y1.1752
X1.7835 Y1.179
X1.7786 Y1.1825
X1.7736 Y1.1858
X1.7684 Y1.1888
X1.763 Y1.1915
X1.7576 Y1.194
X1.752 Y1.1963
X1.7464 Y1.1983
X1.7407 Y1.2001
X1.7349 Y1.2018
X1.7291 Y1.2032
X1.7232 Y1.2045
X1.7171 Y1.2056
X1.7109 Y1.2065
X1.7046 Y1.2072
X1.6982 Y1.2077
X1.6917 Y1.2081
X1.6852 Y1.2082
X1.6786 Y1.2081
X1.6721 Y1.2078
X1.6656 Y1.2073
X1.6592 Y1.2067
X1.6529 Y1.2058
X1.6468 Y1.2047
X1.6409 Y1.2035
X1.6351 Y1.2021
X1.6293 Y1.2006
X1.6236 Y1.1988
X1.6179 Y1.1968
X1.6123 Y1.1946
X1.6068 Y1.1922
X1.6014 Y1.1896
X1.5961 Y1.1867
X1.591 Y1.1836
X1.5861 Y1.1802
X1.5815 Y1.1764
X1.577 Y1.1723
X1.5762 Y1.1713
X1.5699 Y1.1629
X1.5653 Y1.1533
X1.5627 Y1.1431
X1.5621 Y1.1325
X1.5636 Y1.122
X1.5658 Y1.1129
G3 X1.5797 Y1.1039 I0.012 J0.0033
G1 X1.5924 Y1.1058
X1.7825 Y1.1344
X1.7935 Y1.136
G3 X1.804 Y1.1504 I-0.0019 J0.0124
G1 X1.8019 Y1.1607
X1.8005 Y1.1666
X1.7978 Y1.172
X1.7944 Y1.1769
X1.7904 Y1.1814
X1.7861 Y1.1856
X1.7815 Y1.1894
X1.7766 Y1.1929
X1.7716 Y1.1961
X1.7663 Y1.1991
X1.761 Y1.2018
X1.7555 Y1.2042
X1.7499 Y1.2064
X1.7443 Y1.2084
X1.7386 Y1.2102
X1.7328 Y1.2118
X1.7269 Y1.2133
X1.721 Y1.2145
X1.715 Y1.2155
X1.7088 Y1.2164
X1.7025 Y1.2171
X1.6961 Y1.2176
X1.6896 Y1.2179
X1.683 Y1.218
X1.6765 Y1.2179
X1.6699 Y1.2175
X1.6634 Y1.217
X1.657 Y1.2163
X1.6507 Y1.2154
X1.6446 Y1.2143
X1.6387 Y1.2131
X1.6329 Y1.2116
X1.6271 Y1.21
X1.6214 Y1.2082
X1.6157 Y1.2062
X1.6101 Y1.204
X1.6046 Y1.2016
X1.5993 Y1.199
X1.594 Y1.1961
X1.5889 Y1.1929
X1.584 Y1.1895
X1.5793 Y1.1857
X1.5749 Y1.1816
X1.5741 Y1.1807
X1.5677 Y1.1722
X1.5632 Y1.1626
X1.5605 Y1.1523
X1.5599 Y1.1417
X1.5614 Y1.1312
X1.5636 Y1.122
G3 X1.5776 Y1.1131 I0.012 J0.0034
G1 X1.5901 Y1.115
X1.7804 Y1.1447
X1.7915 Y1.1464
G3 X1.8019 Y1.1607 I-0.0019 J0.0123
G1 X1.8008 Y1.1665
X1.7995 Y1.1723
X1.798 Y1.1781
X1.7951 Y1.1834
X1.7916 Y1.1882
X1.7875 Y1.1927
X1.7831 Y1.1967
X1.7784 Y1.2005
X1.7735 Y1.2039
X1.7684 Y1.207
X1.7631 Y1.2099
X1.7577 Y1.2125
X1.7522 Y1.2149
X1.7466 Y1.217
X1.7409 Y1.219
X1.7352 Y1.2207
X1.7294 Y1.2222
X1.7235 Y1.2235
X1.7176 Y1.2247
X1.7114 Y1.2257
X1.7052 Y1.2265
X1.6988 Y1.2271
X1.6923 Y1.2275
X1.6858 Y1.2277
X1.6792
X1.6727 Y1.2275
X1.6661 Y1.2271
X1.6597 Y1.2265
X1.6533 Y1.2257
X1.647 Y1.2247
X1.6409 Y1.2236
X1.635 Y1.2223
X1.6292 Y1.2208
X1.6234 Y1.2191
X1.6177 Y1.2172
X1.6121 Y1.2151
X1.6065 Y1.2128
X1.6011 Y1.2103
X1.5957 Y1.2076
X1.5905 Y1.2046
X1.5855 Y1.2014
X1.5806 Y1.1979
X1.5761 Y1.194
X1.5717 Y1.1898
X1.571 Y1.189
X1.565 Y1.1806
X1.5607 Y1.1712
X1.5582 Y1.1611
X1.5577 Y1.1508
X1.5592 Y1.1405
X1.5614 Y1.1312
G3 X1.5755 Y1.1223 I0.012 J0.0034
G1 X1.5879 Y1.1243
X1.7783 Y1.1559
X1.7893 Y1.1578
G3 X1.7995 Y1.1723 I-0.0021 J0.0123
G1 X1.7974 Y1.1821
X1.797 Y1.1839
X1.7953 Y1.1896
X1.7923 Y1.1948
X1.7886 Y1.1996
X1.7845 Y1.2039
X1.78 Y1.2079
X1.7752 Y1.2115
X1.7702 Y1.2149
X1.7651 Y1.2179
X1.7597 Y1.2207
X1.7543 Y1.2232
X1.7488 Y1.2255
X1.7431 Y1.2276
X1.7374 Y1.2294
X1.7317 Y1.2311
X1.7258 Y1.2325
X1.72 Y1.2338
X1.714 Y1.2349
X1.7078 Y1.2358
X1.7015 Y1.2365
X1.6951 Y1.2371
X1.6886 Y1.2374
X1.682 Y1.2375
X1.6755
X1.6689 Y1.2372
X1.6624 Y1.2367
X1.6559 Y1.236
X1.6495 Y1.2351
X1.6433 Y1.2341
X1.6372 Y1.2328
X1.6314 Y1.2315
X1.6256 Y1.2299
X1.6199 Y1.2281
X1.6142 Y1.2262
X1.6086 Y1.224
X1.6031 Y1.2217
X1.5976 Y1.2191
X1.5923 Y1.2163
X1.5872 Y1.2133
X1.5822 Y1.21
X1.5774 Y1.2064
X1.5729 Y1.2024
X1.5686 Y1.1982
X1.5681 Y1.1976
X1.5612 Y1.187
X1.5568 Y1.1751
X1.5554 Y1.1625
X1.5569 Y1.1499
X1.5592 Y1.1405
G3 X1.5734 Y1.1316 I0.012 J0.0034
G1 X1.5857 Y1.1337
X1.776 Y1.1672
X1.7869 Y1.1691
G3 X1.7971 Y1.1839 I-0.0022 J0.0124
G1 X1.796 Y1.1879
X1.7941 Y1.1954
X1.7923 Y1.2012
X1.7891 Y1.2063
X1.7854 Y1.2109
X1.7811 Y1.2152
X1.7766 Y1.2191
X1.7717 Y1.2226
X1.7667 Y1.2259
X1.7615 Y1.2288
X1.7561 Y1.2315
X1.7506 Y1.234
X1.745 Y1.2362
X1.7394 Y1.2382
X1.7336 Y1.2399
X1.7279 Y1.2415
X1.722 Y1.2429
X1.7161 Y1.2441
X1.7101 Y1.2451
X1.7039 Y1.2459
X1.6975 Y1.2466
X1.6911 Y1.247
X1.6846 Y1.2473
X1.678
X1.6714 Y1.2471
X1.6649 Y1.2468
X1.6583 Y1.2462
X1.6519 Y1.2454
X1.6456 Y1.2445
X1.6394 Y1.2433
X1.6333 Y1.242
X1.6275 Y1.2406
X1.6217 Y1.2389
X1.616 Y1.2371
X1.6104 Y1.2351
X1.6048 Y1.2328
X1.5993 Y1.2304
X1.5939 Y1.2277
X1.5887 Y1.2249
X1.5836 Y1.2217
X1.5786 Y1.2184
X1.5739 Y1.2147
X1.5708 Y1.2119
X1.5632 Y1.2032
X1.5576 Y1.1931
X1.5542 Y1.182
X1.5532 Y1.1705
X1.5547 Y1.159
X1.5569 Y1.1499
G3 X1.5712 Y1.1409 I0.0121 J0.0033
G1 X1.5834 Y1.1432
X1.7735 Y1.1785
X1.7842 Y1.1804
G3 X1.7941 Y1.1954 I-0.0023 J0.0123
G1 X1.7915 Y1.2053
X1.7897 Y1.211
X1.7868 Y1.2162
X1.7831 Y1.2209
X1.7789 Y1.2252
X1.7743 Y1.2291
X1.7695 Y1.2327
X1.7645 Y1.2359
X1.7592 Y1.2389
X1.7539 Y1.2416
X1.7484 Y1.244
X1.7428 Y1.2462
X1.7371 Y1.2482
X1.7314 Y1.2499
X1.7256 Y1.2515
X1.7198 Y1.2528
X1.7139 Y1.254
X1.7079 Y1.255
X1.7018 Y1.2558
X1.6955 Y1.2564
X1.6891 Y1.2568
X1.6826 Y1.257
X1.676 Y1.2571
X1.6694 Y1.2569
X1.6628 Y1.2565
X1.6562 Y1.2559
X1.6498 Y1.2551
X1.6434 Y1.2541
X1.6372 Y1.2529
X1.6312 Y1.2516
X1.6253 Y1.2501
X1.6196 Y1.2484
X1.6139 Y1.2466
X1.6082 Y1.2445
X1.6027 Y1.2423
X1.5972 Y1.2399
X1.5918 Y1.2372
X1.5865 Y1.2343
X1.5814 Y1.2312
X1.5765 Y1.2277
X1.5718 Y1.224
X1.5673 Y1.22
X1.5657 Y1.2182
X1.5591 Y1.2096
X1.5543 Y1.1998
X1.5516 Y1.1893
X1.551 Y1.1785
X1.5526 Y1.1677
X1.5547 Y1.159
G3 X1.5691 Y1.1502 I0.012 J0.0034
G1 X1.5813 Y1.1525
X1.771 Y1.1882
X1.7816 Y1.1903
G3 X1.7914 Y1.2052 I-0.0023 J0.0122
G1 X1.7888 Y1.2156
X1.787 Y1.2213
X1.7841 Y1.2266
X1.7804 Y1.2313
X1.7762 Y1.2356
X1.7716 Y1.2395
X1.7668 Y1.243
X1.7617 Y1.2462
X1.7565 Y1.2492
X1.7511 Y1.2518
X1.7456 Y1.2542
X1.74 Y1.2564
X1.7344 Y1.2583
X1.7286 Y1.2601
X1.7228 Y1.2616
X1.7169 Y1.2629
X1.711 Y1.264
X1.705 Y1.2649
X1.6988 Y1.2657
X1.6926 Y1.2663
X1.6862 Y1.2666
X1.6797 Y1.2668
X1.6731
X1.6665 Y1.2666
X1.6599 Y1.2661
X1.6534 Y1.2655
X1.6469 Y1.2646
X1.6405 Y1.2636
X1.6343 Y1.2624
X1.6282 Y1.261
X1.6224 Y1.2594
X1.6166 Y1.2577
X1.6109 Y1.2558
X1.6053 Y1.2538
X1.5997 Y1.2515
X1.5943 Y1.249
X1.5889 Y1.2463
X1.5837 Y1.2434
X1.5786 Y1.2402
X1.5737 Y1.2367
X1.5691 Y1.2329
X1.5668 Y1.2309
X1.5589 Y1.2219
X1.5531 Y1.2115
X1.5497 Y1.2001
X1.5487 Y1.1882
X1.5504 Y1.1763
X1.5526 Y1.1677
G3 X1.567 Y1.1589 I0.012 J0.0035
G1 X1.5791 Y1.1613
X1.7683 Y1.1985
X1.779 Y1.2006
G3 X1.7888 Y1.2156 I-0.0024 J0.0123
G1 X1.787 Y1.2226
X1.7857 Y1.2272
X1.7837 Y1.2329
X1.7806 Y1.238
X1.7767 Y1.2426
X1.7724 Y1.2468
X1.7678 Y1.2506
X1.7629 Y1.2541
X1.7578 Y1.2572
X1.7525 Y1.26
X1.7471 Y1.2626
X1.7415 Y1.2649
X1.7359 Y1.267
X1.7302 Y1.2688
X1.7244 Y1.2705
X1.7186 Y1.2719
X1.7127 Y1.2731
X1.7068 Y1.2742
X1.7007 Y1.275
X1.6945 Y1.2757
X1.6881 Y1.2762
X1.6817 Y1.2765
X1.6751 Y1.2766
X1.6686 Y1.2764
X1.662 Y1.2761
X1.6554 Y1.2756
X1.6489 Y1.2749
X1.6424 Y1.2739
X1.6361 Y1.2728
X1.6299 Y1.2715
X1.6239 Y1.27
X1.6181 Y1.2684
X1.6123 Y1.2666
X1.6067 Y1.2646
X1.6011 Y1.2625
X1.5956 Y1.2601
X1.5901 Y1.2575
X1.5848 Y1.2547
X1.5797 Y1.2517
X1.5747 Y1.2484
X1.5699 Y1.2447
X1.5653 Y1.2409
X1.561 Y1.2367
X1.557 Y1.2322
X1.5568 Y1.2319
X1.5513 Y1.2229
X1.5476 Y1.2129
X1.5459 Y1.2025
X1.5462 Y1.1919
X1.5486 Y1.1816
X1.5504 Y1.1763
G3 X1.5646 Y1.1685 I0.0117 J0.0045
G1 X1.5776 Y1.1712
X1.7656 Y1.2097
X1.7761 Y1.2119
G3 X1.7857 Y1.2272 I-0.0025 J0.0122
G1 X1.7821 Y1.2388
X1.78 Y1.2445
X1.7767 Y1.2495
X1.7728 Y1.254
X1.7684 Y1.2581
X1.7636 Y1.2618
X1.7587 Y1.2651
X1.7535 Y1.2682
X1.7482 Y1.2709
X1.7427 Y1.2734
X1.7371 Y1.2756
X1.7315 Y1.2776
X1.7257 Y1.2794
X1.7199 Y1.2809
X1.7141 Y1.2822
X1.7082 Y1.2834
X1.7022 Y1.2843
X1.6961 Y1.2851
X1.6899 Y1.2857
X1.6835 Y1.2861
X1.677 Y1.2863
X1.6704
X1.6639 Y1.286
X1.6573 Y1.2856
X1.6507 Y1.285
X1.6442 Y1.2842
X1.6378 Y1.2831
X1.6315 Y1.2819
X1.6254 Y1.2805
X1.6194 Y1.279
X1.6137 Y1.2773
X1.608 Y1.2754
X1.6024 Y1.2734
X1.5968 Y1.2711
X1.5913 Y1.2686
X1.586 Y1.266
X1.5807 Y1.263
X1.5756 Y1.2599
X1.5706 Y1.2565
X1.5659 Y1.2529
X1.5614 Y1.2489
X1.5572 Y1.2446
X1.5532 Y1.2401
X1.5526 Y1.2391
X1.5471 Y1.2297
X1.5437 Y1.2193
X1.5425 Y1.2084
X1.5434 Y1.1975
X1.5464 Y1.1871
X1.5484 Y1.1821
X1.5486 Y1.1816
G3 X1.5632 Y1.1738 I0.0117 J0.0044
G1 X1.5757 Y1.1768
X1.7623 Y1.2209
X1.7729 Y1.2234
G3 X1.782 Y1.2388 I-0.0029 J0.0121
G1 X1.7789 Y1.2489
X1.7768 Y1.2545
X1.7736 Y1.2596
X1.7697 Y1.2642
X1.7653 Y1.2683
X1.7606 Y1.272
X1.7556 Y1.2753
X1.7505 Y1.2784
X1.7451 Y1.2811
X1.7396 Y1.2835
X1.734 Y1.2857
X1.7284 Y1.2877
X1.7226 Y1.2894
X1.7168 Y1.2909
X1.711 Y1.2922
X1.7051 Y1.2933
X1.6991 Y1.2942
X1.693 Y1.2949
X1.6868 Y1.2955
X1.6805 Y1.2958
X1.6741 Y1.296
X1.6676 Y1.2959
X1.661 Y1.2957
X1.6544 Y1.2952
X1.6478 Y1.2946
X1.6413 Y1.2937
X1.6349 Y1.2926
X1.6286 Y1.2914
X1.6225 Y1.29
X1.6167 Y1.2884
X1.6109 Y1.2867
X1.6052 Y1.2848
X1.5996 Y1.2827
X1.5941 Y1.2804
X1.5886 Y1.2779
X1.5832 Y1.2752
X1.578 Y1.2723
X1.5729 Y1.2691
X1.568 Y1.2657
X1.5632 Y1.2621
X1.5586 Y1.2581
X1.5544 Y1.2539
X1.5505 Y1.2494
X1.5497 Y1.2483
X1.544 Y1.2387
X1.5404 Y1.2282
X1.539 Y1.2171
X1.5399 Y1.206
X1.5431 Y1.1953
X1.5464 Y1.1871
G3 X1.561 Y1.18 I0.0115 J0.0051
G1 X1.5739 Y1.1834
X1.7593 Y1.2307
X1.7699 Y1.2334
G3 X1.779 Y1.2489 I-0.003 J0.0122
G1 X1.7753 Y1.2603
X1.7732 Y1.2659
X1.7698 Y1.2708
X1.7658 Y1.2753
X1.7613 Y1.2793
X1.7565 Y1.2829
X1.7515 Y1.2862
X1.7463 Y1.2891
X1.7409 Y1.2917
X1.7354 Y1.2941
X1.7297 Y1.2962
X1.724 Y1.2981
X1.7183 Y1.2997
X1.7124 Y1.3012
X1.7066 Y1.3024
X1.7007 Y1.3034
X1.6947 Y1.3042
X1.6886 Y1.3049
X1.6823 Y1.3053
X1.6759 Y1.3056
X1.6694 Y1.3057
X1.6629 Y1.3056
X1.6563 Y1.3052
X1.6498 Y1.3047
X1.6433 Y1.3039
X1.6368 Y1.303
X1.6305 Y1.3018
X1.6243 Y1.3005
X1.6182 Y1.299
X1.6124 Y1.2974
X1.6067 Y1.2956
X1.601 Y1.2936
X1.5954 Y1.2914
X1.5899 Y1.289
X1.5845 Y1.2865
X1.5791 Y1.2837
X1.5739 Y1.2807
X1.5689 Y1.2775
X1.564 Y1.274
X1.5593 Y1.2703
X1.5548 Y1.2663
X1.5506 Y1.262
X1.5467 Y1.2575
X1.5457 Y1.2561
X1.5402 Y1.2465
X1.5368 Y1.2361
X1.5355 Y1.2251
X1.5365 Y1.2141
X1.5397 Y1.2036
X1.5431 Y1.1953
G3 X1.5577 Y1.1884 I0.0114 J0.0052
G1 X1.5706 Y1.1919
X1.7557 Y1.2419
X1.7665 Y1.2448
G3 X1.7754 Y1.2603 I-0.0032 J0.0121
G1 X1.7744 Y1.2631
X1.7719 Y1.2705
X1.7695 Y1.276
X1.7663 Y1.2811
X1.7623 Y1.2856
X1.7578 Y1.2896
X1.753 Y1.2932
X1.748 Y1.2964
X1.7427 Y1.2993
X1.7373 Y1.3019
X1.7318 Y1.3043
X1.7262 Y1.3064
X1.7205 Y1.3082
X1.7147 Y1.3098
X1.7088 Y1.3112
X1.7029 Y1.3123
X1.697 Y1.3133
X1.6911 Y1.3141
X1.6849 Y1.3147
X1.6787 Y1.3151
X1.6724 Y1.3153
X1.666 Y1.3154
X1.6595 Y1.3152
X1.6529 Y1.3148
X1.6464 Y1.3142
X1.6399 Y1.3134
X1.6334 Y1.3124
X1.6271 Y1.3112
X1.6209 Y1.3098
X1.6149 Y1.3083
X1.6091 Y1.3066
X1.6033 Y1.3047
X1.5977 Y1.3027
X1.5921 Y1.3005
X1.5866 Y1.2981
X1.5812 Y1.2955
X1.5759 Y1.2927
X1.5707 Y1.2897
X1.5657 Y1.2864
X1.5608 Y1.283
X1.5561 Y1.2792
X1.5516 Y1.2753
X1.5474 Y1.271
X1.5435 Y1.2664
X1.5399 Y1.2614
X1.5354 Y1.2522
X1.5327 Y1.2424
X1.5319 Y1.2322
X1.5331 Y1.222
X1.5361 Y1.2123
X1.5397 Y1.2036
G3 X1.5544 Y1.1967 I0.0114 J0.0052
G1 X1.5672 Y1.2003
X1.7527 Y1.2519
X1.7633 Y1.2549
G3 X1.7718 Y1.2705 I-0.0034 J0.012
G1 X1.7676 Y1.2822
X1.7652 Y1.2877
X1.7617 Y1.2926
X1.7576 Y1.2969
X1.753 Y1.3008
X1.7481 Y1.3043
X1.743 Y1.3074
X1.7377 Y1.3102
X1.7323 Y1.3127
X1.7267 Y1.315
X1.721 Y1.3169
X1.7153 Y1.3187
X1.7095 Y1.3202
X1.7036 Y1.3214
X1.6977 Y1.3225
X1.6918 Y1.3234
X1.6858 Y1.3241
X1.6797 Y1.3246
X1.6734 Y1.3249
X1.667 Y1.325
X1.6606 Y1.3249
X1.654 Y1.3246
X1.6475 Y1.3241
X1.641 Y1.3234
X1.6345 Y1.3225
X1.6282 Y1.3214
X1.6219 Y1.3201
X1.6157 Y1.3186
X1.6097 Y1.317
X1.6038 Y1.3152
X1.5982 Y1.3133
X1.5925 Y1.3111
X1.587 Y1.3088
X1.5815 Y1.3063
X1.5762 Y1.3036
X1.5709 Y1.3007
X1.5658 Y1.2976
X1.5608 Y1.2943
X1.556 Y1.2907
X1.5513 Y1.2869
X1.5469 Y1.2829
X1.5428 Y1.2786
X1.539 Y1.2739
X1.5384 Y1.2732
X1.533 Y1.2636
X1.5296 Y1.2532
X1.5284 Y1.2423
X1.5294 Y1.2313
X1.5326 Y1.2208
X1.5361 Y1.2123
G3 X1.551 Y1.2055 I0.0114 J0.0052
G1 X1.5635 Y1.2091
X1.7488 Y1.2632
X1.7592 Y1.2662
G3 X1.7682 Y1.2782 I-0.0035 J0.012
G1 X1.7681 Y1.2802
X1.7676 Y1.2822
X1.7633 Y1.2937
X1.7609 Y1.2992
X1.7572 Y1.304
X1.7529 Y1.3082
X1.7482 Y1.3119
X1.7433 Y1.3153
X1.7381 Y1.3183
X1.7327 Y1.321
X1.7272 Y1.3234
X1.7216 Y1.3255
X1.7159 Y1.3274
X1.7101 Y1.329
X1.7043 Y1.3304
X1.6984 Y1.3316
X1.6925 Y1.3326
X1.6865 Y1.3334
X1.6805 Y1.334
X1.6744 Y1.3344
X1.6681 Y1.3346
X1.6617
X1.6552 Y1.3344
X1.6487 Y1.334
X1.6422 Y1.3334
X1.6357 Y1.3326
X1.6293 Y1.3316
X1.6229 Y1.3304
X1.6166 Y1.329
X1.6104 Y1.3274
X1.6044 Y1.3257
X1.5987 Y1.3238
X1.593 Y1.3218
X1.5874 Y1.3196
X1.5819 Y1.3172
X1.5765 Y1.3146
X1.5712 Y1.3118
X1.566 Y1.3088
X1.5609 Y1.3056
X1.556 Y1.3022
X1.5512 Y1.2986
X1.5466 Y1.2947
X1.5423 Y1.2906
X1.5383 Y1.2861
X1.5345 Y1.2814
X1.5338 Y1.2803
X1.5288 Y1.2709
X1.5258 Y1.2607
X1.5248 Y1.2502
X1.5259 Y1.2396
X1.529 Y1.2295
X1.5326 Y1.2208
G3 X1.5476 Y1.2141 I0.0113 J0.0052
G1 X1.5599 Y1.2178
X1.7446 Y1.2746
X1.7551 Y1.2778
G3 X1.7633 Y1.2938 I-0.0037 J0.012
G1 X1.7603 Y1.3016
X1.7596 Y1.3035
X1.7569 Y1.3089
X1.7534 Y1.3138
X1.7492 Y1.3181
X1.7445 Y1.3219
X1.7396 Y1.3253
X1.7344 Y1.3283
X1.7291 Y1.331
X1.7235 Y1.3334
X1.7179 Y1.3355
X1.7122 Y1.3373
X1.7064 Y1.3389
X1.7006 Y1.3403
X1.6947 Y1.3414
X1.6888 Y1.3424
X1.6828 Y1.3431
X1.6768 Y1.3437
X1.6707 Y1.344
X1.6645 Y1.3442
X1.6582
X1.6518 Y1.344
X1.6453 Y1.3435
X1.6388 Y1.3429
X1.6323 Y1.342
X1.6258 Y1.341
X1.6194 Y1.3397
X1.6131 Y1.3383
X1.6069 Y1.3367
X1.601 Y1.3349
X1.5952 Y1.333
X1.5896 Y1.3309
X1.584 Y1.3287
X1.5785 Y1.3262
X1.5731 Y1.3236
X1.5678 Y1.3208
X1.5626 Y1.3178
X1.5576 Y1.3146
X1.5526 Y1.3112
X1.5479 Y1.3076
X1.5433 Y1.3037
X1.5389 Y1.2995
X1.5349 Y1.2951
X1.5312 Y1.2904
X1.5305 Y1.2894
X1.5254 Y1.2799
X1.5223 Y1.2697
X1.5212 Y1.259
X1.5223 Y1.2484
X1.5254 Y1.2381
X1.529 Y1.2295
G3 X1.544 Y1.2228 I0.0113 J0.0051
G1 X1.5563 Y1.2265
X1.7412 Y1.2842
X1.7515 Y1.2874
G3 X1.7596 Y1.3036 I-0.0037 J0.012
G1 X1.7546 Y1.3151
X1.752 Y1.3205
X1.7482 Y1.3252
X1.7439 Y1.3293
X1.7391 Y1.333
X1.7341 Y1.3363
X1.7289 Y1.3392
X1.7234 Y1.3417
X1.7179 Y1.344
X1.7122 Y1.346
X1.7065 Y1.3478
X1.7007 Y1.3492
X1.6948 Y1.3505
X1.6889 Y1.3516
X1.683 Y1.3524
X1.677 Y1.353
X1.671 Y1.3535
X1.6649 Y1.3537
X1.6586 Y1.3538
X1.6522 Y1.3536
X1.6457 Y1.3533
X1.6392 Y1.3527
X1.6327 Y1.352
X1.6262 Y1.351
X1.6198 Y1.3498
X1.6135 Y1.3485
X1.6072 Y1.3469
X1.6011 Y1.3452
X1.5952 Y1.3433
X1.5894 Y1.3413
X1.5838 Y1.3391
X1.5782 Y1.3368
X1.5728 Y1.3342
X1.5674 Y1.3315
X1.5622 Y1.3286
X1.5571 Y1.3255
X1.552 Y1.3222
X1.5472 Y1.3187
X1.5425 Y1.3149
X1.538 Y1.3109
X1.5338 Y1.3067
X1.5299 Y1.3021
X1.5263 Y1.2973
X1.5257 Y1.2965
X1.5212 Y1.2873
X1.5184 Y1.2773
X1.5176 Y1.2671
X1.5187 Y1.2568
X1.5217 Y1.247
X1.5254 Y1.2381
G3 X1.5406 Y1.2315 I0.0113 J0.0052
G1 X1.5527 Y1.2354
X1.7367 Y1.2954
X1.7468 Y1.2987
G3 X1.7546 Y1.3151 I-0.0039 J0.0119
G1 X1.7521 Y1.3209
X1.7501 Y1.3255
X1.7474 Y1.3309
X1.7437 Y1.3356
X1.7393 Y1.3397
X1.7346 Y1.3433
X1.7295 Y1.3466
X1.7242 Y1.3494
X1.7188 Y1.3519
X1.7132 Y1.3542
X1.7075 Y1.3561
X1.7018 Y1.3578
X1.6959 Y1.3592
X1.6901 Y1.3604
X1.6841 Y1.3614
X1.6782 Y1.3622
X1.6722 Y1.3627
X1.6662 Y1.3631
X1.66 Y1.3633
X1.6538
X1.6474 Y1.3631
X1.641 Y1.3627
X1.6345 Y1.362
X1.628 Y1.3612
X1.6216 Y1.3602
X1.6151 Y1.3589
X1.6088 Y1.3575
X1.6025 Y1.3558
X1.5964 Y1.354
X1.5904 Y1.3521
X1.5847 Y1.35
X1.5791 Y1.3478
X1.5736 Y1.3454
X1.5682 Y1.3428
X1.5629 Y1.34
X1.5577 Y1.337
X1.5526 Y1.3339
X1.5476 Y1.3305
X1.5428 Y1.3269
X1.5381 Y1.3231
X1.5337 Y1.3191
X1.5295 Y1.3148
X1.5257 Y1.3102
X1.5221 Y1.3054
X1.5217 Y1.3048
X1.5173 Y1.2955
X1.5146 Y1.2856
X1.5139 Y1.2753
X1.5151 Y1.2651
X1.5182 Y1.2553
X1.5213 Y1.2479
X1.5217 Y1.247
G3 X1.5371 Y1.2403 I0.0114 J0.0051
G1 X1.549 Y1.2443
X1.7324 Y1.3057
X1.7425 Y1.309
G3 X1.7502 Y1.3255 I-0.004 J0.0119
G1 X1.7456 Y1.3356
X1.743 Y1.341
X1.7393 Y1.3457
X1.7349 Y1.3498
X1.7301 Y1.3535
X1.725 Y1.3567
X1.7197 Y1.3595
X1.7143 Y1.362
X1.7087 Y1.3642
X1.703 Y1.3661
X1.6972 Y1.3677
X1.6914 Y1.3691
X1.6855 Y1.3702
X1.6796 Y1.3711
X1.6736 Y1.3718
X1.6676 Y1.3724
X1.6616 Y1.3727
X1.6555 Y1.3728
X1.6492 Y1.3727
X1.6429 Y1.3725
X1.6365 Y1.372
X1.6301 Y1.3713
X1.6236 Y1.3704
X1.6171 Y1.3693
X1.6106 Y1.368
X1.6043 Y1.3665
X1.5981 Y1.3648
X1.592 Y1.363
X1.5861 Y1.361
X1.5803 Y1.3588
X1.5748 Y1.3565
X1.5693 Y1.3541
X1.5639 Y1.3515
X1.5586 Y1.3486
X1.5534 Y1.3456
X1.5484 Y1.3424
X1.5434 Y1.339
X1.5386 Y1.3354
X1.534 Y1.3316
X1.5296 Y1.3275
X1.5254 Y1.3232
X1.5216 Y1.3186
X1.5181 Y1.3137
X1.5175 Y1.3127
X1.5128 Y1.3025
X1.5103 Y1.2916
X1.5101 Y1.2804
X1.5121 Y1.2693
X1.5164 Y1.259
G3 X1.531 Y1.2534 I0.0108 J0.0063
G1 X1.5444 Y1.2577
X1.7279 Y1.3159
X1.7378 Y1.3191
G3 X1.7456 Y1.3356 I-0.0038 J0.0119
G1 X1.743 Y1.3417
X1.7405 Y1.347
X1.7376 Y1.3523
X1.7337 Y1.3568
X1.7292 Y1.3608
X1.7244 Y1.3643
X1.7192 Y1.3674
X1.7138 Y1.3701
X1.7083 Y1.3725
X1.7027 Y1.3746
X1.697 Y1.3763
X1.6912 Y1.3779
X1.6853 Y1.3791
X1.6794 Y1.3802
X1.6735 Y1.381
X1.6675 Y1.3816
X1.6615 Y1.382
X1.6555 Y1.3822
X1.6494 Y1.3823
X1.6431 Y1.3821
X1.6367 Y1.3817
X1.6302 Y1.3811
X1.6237 Y1.3803
X1.6173 Y1.3793
X1.6108 Y1.3781
X1.6045 Y1.3767
X1.5982 Y1.3751
X1.592 Y1.3733
X1.5859 Y1.3713
X1.58 Y1.3692
X1.5743 Y1.3669
X1.5688 Y1.3646
X1.5633 Y1.362
X1.558 Y1.3593
X1.5528 Y1.3564
X1.5476 Y1.3533
X1.5426 Y1.35
X1.5377 Y1.3465
X1.533 Y1.3428
X1.5285 Y1.3388
X1.5242 Y1.3347
X1.5201 Y1.3302
X1.5164 Y1.3255
X1.513 Y1.3206
X1.5124 Y1.3193
X1.5081 Y1.3093
X1.5058 Y1.2986
Y1.2877
X1.5079 Y1.277
X1.5121 Y1.267
X1.5164 Y1.259
G3 X1.5317 Y1.2536 I0.0108 J0.0063
G1 X1.5442 Y1.2584
X1.7235 Y1.3265
X1.7334 Y1.3303
G3 X1.7405 Y1.347 I-0.0044 J0.0117
G1 X1.7355 Y1.3573
X1.7326 Y1.3626
X1.7287 Y1.3672
X1.7242 Y1.3711
X1.7193 Y1.3746
X1.7141 Y1.3776
X1.7087 Y1.3802
X1.7032 Y1.3826
X1.6975 Y1.3846
X1.6918 Y1.3863
X1.686 Y1.3877
X1.6801 Y1.3889
X1.6742 Y1.3899
X1.6682 Y1.3907
X1.6622 Y1.3912
X1.6563 Y1.3915
X1.6502 Y1.3917
X1.6441 Y1.3916
X1.6378 Y1.3914
X1.6314 Y1.3909
X1.625 Y1.3903
X1.6186 Y1.3894
X1.6121 Y1.3883
X1.6057 Y1.387
X1.5993 Y1.3855
X1.593 Y1.3838
X1.5868 Y1.382
X1.5807 Y1.3799
X1.5749 Y1.3778
X1.5693 Y1.3755
X1.5638 Y1.373
X1.5584 Y1.3704
X1.5531 Y1.3676
X1.5479 Y1.3646
X1.5428 Y1.3615
X1.5378 Y1.3581
X1.5329 Y1.3546
X1.5283 Y1.3508
X1.5238 Y1.3468
X1.5195 Y1.3426
X1.5155 Y1.3381
X1.5119 Y1.3334
X1.5085 Y1.3284
X1.5078 Y1.3271
X1.5035 Y1.3169
X1.5013 Y1.3061
X1.5014 Y1.295
X1.5037 Y1.2842
X1.5081 Y1.2741
X1.5117 Y1.2677
X1.5121 Y1.267
G3 X1.5275 Y1.2617 I0.0108 J0.0063
G1 X1.5398 Y1.2665
X1.7185 Y1.3367
X1.7286 Y1.3407
G3 X1.7354 Y1.3573 I-0.0046 J0.0116
G1 X1.7336 Y1.3614
X1.7298 Y1.3689
X1.7268 Y1.3741
X1.7226 Y1.3784
X1.718 Y1.3822
X1.7129 Y1.3855
X1.7077 Y1.3884
X1.7022 Y1.3909
X1.6966 Y1.393
X1.6909 Y1.3949
X1.6851 Y1.3965
X1.6793 Y1.3978
X1.6734 Y1.3989
X1.6675 Y1.3998
X1.6615 Y1.4004
X1.6555 Y1.4008
X1.6495 Y1.401
X1.6435 Y1.4011
X1.6373 Y1.4009
X1.631 Y1.4005
X1.6246 Y1.3999
X1.6182 Y1.3992
X1.6117 Y1.3981
X1.6052 Y1.3969
X1.5988 Y1.3955
X1.5925 Y1.3939
X1.5862 Y1.3921
X1.5801 Y1.3901
X1.5742 Y1.388
X1.5684 Y1.3857
X1.5628 Y1.3833
X1.5573 Y1.3808
X1.552 Y1.378
X1.5467 Y1.3751
X1.5416 Y1.3721
X1.5365 Y1.3688
X1.5316 Y1.3653
X1.5269 Y1.3617
X1.5223 Y1.3578
X1.5179 Y1.3537
X1.5138 Y1.3494
X1.5099 Y1.3448
X1.5064 Y1.34
X1.5031 Y1.3349
X1.5024 Y1.3334
X1.4984 Y1.3231
X1.4965 Y1.3121
X1.497 Y1.301
X1.4996 Y1.2902
X1.5044 Y1.2802
X1.5078 Y1.2746
X1.5081 Y1.2741
G3 X1.5236 Y1.269 I0.0107 J0.0065
G1 X1.5358 Y1.2741
X1.7132 Y1.348
X1.7232 Y1.3521
G3 X1.7297 Y1.3689 I-0.0048 J0.0115
G1 X1.7248 Y1.3787
X1.7217 Y1.3839
X1.7176 Y1.3883
X1.713 Y1.392
X1.708 Y1.3953
X1.7027 Y1.3982
X1.6972 Y1.4007
X1.6916 Y1.4028
X1.6859 Y1.4046
X1.6801 Y1.4062
X1.6742 Y1.4075
X1.6683 Y1.4085
X1.6624 Y1.4093
X1.6564 Y1.4099
X1.6504 Y1.4102
X1.6444 Y1.4104
X1.6384
X1.6322 Y1.4102
X1.6259 Y1.4097
X1.6196 Y1.4091
X1.6132 Y1.4082
X1.6068 Y1.4072
X1.6004 Y1.4059
X1.594 Y1.4044
X1.5876 Y1.4028
X1.5813 Y1.4009
X1.5752 Y1.3989
X1.5692 Y1.3967
X1.5635 Y1.3943
X1.558 Y1.3919
X1.5526 Y1.3893
X1.5473 Y1.3865
X1.542 Y1.3836
X1.5369 Y1.3805
X1.5319 Y1.3771
X1.527 Y1.3736
X1.5223 Y1.37
X1.5178 Y1.3661
X1.5134 Y1.3619
X1.5093 Y1.3576
X1.5054 Y1.353
X1.5019 Y1.3481
X1.4986 Y1.3431
X1.4958 Y1.3376
X1.4927 Y1.3278
X1.4916 Y1.3176
X1.4924 Y1.3073
X1.4951 Y1.2974
X1.4996 Y1.2881
X1.5044 Y1.2802
G3 X1.5199 Y1.2756 I0.0105 J0.0069
G1 X1.5322 Y1.281
X1.7084 Y1.3576
X1.7184 Y1.362
G3 X1.7249 Y1.3787 I-0.0049 J0.0115
G1 X1.7217 Y1.3845
X1.7191 Y1.3892
X1.716 Y1.3943
X1.7118 Y1.3987
X1.7071 Y1.4024
X1.702 Y1.4056
X1.6967 Y1.4084
X1.6912 Y1.4108
X1.6856 Y1.4128
X1.6799 Y1.4146
X1.674 Y1.416
X1.6682 Y1.4172
X1.6622 Y1.4182
X1.6563 Y1.4189
X1.6503 Y1.4194
X1.6443 Y1.4196
X1.6383 Y1.4197
X1.6323 Y1.4196
X1.6261 Y1.4193
X1.6198 Y1.4188
X1.6135 Y1.418
X1.607 Y1.4171
X1.6006 Y1.4159
X1.5942 Y1.4146
X1.5878 Y1.413
X1.5815 Y1.4113
X1.5754 Y1.4093
X1.5693 Y1.4072
X1.5634 Y1.4049
X1.5577 Y1.4025
X1.5522 Y1.4
X1.5468 Y1.3973
X1.5415 Y1.3945
X1.5363 Y1.3914
X1.5313 Y1.3882
X1.5263 Y1.3849
X1.5215 Y1.3813
X1.5168 Y1.3775
X1.5123 Y1.3735
X1.508 Y1.3694
X1.5039 Y1.365
X1.5001 Y1.3603
X1.4966 Y1.3555
X1.4934 Y1.3504
X1.4906 Y1.345
X1.4873 Y1.3327
X1.4869 Y1.32
X1.4894 Y1.3076
X1.4947 Y1.2961
X1.4996 Y1.2881
G3 X1.5151 Y1.2836 I0.0104 J0.0069
G1 X1.5273 Y1.289
X1.7033 Y1.3678
X1.7131 Y1.3722
G3 X1.7191 Y1.3892 I-0.0051 J0.0114
G1 X1.7135 Y1.3995
X1.7103 Y1.4046
X1.7061 Y1.4088
X1.7013 Y1.4125
X1.6962 Y1.4156
X1.6908 Y1.4183
X1.6853 Y1.4207
X1.6796 Y1.4227
X1.6739 Y1.4243
X1.668 Y1.4257
X1.6622 Y1.4268
X1.6562 Y1.4277
X1.6502 Y1.4283
X1.6443 Y1.4287
X1.6383 Y1.4289
X1.6323
X1.6262 Y1.4287
X1.6201 Y1.4283
X1.6138 Y1.4277
X1.6074 Y1.4269
X1.601 Y1.4259
X1.5946 Y1.4247
X1.5883 Y1.4232
X1.5819 Y1.4216
X1.5757 Y1.4198
X1.5695 Y1.4177
X1.5635 Y1.4155
X1.5576 Y1.4132
X1.5519 Y1.4107
X1.5465 Y1.4081
X1.5411 Y1.4054
X1.5359 Y1.4025
X1.5308 Y1.3994
X1.5257 Y1.3961
X1.5208 Y1.3926
X1.516 Y1.389
X1.5114 Y1.3852
X1.507 Y1.3812
X1.5027 Y1.3769
X1.4987 Y1.3725
X1.4949 Y1.3679
X1.4914 Y1.363
X1.4883 Y1.3578
X1.4878 Y1.3568
X1.4838 Y1.3465
X1.482 Y1.3356
X1.4825 Y1.3245
X1.4852 Y1.3138
X1.49 Y1.3038
X1.4947 Y1.2961
G3 X1.5103 Y1.2917 I0.0104 J0.0069
G1 X1.5223 Y1.2971
X1.6979 Y1.3779
X1.7076 Y1.3824
G3 X1.7134 Y1.3995 I-0.0052 J0.0113
G1 X1.7122 Y1.4018
X1.7074 Y1.41
X1.7041 Y1.415
X1.6998 Y1.4192
X1.695 Y1.4228
X1.6898 Y1.4258
X1.6844 Y1.4284
X1.6789 Y1.4307
X1.6732 Y1.4325
X1.6674 Y1.4341
X1.6615 Y1.4354
X1.6556 Y1.4364
X1.6497 Y1.4372
X1.6437 Y1.4377
X1.6377 Y1.4381
X1.6317 Y1.4382
X1.6257 Y1.4381
X1.6197 Y1.4378
X1.6135 Y1.4373
X1.6072 Y1.4366
X1.6009 Y1.4357
X1.5945 Y1.4346
X1.5881 Y1.4332
X1.5818 Y1.4317
X1.5755 Y1.4299
X1.5693 Y1.428
X1.5631 Y1.4259
X1.5572 Y1.4236
X1.5513 Y1.4212
X1.5457 Y1.4186
X1.5403 Y1.4159
X1.535 Y1.4131
X1.5298 Y1.4101
X1.5247 Y1.4069
X1.5197 Y1.4036
X1.5148 Y1.4001
X1.5101 Y1.3964
X1.5056 Y1.3925
X1.5012 Y1.3884
X1.4969 Y1.3841
X1.493 Y1.3796
X1.4893 Y1.3749
X1.4859 Y1.3699
X1.4829 Y1.3647
X1.4822 Y1.3633
X1.4787 Y1.3532
X1.4771 Y1.3426
X1.4777 Y1.3318
X1.4804 Y1.3214
X1.4851 Y1.3117
X1.49 Y1.3038
G3 X1.5058 Y1.2994 I0.0104 J0.0069
G1 X1.5175 Y1.305
X1.6921 Y1.3882
X1.7018 Y1.3928
G3 X1.7074 Y1.41 I-0.0054 J0.0113
G1 X1.7021 Y1.4192
X1.6988 Y1.4242
X1.6946 Y1.4285
X1.6898 Y1.4321
X1.6846 Y1.4352
X1.6792 Y1.4378
X1.6737 Y1.44
X1.668 Y1.4419
X1.6622 Y1.4435
X1.6563 Y1.4447
X1.6504 Y1.4457
X1.6444 Y1.4465
X1.6385 Y1.447
X1.6325 Y1.4472
X1.6265 Y1.4473
X1.6205 Y1.4472
X1.6144 Y1.4468
X1.6083 Y1.4463
X1.6021 Y1.4456
X1.5959 Y1.4446
X1.5896 Y1.4435
X1.5832 Y1.4421
X1.5769 Y1.4405
X1.5706 Y1.4387
X1.5643 Y1.4367
X1.5582 Y1.4346
X1.5522 Y1.4322
X1.5464 Y1.4298
X1.5408 Y1.4271
X1.5353 Y1.4244
X1.5301 Y1.4216
X1.5249 Y1.4185
X1.5198 Y1.4153
X1.5149 Y1.4119
X1.51 Y1.4084
X1.5053 Y1.4047
X1.5008 Y1.4008
X1.4964 Y1.3967
X1.4922 Y1.3924
X1.4882 Y1.3879
X1.4845 Y1.3832
X1.4812 Y1.3782
X1.4782 Y1.373
X1.4775 Y1.3717
X1.4739 Y1.3615
X1.4723 Y1.3508
X1.4728 Y1.34
X1.4755 Y1.3295
X1.4802 Y1.3197
X1.4851 Y1.3117
G3 X1.501 Y1.3074 I0.0104 J0.0069
G1 X1.5126 Y1.313
X1.6868 Y1.3973
X1.6965 Y1.402
G3 X1.7021 Y1.4192 I-0.0055 J0.0113
G1 X1.6959 Y1.4296
X1.6926 Y1.4346
X1.6882 Y1.4388
X1.6834 Y1.4422
X1.6781 Y1.4452
X1.6727 Y1.4477
X1.6671 Y1.4498
X1.6614 Y1.4516
X1.6555 Y1.4531
X1.6496 Y1.4543
X1.6437 Y1.4552
X1.6377 Y1.4558
X1.6318 Y1.4562
X1.6258 Y1.4564
X1.6198
X1.6138 Y1.4562
X1.6078 Y1.4557
X1.6017 Y1.4551
X1.5954 Y1.4543
X1.5891 Y1.4532
X1.5828 Y1.452
X1.5765 Y1.4505
X1.5701 Y1.4488
X1.5639 Y1.4469
X1.5577 Y1.4449
X1.5517 Y1.4426
X1.5457 Y1.4402
X1.5399 Y1.4376
X1.5343 Y1.4349
X1.5288 Y1.432
X1.5236 Y1.4291
X1.5185 Y1.426
X1.5134 Y1.4227
X1.5085 Y1.4193
X1.5037 Y1.4156
X1.4991 Y1.4118
X1.4946 Y1.4078
X1.4903 Y1.4037
X1.4862 Y1.3993
X1.4823 Y1.3947
X1.4787 Y1.3899
X1.4755 Y1.3849
X1.4725 Y1.3796
X1.4717 Y1.3779
X1.4684 Y1.3677
X1.4671 Y1.3571
X1.468 Y1.3464
X1.471 Y1.3361
X1.476 Y1.3267
X1.4802 Y1.3197
G3 X1.4962 Y1.3155 I0.0104 J0.0069
G1 X1.5077 Y1.3211
X1.6808 Y1.4076
X1.6905 Y1.4125
G3 X1.6959 Y1.4296 I-0.0056 J0.0112
G1 X1.6953 Y1.4307
X1.6917 Y1.4365
X1.6894 Y1.4401
X1.6859 Y1.4449
X1.6814 Y1.4489
X1.6765 Y1.4523
X1.6712 Y1.4552
X1.6657 Y1.4576
X1.6601 Y1.4596
X1.6543 Y1.4613
X1.6484 Y1.4627
X1.6425 Y1.4637
X1.6366 Y1.4645
X1.6306 Y1.4651
X1.6246 Y1.4654
X1.6186 Y1.4655
X1.6126 Y1.4653
X1.6066 Y1.465
X1.6006 Y1.4645
X1.5945 Y1.4638
X1.5883 Y1.4628
X1.582 Y1.4617
X1.5757 Y1.4603
X1.5694 Y1.4587
X1.5631 Y1.4569
X1.5568 Y1.4549
X1.5507 Y1.4527
X1.5446 Y1.4504
X1.5387 Y1.4479
X1.5329 Y1.4452
X1.5273 Y1.4424
X1.5219 Y1.4394
X1.5168 Y1.4364
X1.5117 Y1.4332
X1.5067 Y1.4298
X1.5019 Y1.4263
X1.4971 Y1.4226
X1.4926 Y1.4187
X1.4882 Y1.4146
X1.4839 Y1.4104
X1.4799 Y1.4059
X1.4761 Y1.4013
X1.4726 Y1.3964
X1.4695 Y1.3913
X1.4667 Y1.386
X1.4662 Y1.3849
X1.463 Y1.3743
X1.462 Y1.3634
X1.4633 Y1.3525
X1.4667 Y1.342
X1.4721 Y1.3325
X1.476 Y1.3267
G3 X1.4918 Y1.3229 I0.0101 J0.0072
G1 X1.5035 Y1.3288
X1.6751 Y1.4177
X1.6844 Y1.4225
G3 X1.6894 Y1.4401 I-0.0057 J0.0111
G1 X1.6826 Y1.4505
X1.679 Y1.4554
X1.6744 Y1.4592
X1.6694 Y1.4625
X1.664 Y1.4652
X1.6585 Y1.4675
X1.6528 Y1.4694
X1.647 Y1.4709
X1.6411 Y1.4721
X1.6352 Y1.4731
X1.6293 Y1.4738
X1.6233 Y1.4742
X1.6173 Y1.4744
X1.6113
X1.6053 Y1.4742
X1.5993 Y1.4737
X1.5933 Y1.4731
X1.5872 Y1.4723
X1.5809 Y1.4712
X1.5746 Y1.47
X1.5683 Y1.4685
X1.562 Y1.4668
X1.5558 Y1.4649
X1.5495 Y1.4628
X1.5434 Y1.4605
X1.5374 Y1.458
X1.5315 Y1.4554
X1.5258 Y1.4526
X1.5203 Y1.4497
X1.515 Y1.4467
X1.5098 Y1.4436
X1.5048 Y1.4403
X1.4999 Y1.4369
X1.4951 Y1.4332
X1.4905 Y1.4294
X1.486 Y1.4255
X1.4816 Y1.4213
X1.4775 Y1.417
X1.4736 Y1.4125
X1.4699 Y1.4077
X1.4665 Y1.4028
X1.4635 Y1.3976
X1.4608 Y1.3922
X1.4604 Y1.3911
X1.4575 Y1.3807
X1.4567 Y1.37
X1.4581 Y1.3593
X1.4615 Y1.3491
X1.4669 Y1.3398
X1.4721 Y1.3325
G3 X1.488 Y1.3292 I0.0099 J0.0076
G1 X1.4996 Y1.3355
X1.6684 Y1.4279
X1.6779 Y1.4331
G3 X1.6826 Y1.4506 I-0.006 J0.011
G1 X1.6766 Y1.4597
X1.6729 Y1.4644
X1.6684 Y1.4684
X1.6634 Y1.4716
X1.658 Y1.4744
X1.6525 Y1.4767
X1.6468 Y1.4785
X1.641 Y1.4801
X1.6351 Y1.4813
X1.6292 Y1.4822
X1.6232 Y1.4828
X1.6172 Y1.4832
X1.6112 Y1.4834
X1.6052 Y1.4833
X1.5992 Y1.483
X1.5933 Y1.4825
X1.5873 Y1.4818
X1.5811 Y1.4809
X1.575 Y1.4798
X1.5687 Y1.4785
X1.5625 Y1.477
X1.5562 Y1.4752
X1.55 Y1.4733
X1.5437 Y1.4711
X1.5376 Y1.4688
X1.5316 Y1.4662
X1.5257 Y1.4636
X1.52 Y1.4607
X1.5146 Y1.4578
X1.5093 Y1.4548
X1.5042 Y1.4516
X1.4992 Y1.4483
X1.4944 Y1.4448
X1.4896 Y1.4411
X1.485 Y1.4373
X1.4805 Y1.4333
X1.4762 Y1.4291
X1.4721 Y1.4248
X1.4682 Y1.4202
X1.4645 Y1.4154
X1.4611 Y1.4105
X1.4581 Y1.4053
X1.4555 Y1.3999
X1.455 Y1.3987
X1.452 Y1.3879
X1.4513 Y1.3767
X1.4529 Y1.3657
X1.4567 Y1.3552
X1.4626 Y1.3457
X1.4639 Y1.344
X1.4669 Y1.3398
G3 X1.4829 Y1.3365 I0.0099 J0.0076
G1 X1.4943 Y1.3429
X1.6626 Y1.437
X1.672 Y1.4422
G3 X1.6767 Y1.4597 I-0.0061 J0.011
G1 X1.6725 Y1.4654
X1.6692 Y1.47
X1.6655 Y1.4747
X1.6608 Y1.4785
X1.6557 Y1.4816
X1.6503 Y1.4842
X1.6447 Y1.4864
X1.639 Y1.4881
X1.6331 Y1.4895
X1.6272 Y1.4906
X1.6213 Y1.4914
X1.6153 Y1.4919
X1.6093 Y1.4922
X1.6033
X1.5973 Y1.492
X1.5913 Y1.4916
X1.5854 Y1.491
X1.5794 Y1.4902
X1.5733 Y1.4892
X1.5671 Y1.488
X1.5608 Y1.4865
X1.5545 Y1.4849
X1.5483 Y1.483
X1.542 Y1.4809
X1.5359 Y1.4787
X1.5298 Y1.4762
X1.5239 Y1.4736
X1.5181 Y1.4708
X1.5125 Y1.4679
X1.5071 Y1.4648
X1.5018 Y1.4617
X1.4968 Y1.4584
X1.4919 Y1.455
X1.4871 Y1.4514
X1.4824 Y1.4476
X1.4778 Y1.4437
X1.4735 Y1.4396
X1.4693 Y1.4354
X1.4652 Y1.4309
X1.4614 Y1.4263
X1.4579 Y1.4214
X1.4546 Y1.4164
X1.4518 Y1.4111
X1.4493 Y1.4056
X1.4487 Y1.4041
X1.4461 Y1.3931
X1.4458 Y1.3817
X1.4479 Y1.3705
X1.4523 Y1.36
X1.4587 Y1.3506
G3 X1.4739 Y1.3481 I0.0092 J0.0084
G1 X1.4865 Y1.3549
X1.6559 Y1.4473
X1.6648 Y1.4522
G3 X1.6692 Y1.47 I-0.006 J0.0109
G1 X1.663 Y1.4787
X1.662 Y1.4801
X1.6582 Y1.4847
X1.6534 Y1.4883
X1.6482 Y1.4913
X1.6427 Y1.4938
X1.6371 Y1.4958
X1.6313 Y1.4975
X1.6255 Y1.4987
X1.6195 Y1.4997
X1.6136 Y1.5004
X1.6076 Y1.5008
X1.6016 Y1.501
X1.5956 Y1.5009
X1.5896 Y1.5006
X1.5836 Y1.5001
X1.5777 Y1.4994
X1.5717 Y1.4985
X1.5656 Y1.4974
X1.5594 Y1.4961
X1.5531 Y1.4945
X1.5469 Y1.4928
X1.5407 Y1.4908
X1.5345 Y1.4886
X1.5284 Y1.4862
X1.5224 Y1.4837
X1.5165 Y1.4809
X1.5107 Y1.4781
X1.5051 Y1.475
X1.4997 Y1.4719
X1.4946 Y1.4687
X1.4896 Y1.4653
X1.4848 Y1.4618
X1.48 Y1.4581
X1.4754 Y1.4543
X1.4709 Y1.4503
X1.4666 Y1.4461
X1.4625 Y1.4418
X1.4586 Y1.4372
X1.4549 Y1.4325
X1.4514 Y1.4276
X1.4483 Y1.4225
X1.4455 Y1.4172
X1.4431 Y1.4117
X1.4426 Y1.4101
X1.4402 Y1.3992
X1.44 Y1.388
X1.4422 Y1.377
X1.4465 Y1.3667
X1.4529 Y1.3574
X1.4587 Y1.3506
G3 X1.4745 Y1.3484 I0.0092 J0.0084
G1 X1.4861 Y1.3556
X1.6491 Y1.4568
X1.6583 Y1.4624
G3 X1.662 Y1.4801 I-0.0066 J0.0106
G1 X1.6549 Y1.4895
X1.651 Y1.4941
X1.6462 Y1.4977
X1.641 Y1.5007
X1.6355 Y1.5031
X1.6298 Y1.505
X1.624 Y1.5066
X1.6182 Y1.5078
X1.6122 Y1.5087
X1.6063 Y1.5093
X1.6003 Y1.5096
X1.5943 Y1.5097
X1.5883 Y1.5095
X1.5823 Y1.5092
X1.5763 Y1.5086
X1.5704 Y1.5078
X1.5644 Y1.5068
X1.5583 Y1.5056
X1.5521 Y1.5042
X1.5459 Y1.5025
X1.5397 Y1.5007
X1.5335 Y1.4986
X1.5273 Y1.4964
X1.5213 Y1.4939
X1.5153 Y1.4913
X1.5094 Y1.4885
X1.5037 Y1.4855
X1.4982 Y1.4824
X1.4929 Y1.4792
X1.4879 Y1.476
X1.483 Y1.4725
X1.4781 Y1.469
X1.4734 Y1.4652
X1.4689 Y1.4613
X1.4645 Y1.4573
X1.4602 Y1.453
X1.4561 Y1.4486
X1.4523 Y1.4441
X1.4486 Y1.4393
X1.4452 Y1.4343
X1.4421 Y1.4292
X1.4395 Y1.4238
X1.4371 Y1.4183
X1.4366 Y1.4167
X1.4342 Y1.4058
X1.4341 Y1.3947
X1.4363 Y1.3838
X1.4406 Y1.3735
X1.447 Y1.3644
X1.4529 Y1.3574
G3 X1.4688 Y1.3553 I0.0092 J0.0085
G1 X1.4802 Y1.3626
X1.6423 Y1.466
X1.6514 Y1.4718
G3 X1.6549 Y1.4895 I-0.0067 J0.0105
G1 X1.6485 Y1.498
X1.6446 Y1.5026
X1.6399 Y1.5063
X1.6347 Y1.5093
X1.6292 Y1.5118
X1.6236 Y1.5138
X1.6178 Y1.5153
X1.6119 Y1.5165
X1.606 Y1.5174
X1.6 Y1.5179
X1.594 Y1.5182
X1.588 Y1.5183
X1.582 Y1.5181
X1.576 Y1.5177
X1.5701 Y1.5171
X1.5641 Y1.5162
X1.5581 Y1.5152
X1.5521 Y1.514
X1.546 Y1.5125
X1.5399 Y1.5109
X1.5337 Y1.509
X1.5276 Y1.5069
X1.5215 Y1.5046
X1.5154 Y1.5021
X1.5094 Y1.4994
X1.5036 Y1.4965
X1.4979 Y1.4935
X1.4924 Y1.4904
X1.4872 Y1.4872
X1.4821 Y1.4839
X1.4772 Y1.4804
X1.4724 Y1.4768
X1.4677 Y1.473
X1.4632 Y1.4691
X1.4588 Y1.465
X1.4546 Y1.4608
X1.4505 Y1.4564
X1.4467 Y1.4518
X1.443 Y1.447
X1.4396 Y1.442
X1.4365 Y1.4369
X1.4338 Y1.4316
X1.4314 Y1.426
X1.4295 Y1.4204
X1.4294 Y1.42
X1.4279 Y1.4097
X1.4283 Y1.3994
X1.4307 Y1.3894
X1.4349 Y1.3799
X1.4409 Y1.3715
X1.447 Y1.3644
G3 X1.463 Y1.3623 I0.0092 J0.0084
G1 X1.4742 Y1.3696
X1.636 Y1.4744
X1.6451 Y1.4803
G3 X1.6485 Y1.498 I-0.0068 J0.0105
G1 X1.6413 Y1.5073
X1.6374 Y1.5119
X1.6327 Y1.5155
X1.6275 Y1.5184
X1.6219 Y1.5208
X1.6163 Y1.5227
X1.6104 Y1.5242
X1.6045 Y1.5253
X1.5986 Y1.5261
X1.5926 Y1.5266
X1.5866 Y1.5268
X1.5806
X1.5746 Y1.5265
X1.5686 Y1.526
X1.5627 Y1.5253
X1.5568 Y1.5244
X1.5508 Y1.5233
X1.5448 Y1.522
X1.5387 Y1.5205
X1.5326 Y1.5187
X1.5264 Y1.5168
X1.5203 Y1.5146
X1.5142 Y1.5122
X1.5082 Y1.5096
X1.5023 Y1.5069
X1.4965 Y1.504
X1.4909 Y1.5009
X1.4855 Y1.4977
X1.4802 Y1.4944
X1.4752 Y1.491
X1.4703 Y1.4874
X1.4655 Y1.4838
X1.4609 Y1.4799
X1.4564 Y1.476
X1.4521 Y1.4718
X1.4479 Y1.4675
X1.4439 Y1.463
X1.4401 Y1.4584
X1.4366 Y1.4536
X1.4332 Y1.4486
X1.4302 Y1.4434
X1.4274 Y1.4381
X1.4252 Y1.4325
X1.4232 Y1.4268
Y1.4265
X1.4217 Y1.4138
X1.4232 Y1.4012
X1.4277 Y1.3892
X1.4348 Y1.3786
X1.4409 Y1.3715
G3 X1.457 Y1.3695 I0.0092 J0.0084
G1 X1.468 Y1.3768
X1.6291 Y1.4836
X1.6381 Y1.4896
G3 X1.6413 Y1.5073 I-0.0069 J0.0104
G1 X1.6379 Y1.5117
X1.6343 Y1.5163
X1.6303 Y1.5208
X1.6255 Y1.5244
X1.6203 Y1.5273
X1.6147 Y1.5297
X1.609 Y1.5315
X1.6032 Y1.5329
X1.5973 Y1.534
X1.5913 Y1.5347
X1.5853 Y1.5352
X1.5793 Y1.5353
X1.5734 Y1.5352
X1.5674 Y1.5349
X1.5614 Y1.5343
X1.5554 Y1.5336
X1.5495 Y1.5326
X1.5436 Y1.5314
X1.5376 Y1.53
X1.5315 Y1.5284
X1.5254 Y1.5266
X1.5193 Y1.5246
X1.5132 Y1.5223
X1.5072 Y1.5199
X1.5012 Y1.5172
X1.4954 Y1.5144
X1.4896 Y1.5114
X1.484 Y1.5083
X1.4786 Y1.505
X1.4734 Y1.5016
X1.4684 Y1.4982
X1.4636 Y1.4946
X1.4589 Y1.4909
X1.4543 Y1.487
X1.4499 Y1.4829
X1.4456 Y1.4788
X1.4414 Y1.4744
X1.4375 Y1.4699
X1.4337 Y1.4652
X1.4302 Y1.4604
X1.4269 Y1.4554
X1.4239 Y1.4502
X1.4212 Y1.4448
X1.4189 Y1.4392
X1.4185 Y1.4378
X1.4161 Y1.427
X1.416 Y1.4158
X1.4182 Y1.4049
X1.4225 Y1.3947
X1.4289 Y1.3855
X1.4348 Y1.3786
G3 X1.451 Y1.3767 I0.0092 J0.0085
G1 X1.4619 Y1.3841
X1.6224 Y1.4925
X1.6312 Y1.4985
G3 X1.6342 Y1.5162 I-0.007 J0.0103
G1 X1.6331 Y1.5177
X1.6253 Y1.5268
X1.6211 Y1.5311
X1.6161 Y1.5344
X1.6107 Y1.5371
X1.6051 Y1.5392
X1.5993 Y1.5408
X1.5935 Y1.542
X1.5875 Y1.5429
X1.5816 Y1.5434
X1.5756 Y1.5437
X1.5696
X1.5636 Y1.5434
X1.5576 Y1.5429
X1.5516 Y1.5422
X1.5457 Y1.5413
X1.5398 Y1.5402
X1.5339 Y1.5389
X1.528 Y1.5373
X1.5219 Y1.5356
X1.5158 Y1.5336
X1.5097 Y1.5314
X1.5037 Y1.529
X1.4976 Y1.5264
X1.4917 Y1.5236
X1.4859 Y1.5206
X1.4803 Y1.5175
X1.4748 Y1.5142
X1.4695 Y1.5108
X1.4644 Y1.5073
X1.4595 Y1.5038
X1.4548 Y1.5001
X1.4502 Y1.4962
X1.4457 Y1.4922
X1.4413 Y1.4881
X1.4372 Y1.4838
X1.4331 Y1.4793
X1.4293 Y1.4747
X1.4257 Y1.4699
X1.4223 Y1.465
X1.4191 Y1.4599
X1.4164 Y1.4546
X1.4139 Y1.4491
X1.4119 Y1.4434
X1.4115 Y1.4422
X1.4098 Y1.4318
X1.4101 Y1.4212
X1.4124 Y1.411
X1.4167 Y1.4013
X1.4227 Y1.3927
X1.4289 Y1.3855
G3 X1.4453 Y1.3837 I0.0092 J0.0085
G1 X1.4558 Y1.3912
X1.6142 Y1.5027
X1.6227 Y1.5087
G3 X1.6252 Y1.5267 I-0.0072 J0.0102
G1 X1.6183 Y1.5348
X1.6142 Y1.5392
X1.6093 Y1.5426
X1.6039 Y1.5454
X1.5983 Y1.5475
X1.5926 Y1.5491
X1.5867 Y1.5504
X1.5807 Y1.5512
X1.5748 Y1.5518
X1.5688 Y1.552
X1.5628
X1.5568 Y1.5517
X1.5508 Y1.5511
X1.5449 Y1.5504
X1.5389 Y1.5494
X1.533 Y1.5482
X1.5272 Y1.5469
X1.5212 Y1.5453
X1.5152 Y1.5435
X1.5092 Y1.5415
X1.5032 Y1.5393
X1.4972 Y1.5368
X1.4912 Y1.5342
X1.4853 Y1.5313
X1.4795 Y1.5283
X1.4739 Y1.5251
X1.4684 Y1.5218
X1.463 Y1.5183
X1.4579 Y1.5148
X1.453 Y1.5111
X1.4483 Y1.5074
X1.4438 Y1.5035
X1.4393 Y1.4995
X1.435 Y1.4953
X1.4309 Y1.491
X1.4269 Y1.4865
X1.4231 Y1.4819
X1.4195 Y1.4771
X1.4161 Y1.4721
X1.413 Y1.467
X1.4102 Y1.4617
X1.4078 Y1.4562
X1.4057 Y1.4506
X1.4054 Y1.4495
X1.4037 Y1.439
X1.404 Y1.4285
X1.4063 Y1.4182
X1.4106 Y1.4085
X1.4166 Y1.3999
X1.4227 Y1.3927
G3 X1.4393 Y1.3909 I0.0093 J0.0084
G1 X1.4496 Y1.3984
X1.6072 Y1.5107
X1.6158 Y1.5168
G3 X1.6183 Y1.5348 I-0.0072 J0.0102
G1 X1.6107 Y1.5437
X1.6065 Y1.548
X1.6016 Y1.5514
X1.5962 Y1.554
X1.5905 Y1.5561
X1.5847 Y1.5577
X1.5789 Y1.5588
X1.5729 Y1.5596
X1.5669 Y1.5601
X1.5609 Y1.5602
X1.5549 Y1.5601
X1.5489 Y1.5597
X1.543 Y1.5591
X1.537 Y1.5583
X1.5311 Y1.5573
X1.5253 Y1.556
X1.5194 Y1.5546
X1.5135 Y1.5529
X1.5075 Y1.551
X1.5015 Y1.5489
X1.4955 Y1.5466
X1.4895 Y1.5441
X1.4836 Y1.5414
X1.4777 Y1.5385
X1.472 Y1.5354
X1.4664 Y1.5321
X1.4609 Y1.5287
X1.4556 Y1.5252
X1.4505 Y1.5216
X1.4457 Y1.5178
X1.441 Y1.5141
X1.4365 Y1.5101
X1.4321 Y1.506
X1.4279 Y1.5018
X1.4238 Y1.4974
X1.4198 Y1.4929
X1.4161 Y1.4882
X1.4126 Y1.4833
X1.4093 Y1.4783
X1.4062 Y1.4732
X1.4035 Y1.4678
X1.4012 Y1.4623
X1.3992 Y1.4566
X1.3989 Y1.4555
X1.3974 Y1.4447
X1.398 Y1.4339
X1.4007 Y1.4233
X1.4055 Y1.4136
X1.4121 Y1.405
G3 X1.4279 Y1.4035 I0.0088 J0.0088
G1 X1.4393 Y1.4112
X1.5995 Y1.5197
X1.6079 Y1.5254
G3 X1.6107 Y1.5437 I-0.007 J0.0104
G1 X1.6033 Y1.5522
X1.5991 Y1.5565
X1.5941 Y1.5598
X1.5887 Y1.5625
X1.5831 Y1.5645
X1.5773 Y1.566
X1.5714 Y1.5671
X1.5654 Y1.5679
X1.5594 Y1.5683
X1.5534 Y1.5684
X1.5474 Y1.5682
X1.5414 Y1.5678
X1.5355 Y1.5671
X1.5296 Y1.5662
X1.5237 Y1.5651
X1.5178 Y1.5638
X1.512 Y1.5623
X1.5061 Y1.5606
X1.5001 Y1.5586
X1.4941 Y1.5565
X1.4882 Y1.5541
X1.4822 Y1.5515
X1.4763 Y1.5487
X1.4705 Y1.5458
X1.4648 Y1.5426
X1.4592 Y1.5393
X1.4538 Y1.5358
X1.4485 Y1.5322
X1.4435 Y1.5285
X1.4387 Y1.5248
X1.4341 Y1.5209
X1.4296 Y1.517
X1.4252 Y1.5128
X1.421 Y1.5085
X1.417 Y1.5041
X1.4131 Y1.4995
X1.4094 Y1.4948
X1.4059 Y1.4899
X1.4026 Y1.4849
X1.3996 Y1.4797
X1.397 Y1.4743
X1.3947 Y1.4688
X1.3928 Y1.4631
X1.3923 Y1.4613
X1.3909 Y1.4501
X1.3918 Y1.4389
X1.3949 Y1.4281
X1.4003 Y1.4182
X1.4076 Y1.4096
X1.4096 Y1.4076
X1.4121 Y1.405
G3 X1.4284 Y1.4039 I0.0088 J0.0088
G1 X1.4389 Y1.4118
X1.5924 Y1.5278
X1.6011 Y1.5343
G3 X1.6033 Y1.5522 I-0.0076 J0.01
G1 X1.5981 Y1.5579
X1.5938 Y1.5624
X1.5893 Y1.5665
X1.5841 Y1.5695
X1.5786 Y1.5718
X1.5729 Y1.5735
X1.567 Y1.5748
X1.5611 Y1.5757
X1.5551 Y1.5762
X1.5491 Y1.5764
X1.5431 Y1.5763
X1.5371 Y1.576
X1.5311 Y1.5754
X1.5252 Y1.5746
X1.5193 Y1.5735
X1.5134 Y1.5722
X1.5076 Y1.5708
X1.5018 Y1.5691
X1.4959 Y1.5673
X1.49 Y1.5652
X1.484 Y1.5628
X1.4781 Y1.5603
X1.4721 Y1.5575
X1.4663 Y1.5546
X1.4605 Y1.5514
X1.4549 Y1.5481
X1.4494 Y1.5447
X1.4441 Y1.5411
X1.4389 Y1.5374
X1.434 Y1.5336
X1.4293 Y1.5297
X1.4248 Y1.5258
X1.4204 Y1.5217
X1.4162 Y1.5175
X1.4121 Y1.5131
X1.4082 Y1.5085
X1.4044 Y1.5038
X1.4009 Y1.499
X1.3976 Y1.494
X1.3945 Y1.4889
X1.3917 Y1.4836
X1.3892 Y1.4781
X1.3872 Y1.4724
X1.3855 Y1.4667
X1.3852 Y1.4653
X1.3843 Y1.4539
X1.3857 Y1.4426
X1.3895 Y1.4317
X1.3955 Y1.422
X1.4034 Y1.4136
G3 X1.4187 Y1.4134 I0.0078 J0.0098
G1 X1.4302 Y1.4221
X1.584 Y1.5379
X1.592 Y1.544
G3 X1.5937 Y1.5624 I-0.0075 J0.01
G1 X1.5858 Y1.5704
X1.5813 Y1.5745
X1.5762 Y1.5775
X1.5706 Y1.5799
X1.5649 Y1.5816
X1.559 Y1.5829
X1.5531 Y1.5837
X1.5471 Y1.5842
X1.5411 Y1.5843
X1.5351 Y1.5842
X1.5291 Y1.5838
X1.5231 Y1.5831
X1.5172 Y1.5822
X1.5113 Y1.5811
X1.5055 Y1.5798
X1.4997 Y1.5783
X1.4939 Y1.5765
X1.488 Y1.5746
X1.4821 Y1.5724
X1.4761 Y1.57
X1.4702 Y1.5674
X1.4644 Y1.5646
X1.4586 Y1.5616
X1.4529 Y1.5584
X1.4473 Y1.555
X1.4418 Y1.5515
X1.4365 Y1.5478
X1.4314 Y1.544
X1.4265 Y1.5401
X1.4219 Y1.5362
X1.4174 Y1.5322
X1.4131 Y1.5281
X1.4089 Y1.5238
X1.4048 Y1.5193
X1.401 Y1.5148
X1.3973 Y1.51
X1.3938 Y1.5051
X1.3905 Y1.5001
X1.3875 Y1.4949
X1.3848 Y1.4896
X1.3824 Y1.4841
X1.3804 Y1.4784
X1.3788 Y1.4726
X1.3776 Y1.4666
Y1.4561
X1.3795 Y1.4457
X1.3834 Y1.436
X1.3892 Y1.4271
X1.3965 Y1.4196
X1.4034 Y1.4136
G3 X1.4192 Y1.4138 I0.0078 J0.0098
G1 X1.4298 Y1.4227
X1.5765 Y1.5455
X1.5846 Y1.5523
G3 X1.5857 Y1.5704 I-0.008 J0.0096
G1 X1.5778 Y1.5784
X1.5734 Y1.5824
X1.5682 Y1.5855
X1.5627 Y1.5879
X1.557 Y1.5896
X1.5511 Y1.5908
X1.5452 Y1.5916
X1.5392 Y1.5921
X1.5332 Y1.5922
X1.5272 Y1.592
X1.5212 Y1.5915
X1.5152 Y1.5908
X1.5093 Y1.5898
X1.5034 Y1.5886
X1.4976 Y1.5872
X1.4918 Y1.5857
X1.4861 Y1.5839
X1.4802 Y1.5819
X1.4743 Y1.5796
X1.4685 Y1.5772
X1.4626 Y1.5745
X1.4568 Y1.5717
X1.451 Y1.5686
X1.4453 Y1.5653
X1.4397 Y1.5619
X1.4343 Y1.5583
X1.4291 Y1.5546
X1.424 Y1.5508
X1.4192 Y1.5469
X1.4147 Y1.543
X1.4103 Y1.5389
X1.406 Y1.5347
X1.4018 Y1.5304
X1.3978 Y1.5259
X1.394 Y1.5213
X1.3904 Y1.5165
X1.3869 Y1.5116
X1.3837 Y1.5065
X1.3807 Y1.5013
X1.378 Y1.496
X1.3756 Y1.4905
X1.3735 Y1.4848
X1.372 Y1.4791
X1.3708 Y1.4732
X1.3707 Y1.4727
X1.3706 Y1.4622
X1.3726 Y1.4518
X1.3765 Y1.442
X1.3822 Y1.4331
X1.3895 Y1.4255
X1.3965 Y1.4196
G3 X1.4123 Y1.4199 I0.0077 J0.0097
G1 X1.4228 Y1.4287
X1.5686 Y1.5534
X1.5768 Y1.5604
G3 X1.5778 Y1.5784 I-0.0081 J0.0095
G1 X1.5695 Y1.5867
X1.5651 Y1.5907
X1.5599 Y1.5937
X1.5543 Y1.596
X1.5485 Y1.5976
X1.5427 Y1.5988
X1.5367 Y1.5995
X1.5307 Y1.5999
X1.5247
X1.5187 Y1.5996
X1.5127 Y1.5991
X1.5068 Y1.5983
X1.5009 Y1.5972
X1.495 Y1.596
X1.4892 Y1.5945
X1.4834 Y1.5928
X1.4777 Y1.591
X1.4719 Y1.5889
X1.4661 Y1.5866
X1.4602 Y1.5841
X1.4544 Y1.5813
X1.4486 Y1.5784
X1.4428 Y1.5752
X1.4372 Y1.5719
X1.4317 Y1.5684
X1.4264 Y1.5648
X1.4212 Y1.561
X1.4162 Y1.5571
X1.4114 Y1.5532
X1.4069 Y1.5491
X1.4025 Y1.545
X1.3983 Y1.5408
X1.3942 Y1.5364
X1.3903 Y1.5319
X1.3865 Y1.5272
X1.3829 Y1.5224
X1.3796 Y1.5174
X1.3764 Y1.5123
X1.3735 Y1.5071
X1.3708 Y1.5017
X1.3685 Y1.4962
X1.3664 Y1.4905
X1.3649 Y1.4847
X1.3637 Y1.4788
Y1.4783
Y1.4678
X1.3656 Y1.4575
X1.3695 Y1.4478
X1.3752 Y1.439
X1.3825 Y1.4315
X1.3895 Y1.4255
G3 X1.4055 Y1.4259 I0.0078 J0.0098
G1 X1.4157 Y1.4348
X1.5604 Y1.5616
X1.5686 Y1.5688
G3 X1.5695 Y1.5867 I-0.0082 J0.0094
G1 X1.5619 Y1.5943
X1.5607 Y1.5955
X1.5562 Y1.5994
X1.5509 Y1.6022
X1.5452 Y1.6043
X1.5394 Y1.6058
X1.5335 Y1.6068
X1.5275 Y1.6074
X1.5215 Y1.6076
X1.5155 Y1.6075
X1.5095 Y1.6071
X1.5036 Y1.6064
X1.4977 Y1.6055
X1.4918 Y1.6044
X1.4859 Y1.603
X1.4801 Y1.6015
X1.4744 Y1.5997
X1.4687 Y1.5978
X1.4629 Y1.5956
X1.4571 Y1.5932
X1.4513 Y1.5905
X1.4455 Y1.5877
X1.4397 Y1.5846
X1.434 Y1.5814
X1.4285 Y1.578
X1.423 Y1.5744
X1.4178 Y1.5707
X1.4127 Y1.5668
X1.4077 Y1.5629
X1.403 Y1.5588
X1.3986 Y1.5547
X1.3943 Y1.5506
X1.3901 Y1.5462
X1.3861 Y1.5418
X1.3822 Y1.5372
X1.3786 Y1.5324
X1.3751 Y1.5276
X1.3718 Y1.5225
X1.3687 Y1.5174
X1.3658 Y1.5121
X1.3632 Y1.5067
X1.361 Y1.5011
X1.359 Y1.4955
X1.3576 Y1.4896
X1.3565 Y1.4837
Y1.4834
X1.3566 Y1.4731
X1.3587 Y1.463
X1.3626 Y1.4535
X1.3683 Y1.4449
X1.3754 Y1.4375
X1.3825 Y1.4315
G3 X1.3987 Y1.432 I0.0078 J0.0097
G1 X1.4086 Y1.4409
X1.5519 Y1.5702
X1.56 Y1.5776
G3 X1.5606 Y1.5954 I-0.0084 J0.0092
G1 X1.5577 Y1.5984
X1.5511 Y1.6042
X1.5464 Y1.6079
X1.541 Y1.6105
X1.5353 Y1.6124
X1.5294 Y1.6137
X1.5235 Y1.6146
X1.5175 Y1.615
X1.5115 Y1.6151
X1.5055 Y1.6149
X1.4995 Y1.6144
X1.4936 Y1.6136
X1.4877 Y1.6125
X1.4818 Y1.6113
X1.476 Y1.6098
X1.4702 Y1.6081
X1.4645 Y1.6062
X1.4589 Y1.6042
X1.4531 Y1.6018
X1.4473 Y1.5993
X1.4415 Y1.5965
X1.4358 Y1.5936
X1.4301 Y1.5904
X1.4245 Y1.587
X1.419 Y1.5835
X1.4136 Y1.5798
X1.4084 Y1.576
X1.4034 Y1.572
X1.3986 Y1.568
X1.394 Y1.5639
X1.3896 Y1.5597
X1.3854 Y1.5554
X1.3813 Y1.551
X1.3774 Y1.5465
X1.3736 Y1.5418
X1.3701 Y1.537
X1.3667 Y1.532
X1.3635 Y1.5269
X1.3605 Y1.5217
X1.3578 Y1.5164
X1.3553 Y1.5109
X1.3532 Y1.5053
X1.3514 Y1.4996
X1.3501 Y1.4937
X1.35 Y1.4929
X1.3495 Y1.4819
X1.3512 Y1.4711
X1.355 Y1.4607
X1.3609 Y1.4514
X1.3685 Y1.4434
X1.3754 Y1.4375
G3 X1.3917 Y1.4381 I0.0078 J0.0098
G1 X1.4014 Y1.4471
X1.5435 Y1.5788
X1.5511 Y1.5859
G3 Y1.6043 I-0.0085 J0.0092
G1 X1.5418 Y1.6123
X1.5371 Y1.616
X1.5316 Y1.6185
X1.5259 Y1.6202
X1.52 Y1.6214
X1.5141 Y1.6222
X1.5081 Y1.6225
X1.5021
X1.4961 Y1.6222
X1.4901 Y1.6215
X1.4842 Y1.6206
X1.4783 Y1.6195
X1.4724 Y1.6181
X1.4667 Y1.6166
X1.4609 Y1.6148
X1.4553 Y1.6128
X1.4496 Y1.6106
X1.4439 Y1.6082
X1.4381 Y1.6056
X1.4324 Y1.6027
X1.4267 Y1.5997
X1.4211 Y1.5964
X1.4155 Y1.5929
X1.4101 Y1.5893
X1.4048 Y1.5855
X1.3997 Y1.5816
X1.3947 Y1.5776
X1.3899 Y1.5734
X1.3854 Y1.5692
X1.381 Y1.565
X1.3769 Y1.5606
X1.3729 Y1.5561
X1.3691 Y1.5515
X1.3654 Y1.5468
X1.3619 Y1.5419
X1.3586 Y1.5369
X1.3555 Y1.5318
X1.3526 Y1.5265
X1.3499 Y1.5211
X1.3476 Y1.5156
X1.3456 Y1.51
X1.344 Y1.5042
X1.3428 Y1.4983
X1.3426 Y1.497
X1.3425 Y1.4864
X1.3444 Y1.476
X1.3483 Y1.4661
X1.354 Y1.4571
X1.3614 Y1.4495
X1.3685 Y1.4434
G3 X1.3849 Y1.4441 I0.0078 J0.0098
G1 X1.3943 Y1.4532
X1.5343 Y1.5868
X1.5419 Y1.5941
G3 X1.5418 Y1.6122 I-0.0086 J0.009
G1 X1.5337 Y1.6193
X1.529 Y1.623
X1.5236 Y1.6256
X1.5179 Y1.6275
X1.512 Y1.6287
X1.506 Y1.6295
X1.5001 Y1.6298
X1.4941
X1.4881 Y1.6294
X1.4821 Y1.6288
X1.4762 Y1.6278
X1.4703 Y1.6266
X1.4645 Y1.6252
X1.4587 Y1.6236
X1.453 Y1.6218
X1.4473 Y1.6198
X1.4417 Y1.6176
X1.436 Y1.6151
X1.4303 Y1.6124
X1.4247 Y1.6096
X1.4191 Y1.6065
X1.4135 Y1.6032
X1.408 Y1.5997
X1.4025 Y1.596
X1.3972 Y1.5922
X1.3921 Y1.5882
X1.3871 Y1.5841
X1.3824 Y1.5799
X1.3779 Y1.5757
X1.3736 Y1.5714
X1.3695 Y1.567
X1.3656 Y1.5625
X1.3618 Y1.5579
X1.3581 Y1.5531
X1.3546 Y1.5482
X1.3514 Y1.5432
X1.3483 Y1.5381
X1.3454 Y1.5328
X1.3428 Y1.5274
X1.3405 Y1.5218
X1.3385 Y1.5162
X1.3369 Y1.5104
X1.3357 Y1.5045
X1.3355 Y1.5034
X1.3354 Y1.4927
X1.3372 Y1.4822
X1.3411 Y1.4722
X1.3469 Y1.4633
X1.3543 Y1.4556
X1.3614 Y1.4495
G3 X1.3779 Y1.4503 I0.0078 J0.0098
G1 X1.3872 Y1.4593
X1.5262 Y1.5938
X1.5339 Y1.6011
G3 X1.5337 Y1.6193 I-0.0087 J0.009
G1 X1.5253 Y1.6265
X1.5206 Y1.6302
X1.5152 Y1.6329
X1.5095 Y1.6347
X1.5037 Y1.636
X1.4977 Y1.6367
X1.4917 Y1.637
X1.4857
X1.4797 Y1.6366
X1.4738 Y1.6358
X1.4679 Y1.6349
X1.462 Y1.6336
X1.4562 Y1.6322
X1.4504 Y1.6305
X1.4447 Y1.6286
X1.4391 Y1.6266
X1.4335 Y1.6243
X1.4279 Y1.6218
X1.4222 Y1.6191
X1.4166 Y1.6162
X1.411 Y1.613
X1.4054 Y1.6097
X1.4 Y1.6061
X1.3946 Y1.6024
X1.3893 Y1.5985
X1.3842 Y1.5945
X1.3793 Y1.5903
X1.3746 Y1.5861
X1.3701 Y1.5818
X1.3658 Y1.5774
X1.3618 Y1.573
X1.3579 Y1.5684
X1.3541 Y1.5638
X1.3505 Y1.559
X1.3471 Y1.5541
X1.3438 Y1.549
X1.3408 Y1.5438
X1.338 Y1.5385
X1.3354 Y1.5331
X1.3331 Y1.5276
X1.3311 Y1.5219
X1.3296 Y1.5161
X1.3285 Y1.5102
X1.3283 Y1.5089
Y1.4977
X1.3305 Y1.4868
X1.3348 Y1.4766
X1.3412 Y1.4675
X1.3493 Y1.4598
G3 X1.3651 Y1.4607 I0.0073 J0.0102
G1 X1.3752 Y1.4702
X1.5177 Y1.6012
X1.5253 Y1.6082
G3 X1.5254 Y1.6265 I-0.0085 J0.0092
G1 X1.5175 Y1.6333
X1.5151 Y1.6353
X1.5102 Y1.6388
X1.5046 Y1.641
X1.4988 Y1.6426
X1.4929 Y1.6436
X1.4869 Y1.6441
X1.4809 Y1.6442
X1.4749 Y1.6439
X1.469 Y1.6433
X1.463 Y1.6425
X1.4571 Y1.6414
X1.4513 Y1.64
X1.4455 Y1.6384
X1.4398 Y1.6366
X1.4341 Y1.6346
X1.4286 Y1.6324
X1.423 Y1.63
X1.4174 Y1.6274
X1.4118 Y1.6245
X1.4062 Y1.6214
X1.4006 Y1.6181
X1.3951 Y1.6146
X1.3897 Y1.6109
X1.3844 Y1.6071
X1.3793 Y1.6031
X1.3743 Y1.5989
X1.3694 Y1.5947
X1.3648 Y1.5903
X1.3604 Y1.5859
X1.3562 Y1.5814
X1.3523 Y1.5769
X1.3485 Y1.5723
X1.3448 Y1.5675
X1.3413 Y1.5627
X1.338 Y1.5577
X1.3349 Y1.5525
X1.332 Y1.5473
X1.3293 Y1.5419
X1.3269 Y1.5364
X1.3248 Y1.5308
X1.3231 Y1.525
X1.3218 Y1.5192
X1.3208 Y1.5133
Y1.512
X1.3212 Y1.501
X1.3238 Y1.4903
X1.3286 Y1.4803
X1.3352 Y1.4715
X1.3435 Y1.4643
X1.3469 Y1.4616
X1.3493 Y1.4598
G3 X1.3656 Y1.4613 I0.0073 J0.0102
G1 X1.3747 Y1.4708
X1.5086 Y1.6095
X1.5159 Y1.6171
G3 X1.5151 Y1.6353 I-0.009 J0.0087
G1 X1.5117 Y1.6379
X1.5059 Y1.6424
X1.501 Y1.6458
X1.4954 Y1.6481
X1.4896 Y1.6497
X1.4837 Y1.6506
X1.4777 Y1.6511
X1.4717
X1.4657 Y1.6508
X1.4598 Y1.6502
X1.4539 Y1.6492
X1.448 Y1.648
X1.4422 Y1.6466
X1.4364 Y1.6449
X1.4307 Y1.643
X1.4251 Y1.6409
X1.4195 Y1.6387
X1.414 Y1.6362
X1.4084 Y1.6335
X1.4028 Y1.6305
X1.3973 Y1.6274
X1.3917 Y1.624
X1.3863 Y1.6204
X1.3809 Y1.6167
X1.3757 Y1.6128
X1.3706 Y1.6087
X1.3656 Y1.6045
X1.3608 Y1.6001
X1.3563 Y1.5957
X1.3519 Y1.5912
X1.3478 Y1.5867
X1.3439 Y1.5821
X1.3401 Y1.5775
X1.3366 Y1.5727
X1.3331 Y1.5677
X1.3299 Y1.5627
X1.3269 Y1.5575
X1.324 Y1.5522
X1.3215 Y1.5468
X1.3191 Y1.5413
X1.3171 Y1.5356
X1.3154 Y1.5298
X1.3142 Y1.524
X1.3134 Y1.518
X1.3133 Y1.5167
X1.3138 Y1.5058
X1.3165 Y1.4953
X1.3213 Y1.4854
X1.3279 Y1.4768
X1.336 Y1.4696
X1.3435 Y1.4643
G3 X1.3595 Y1.4662 I0.0069 J0.0104
G1 X1.3686 Y1.4759
X1.4999 Y1.6165
X1.5071 Y1.6242
G3 X1.506 Y1.6425 I-0.0092 J0.0086
G1 X1.4964 Y1.6497
X1.4914 Y1.6531
X1.4858 Y1.6553
X1.48 Y1.6568
X1.4741 Y1.6576
X1.4681 Y1.658
X1.4621 Y1.6579
X1.4561 Y1.6575
X1.4501 Y1.6568
X1.4442 Y1.6557
X1.4384 Y1.6545
X1.4326 Y1.6529
X1.4268 Y1.6512
X1.4212 Y1.6492
X1.4156 Y1.647
X1.41 Y1.6447
X1.4046 Y1.6421
X1.399 Y1.6393
X1.3935 Y1.6363
X1.388 Y1.633
X1.3825 Y1.6296
X1.3771 Y1.6259
X1.3717 Y1.6221
X1.3665 Y1.6181
X1.3615 Y1.6139
X1.3566 Y1.6096
X1.3519 Y1.6052
X1.3474 Y1.6008
X1.3432 Y1.5962
X1.3392 Y1.5917
X1.3353 Y1.5871
X1.3317 Y1.5824
X1.3281 Y1.5775
X1.3248 Y1.5725
X1.3216 Y1.5674
X1.3187 Y1.5622
X1.316 Y1.5569
X1.3134 Y1.5514
X1.3112 Y1.5458
X1.3093 Y1.5402
X1.3077 Y1.5344
X1.3066 Y1.5285
X1.3058 Y1.5225
X1.3057 Y1.5211
X1.3065 Y1.51
X1.3095 Y1.4993
X1.3146 Y1.4894
X1.3216 Y1.4807
X1.3302 Y1.4736
X1.3325 Y1.4721
X1.336 Y1.4696
G3 X1.3522 Y1.4716 I0.0069 J0.0104
G1 X1.3611 Y1.4813
X1.4905 Y1.6238
X1.4977 Y1.6316
X1.4991 Y1.6335
X1.5001 Y1.6355
X1.5007 Y1.6377
X1.5009 Y1.64
Y1.6401
G3 X1.4964 Y1.6497 I-0.0125 J0
G1 X1.4877 Y1.6562
X1.4828 Y1.6596
X1.4772 Y1.662
X1.4714 Y1.6634
X1.4655 Y1.6643
X1.4595 Y1.6647
X1.4535 Y1.6646
X1.4475 Y1.6642
X1.4416 Y1.6634
X1.4357 Y1.6624
X1.4298 Y1.661
X1.424 Y1.6595
X1.4183 Y1.6577
X1.4127 Y1.6556
X1.4071 Y1.6534
X1.4016 Y1.651
X1.3961 Y1.6484
X1.3906 Y1.6456
X1.3852 Y1.6426
X1.3797 Y1.6393
X1.3743 Y1.6358
X1.3689 Y1.6321
X1.3637 Y1.6283
X1.3585 Y1.6242
X1.3535 Y1.62
X1.3486 Y1.6156
X1.3439 Y1.6112
X1.3395 Y1.6067
X1.3353 Y1.6022
X1.3313 Y1.5976
X1.3275 Y1.593
X1.3239 Y1.5882
X1.3204 Y1.5833
X1.3171 Y1.5783
X1.314 Y1.5732
X1.3111 Y1.5679
X1.3084 Y1.5626
X1.3059 Y1.5571
X1.3037 Y1.5515
X1.3018 Y1.5458
X1.3002 Y1.5401
X1.299 Y1.5342
X1.2983 Y1.5282
X1.298 Y1.5222
Y1.5219
X1.2995 Y1.5113
X1.303 Y1.5012
X1.3084 Y1.492
X1.3155 Y1.484
X1.324 Y1.4776
X1.3267 Y1.476
X1.3302 Y1.4736
G3 X1.3461 Y1.476 I0.0065 J0.0107
G1 X1.355 Y1.4861
X1.4821 Y1.6302
X1.4892 Y1.6383
G3 X1.4877 Y1.6562 I-0.0093 J0.0082
G1 X1.4801 Y1.662
X1.4784 Y1.6633
X1.4734 Y1.6666
X1.4678 Y1.6688
X1.462 Y1.6702
X1.456 Y1.671
X1.45 Y1.6713
X1.444 Y1.6712
X1.4381 Y1.6707
X1.4321 Y1.6699
X1.4262 Y1.6687
X1.4204 Y1.6673
X1.4146 Y1.6657
X1.4089 Y1.6638
X1.4033 Y1.6617
X1.3978 Y1.6594
X1.3923 Y1.6569
X1.3869 Y1.6543
X1.3815 Y1.6514
X1.376 Y1.6483
X1.3706 Y1.6449
X1.3652 Y1.6413
X1.3599 Y1.6376
X1.3546 Y1.6336
X1.3495 Y1.6295
X1.3446 Y1.6253
X1.3398 Y1.6209
X1.3352 Y1.6164
X1.3308 Y1.6119
X1.3267 Y1.6072
X1.3227 Y1.6026
X1.319 Y1.5979
X1.3154 Y1.5931
X1.312 Y1.5882
X1.3088 Y1.5831
X1.3057 Y1.5779
X1.3029 Y1.5727
X1.3002 Y1.5673
X1.2978 Y1.5618
X1.2957 Y1.5562
X1.2939 Y1.5505
X1.2923 Y1.5447
X1.2912 Y1.5388
X1.2905 Y1.5328
X1.2902 Y1.5268
Y1.5262
X1.2918 Y1.5157
X1.2953 Y1.5057
X1.3007 Y1.4966
X1.3078 Y1.4887
X1.3162 Y1.4824
X1.324 Y1.4776
G3 X1.3397 Y1.4803 I0.0062 J0.0109
G1 X1.3485 Y1.4908
X1.4732 Y1.6371
X1.4802 Y1.6453
G3 X1.4784 Y1.6632 I-0.0095 J0.0081
G1 X1.4683 Y1.6705
X1.4632 Y1.6738
X1.4576 Y1.6758
X1.4517 Y1.6771
X1.4457 Y1.6777
X1.4397 Y1.6779
X1.4337 Y1.6776
X1.4278 Y1.677
X1.4218 Y1.676
X1.416 Y1.6748
X1.4102 Y1.6733
X1.4044 Y1.6715
X1.3988 Y1.6695
X1.3932 Y1.6673
X1.3877 Y1.665
X1.3822 Y1.6624
X1.3769 Y1.6596
X1.3715 Y1.6566
X1.3661 Y1.6534
X1.3607 Y1.65
X1.3553 Y1.6463
X1.3501 Y1.6425
X1.3449 Y1.6384
X1.3399 Y1.6342
X1.3351 Y1.6299
X1.3304 Y1.6255
X1.3258 Y1.6209
X1.3215 Y1.6163
X1.3174 Y1.6116
X1.3136 Y1.6069
X1.31 Y1.6021
X1.3065 Y1.5972
X1.3031 Y1.5922
X1.3 Y1.5871
X1.297 Y1.5819
X1.2943 Y1.5766
X1.2917 Y1.5711
X1.2894 Y1.5656
X1.2874 Y1.5599
X1.2856 Y1.5542
X1.2842 Y1.5484
X1.2831 Y1.5425
X1.2826 Y1.5365
X1.2824 Y1.5305
Y1.53
X1.2841 Y1.5198
X1.2877 Y1.51
X1.2931 Y1.5011
X1.3 Y1.4934
X1.3083 Y1.4872
X1.3162 Y1.4824
G3 X1.332 Y1.4853 I0.0062 J0.0108
G1 X1.3406 Y1.4957
X1.4634 Y1.6443
X1.4703 Y1.6527
G3 X1.4682 Y1.6705 I-0.0097 J0.0079
G1 X1.464 Y1.6736
X1.4597 Y1.6766
X1.4584 Y1.6774
X1.4532 Y1.6805
X1.4475 Y1.6824
X1.4416 Y1.6836
X1.4357 Y1.6842
X1.4297
X1.4237 Y1.6839
X1.4177 Y1.6831
X1.4118 Y1.6821
X1.406 Y1.6807
X1.4002 Y1.6791
X1.3945 Y1.6773
X1.3888 Y1.6752
X1.3833 Y1.673
X1.3778 Y1.6705
X1.3724 Y1.6679
X1.3671 Y1.665
X1.3618 Y1.6619
X1.3564 Y1.6586
X1.3511 Y1.6551
X1.3458 Y1.6514
X1.3406 Y1.6474
X1.3355 Y1.6433
X1.3305 Y1.6391
X1.3257 Y1.6347
X1.3211 Y1.6301
X1.3167 Y1.6255
X1.3124 Y1.6208
X1.3084 Y1.6161
X1.3047 Y1.6113
X1.3011 Y1.6065
X1.2977 Y1.6016
X1.2944 Y1.5965
X1.2914 Y1.5914
X1.2885 Y1.5861
X1.2858 Y1.5807
X1.2833 Y1.5753
X1.2811 Y1.5697
X1.2791 Y1.564
X1.2775 Y1.5583
X1.2761 Y1.5524
X1.2751 Y1.5465
X1.2746 Y1.5405
X1.2745 Y1.5345
Y1.5343
X1.2763 Y1.5242
X1.2799 Y1.5146
X1.2853 Y1.5058
X1.2922 Y1.4982
X1.3004 Y1.4921
X1.3083 Y1.4872
G3 X1.3242 Y1.4902 I0.0062 J0.0109
G1 X1.3326 Y1.5006
X1.4543 Y1.6512
X1.4609 Y1.6594
G3 X1.4584 Y1.6774 I-0.0098 J0.0078
G1 X1.4481 Y1.6842
X1.4429 Y1.6872
X1.4372 Y1.689
X1.4313 Y1.69
X1.4253 Y1.6905
X1.4193 Y1.6904
X1.4133 Y1.6899
X1.4074 Y1.6891
X1.4015 Y1.688
X1.3957 Y1.6865
X1.3899 Y1.6848
X1.3842 Y1.6829
X1.3786 Y1.6807
X1.3731 Y1.6784
X1.3677 Y1.6758
X1.3623 Y1.6731
X1.3571 Y1.6701
X1.3517 Y1.667
X1.3464 Y1.6636
X1.3412 Y1.6599
X1.3359 Y1.6561
X1.3308 Y1.6521
X1.3258 Y1.6479
X1.3209 Y1.6436
X1.3162 Y1.6391
X1.3116 Y1.6345
X1.3073 Y1.6298
X1.3031 Y1.625
X1.2992 Y1.6202
X1.2955 Y1.6154
X1.292 Y1.6106
X1.2887 Y1.6056
X1.2855 Y1.6005
X1.2825 Y1.5953
X1.2797 Y1.59
X1.2771 Y1.5846
X1.2748 Y1.579
X1.2726 Y1.5734
X1.2707 Y1.5677
X1.2692 Y1.562
X1.2679 Y1.5561
X1.267 Y1.5502
X1.2666 Y1.5442
Y1.5433
X1.2677 Y1.5322
X1.2711 Y1.5216
X1.2765 Y1.5119
X1.2838 Y1.5036
X1.2926 Y1.4968
X1.3004 Y1.4921
G3 X1.3163 Y1.4953 I0.0061 J0.0108
G1 X1.3245 Y1.5056
X1.4442 Y1.6579
X1.4507 Y1.6662
G3 X1.4481 Y1.6841 I-0.0098 J0.0077
G1 X1.4386 Y1.6903
X1.4334 Y1.6933
X1.4277 Y1.6952
X1.4218 Y1.6962
X1.4158 Y1.6966
X1.4098 Y1.6965
X1.4038 Y1.696
X1.3979 Y1.6951
X1.392 Y1.6939
X1.3862 Y1.6924
X1.3805 Y1.6907
X1.3748 Y1.6887
X1.3693 Y1.6864
X1.3638 Y1.684
X1.3584 Y1.6814
X1.3531 Y1.6786
X1.3478 Y1.6756
X1.3425 Y1.6724
X1.3373 Y1.6689
X1.332 Y1.6653
X1.3269 Y1.6614
X1.3218 Y1.6574
X1.3169 Y1.6531
X1.312 Y1.6487
X1.3074 Y1.6442
X1.3028 Y1.6395
X1.2985 Y1.6348
X1.2944 Y1.63
X1.2905 Y1.6251
X1.2869 Y1.6203
X1.2835 Y1.6154
X1.2802 Y1.6103
X1.2771 Y1.6052
X1.2741 Y1.6
X1.2714 Y1.5946
X1.2688 Y1.5892
X1.2665 Y1.5837
X1.2644 Y1.5781
X1.2626 Y1.5723
X1.261 Y1.5665
X1.2598 Y1.5607
X1.2591 Y1.5547
X1.2586 Y1.5487
X1.2587 Y1.547
X1.26 Y1.5362
X1.2634 Y1.5259
X1.2688 Y1.5164
X1.276 Y1.5082
X1.2847 Y1.5017
X1.2926 Y1.4968
G3 X1.3087 Y1.5 I0.0062 J0.0109
G1 X1.3166 Y1.5104
X1.4348 Y1.664
X1.4414 Y1.6725
G3 X1.4386 Y1.6903 I-0.0099 J0.0076
G1 X1.4365 Y1.6917
X1.4307 Y1.6953
X1.4283 Y1.6967
X1.423 Y1.6995
X1.4172 Y1.7013
X1.4113 Y1.7022
X1.4053 Y1.7025
X1.3993 Y1.7024
X1.3933 Y1.7017
X1.3874 Y1.7008
X1.3816 Y1.6995
X1.3758 Y1.6979
X1.3701 Y1.696
X1.3644 Y1.6939
X1.3589 Y1.6916
X1.3535 Y1.6891
X1.3481 Y1.6864
X1.3428 Y1.6835
X1.3377 Y1.6805
X1.3324 Y1.6772
X1.3272 Y1.6736
X1.3221 Y1.6699
X1.317 Y1.6659
X1.3119 Y1.6618
X1.307 Y1.6574
X1.3023 Y1.653
X1.2977 Y1.6484
X1.2933 Y1.6436
X1.289 Y1.6388
X1.285 Y1.6339
X1.2812 Y1.629
X1.2776 Y1.624
X1.2742 Y1.6191
X1.271 Y1.614
X1.268 Y1.6088
X1.2651 Y1.6035
X1.2625 Y1.5982
X1.26 Y1.5927
X1.2578 Y1.5871
X1.2558 Y1.5815
X1.2541 Y1.5757
X1.2526 Y1.5699
X1.2516 Y1.564
X1.2509 Y1.558
X1.2506 Y1.552
X1.2507 Y1.5506
X1.2522 Y1.5401
X1.2557 Y1.5301
X1.2611 Y1.5209
X1.2682 Y1.513
X1.2767 Y1.5066
X1.2847 Y1.5017
G3 X1.3009 Y1.505 I0.0062 J0.0108
G1 X1.3086 Y1.5153
X1.4253 Y1.6704
X1.4315 Y1.6787
G3 X1.4283 Y1.6967 I-0.0099 J0.0075
G1 X1.4169 Y1.7034
X1.4116 Y1.7061
X1.4058 Y1.7076
X1.3998 Y1.7083
X1.3938 Y1.7084
X1.3878 Y1.708
X1.3819 Y1.7072
X1.376 Y1.7061
X1.3702 Y1.7046
X1.3644 Y1.7029
X1.3587 Y1.7009
X1.3532 Y1.6987
X1.3477 Y1.6963
X1.3423 Y1.6937
X1.337 Y1.6909
X1.3318 Y1.6879
X1.3266 Y1.6847
X1.3215 Y1.6813
X1.3163 Y1.6776
X1.3112 Y1.6737
X1.3062 Y1.6696
X1.3013 Y1.6654
X1.2965 Y1.6609
X1.2918 Y1.6564
X1.2873 Y1.6516
X1.2829 Y1.6468
X1.2788 Y1.6419
X1.2749 Y1.6369
X1.2712 Y1.6319
X1.2677 Y1.6269
X1.2644 Y1.6218
X1.2613 Y1.6167
X1.2584 Y1.6115
X1.2557 Y1.6061
X1.2531 Y1.6007
X1.2508 Y1.5952
X1.2487 Y1.5895
X1.2469 Y1.5838
X1.2453 Y1.578
X1.244 Y1.5722
X1.2431 Y1.5662
X1.2427 Y1.5602
X1.2426 Y1.5542
X1.2427 Y1.5533
X1.2446 Y1.5428
X1.2485 Y1.533
X1.2542 Y1.524
X1.2616 Y1.5164
X1.2702 Y1.5103
X1.2746 Y1.5078
X1.2767 Y1.5066
G3 X1.2929 Y1.5102 I0.0061 J0.0108
G1 X1.3004 Y1.5204
X1.4142 Y1.677
X1.4204 Y1.6855
G3 X1.4169 Y1.7034 I-0.0102 J0.0073
G1 X1.4076 Y1.7088
X1.4023 Y1.7116
X1.3965 Y1.7132
X1.3906 Y1.7139
X1.3846 Y1.7141
X1.3786 Y1.7137
X1.3726 Y1.7129
X1.3667 Y1.7118
X1.3609 Y1.7103
X1.3552 Y1.7085
X1.3495 Y1.7065
X1.344 Y1.7043
X1.3385 Y1.7018
X1.3331 Y1.6991
X1.3279 Y1.6963
X1.3227 Y1.6932
X1.3176 Y1.69
X1.3124 Y1.6865
X1.3074 Y1.6829
X1.3023 Y1.679
X1.2974 Y1.6749
X1.2925 Y1.6706
X1.2877 Y1.6661
X1.2831 Y1.6615
X1.2786 Y1.6567
X1.2743 Y1.6518
X1.2701 Y1.6468
X1.2662 Y1.6418
X1.2625 Y1.6367
X1.2591 Y1.6317
X1.2559 Y1.6267
X1.2529 Y1.6215
X1.25 Y1.6162
X1.2473 Y1.6109
X1.2448 Y1.6054
X1.2425 Y1.5999
X1.2405 Y1.5942
X1.2386 Y1.5885
X1.2371 Y1.5827
X1.2359 Y1.5768
X1.235 Y1.5709
X1.2346 Y1.5649
X1.2345 Y1.5589
X1.2346 Y1.5578
X1.2366 Y1.5471
X1.2406 Y1.5371
X1.2465 Y1.528
X1.2541 Y1.5203
X1.263 Y1.5143
X1.2689 Y1.5111
X1.2702 Y1.5103
G3 X1.2862 Y1.5142 I0.0058 J0.0111
G1 X1.2937 Y1.5248
X1.405 Y1.6823
X1.4112 Y1.691
G3 X1.4076 Y1.7088 I-0.0102 J0.0072
G1 X1.4018 Y1.7122
X1.3971 Y1.7148
X1.3917 Y1.7174
X1.3859 Y1.7189
X1.38 Y1.7195
X1.374 Y1.7196
X1.368 Y1.7191
X1.3621 Y1.7182
X1.3562 Y1.717
X1.3504 Y1.7154
X1.3447 Y1.7136
X1.3391 Y1.7115
X1.3335 Y1.7091
X1.3281 Y1.7066
X1.3228 Y1.7038
X1.3175 Y1.7009
X1.3124 Y1.6978
X1.3074 Y1.6945
X1.3023 Y1.691
X1.2973 Y1.6872
X1.2923 Y1.6832
X1.2873 Y1.679
X1.2825 Y1.6746
X1.2778 Y1.6701
X1.2732 Y1.6654
X1.2688 Y1.6605
X1.2646 Y1.6556
X1.2605 Y1.6506
X1.2567 Y1.6455
X1.2531 Y1.6404
X1.2498 Y1.6353
X1.2466 Y1.6302
X1.2437 Y1.625
X1.2409 Y1.6197
X1.2383 Y1.6143
X1.2359 Y1.6088
X1.2337 Y1.6032
X1.2317 Y1.5975
X1.23 Y1.5918
X1.2286 Y1.5859
X1.2274 Y1.58
X1.2267 Y1.5741
X1.2265 Y1.5718
X1.2273 Y1.5587
X1.2311 Y1.5461
X1.2375 Y1.5347
X1.2463 Y1.525
X1.2571 Y1.5175
X1.263 Y1.5143
G3 X1.2789 Y1.5184 I0.0056 J0.0112
G1 X1.2862 Y1.5291
X1.3952 Y1.6883
X1.4011 Y1.697
G3 X1.3971 Y1.7147 I-0.0103 J0.007
G1 X1.3869 Y1.7204
X1.3815 Y1.723
X1.3757 Y1.7244
X1.3697 Y1.725
X1.3637
X1.3577 Y1.7245
X1.3518 Y1.7235
X1.3459 Y1.7222
X1.3402 Y1.7206
X1.3345 Y1.7186
X1.3289 Y1.7165
X1.3234 Y1.7141
X1.318 Y1.7114
X1.3127 Y1.7086
X1.3075 Y1.7056
X1.3024 Y1.7024
X1.2974 Y1.6991
X1.2924 Y1.6954
X1.2874 Y1.6916
X1.2824 Y1.6875
X1.2776 Y1.6833
X1.2728 Y1.6789
X1.2681 Y1.6742
X1.2636 Y1.6695
X1.2593 Y1.6646
X1.2551 Y1.6596
X1.2512 Y1.6545
X1.2474 Y1.6494
X1.2439 Y1.6443
X1.2406 Y1.6392
X1.2376 Y1.634
X1.2347 Y1.6288
X1.2319 Y1.6234
X1.2294 Y1.618
X1.2271 Y1.6124
X1.225 Y1.6068
X1.2231 Y1.6011
X1.2214 Y1.5954
X1.2201 Y1.5895
X1.2192 Y1.5836
X1.2186 Y1.5776
X1.2184 Y1.5716
X1.2187 Y1.5656
X1.2194 Y1.5597
X1.2198 Y1.5582
X1.223 Y1.5483
X1.2279 Y1.5392
X1.2346 Y1.5313
X1.2426 Y1.5247
X1.2517 Y1.5198
X1.2571 Y1.5175
G3 X1.2719 Y1.5223 I0.0044 J0.0116
G1 X1.2797 Y1.5339
X1.3851 Y1.6938
X1.3909 Y1.7028
G3 X1.3869 Y1.7204 I-0.0104 J0.0069
G1 X1.3845 Y1.7217
X1.3787 Y1.7248
X1.3758 Y1.7263
X1.3703 Y1.7287
X1.3645 Y1.7299
X1.3585 Y1.7304
X1.3525 Y1.7302
X1.3465 Y1.7295
X1.3406 Y1.7284
X1.3348 Y1.727
X1.3291 Y1.7253
X1.3234 Y1.7232
X1.3179 Y1.721
X1.3124 Y1.7184
X1.3071 Y1.7157
X1.3018 Y1.7128
X1.2967 Y1.7097
X1.2917 Y1.7064
X1.2867 Y1.703
X1.2817 Y1.6993
X1.2768 Y1.6954
X1.2719 Y1.6912
X1.2671 Y1.6869
X1.2624 Y1.6823
X1.2578 Y1.6776
X1.2534 Y1.6728
X1.2491 Y1.6678
X1.2451 Y1.6628
X1.2412 Y1.6577
X1.2376 Y1.6525
X1.2342 Y1.6473
X1.231 Y1.6421
X1.228 Y1.6369
X1.2252 Y1.6316
X1.2226 Y1.6262
X1.2201 Y1.6207
X1.2179 Y1.6152
X1.2159 Y1.6095
X1.2142 Y1.6038
X1.2127 Y1.5979
X1.2115 Y1.5921
X1.2107 Y1.5861
X1.2101 Y1.5801
X1.21 Y1.5741
X1.2104 Y1.5682
X1.2111 Y1.5622
X1.2112 Y1.5617
X1.2145 Y1.5517
X1.2195 Y1.5426
X1.2262 Y1.5346
X1.2344 Y1.528
X1.2436 Y1.5231
X1.2517 Y1.5198
G3 X1.2668 Y1.5249 I0.0045 J0.0116
G1 X1.2739 Y1.5364
X1.3748 Y1.6997
X1.3804 Y1.7087
X1.3815 Y1.7108
X1.3821 Y1.713
X1.3823 Y1.7153
G3 X1.3758 Y1.7263 I-0.0125 J0
G1 X1.3656 Y1.7314
X1.3602 Y1.7338
X1.3543 Y1.7351
X1.3483 Y1.7355
X1.3423 Y1.7353
X1.3364 Y1.7346
X1.3305 Y1.7335
X1.3246 Y1.732
X1.3189 Y1.7302
X1.3133 Y1.7281
X1.3078 Y1.7257
X1.3024 Y1.7232
X1.297 Y1.7204
X1.2918 Y1.7174
X1.2867 Y1.7142
X1.2817 Y1.7109
X1.2768 Y1.7074
X1.2719 Y1.7036
X1.267 Y1.6997
X1.2622 Y1.6955
X1.2574 Y1.6911
X1.2528 Y1.6865
X1.2483 Y1.6818
X1.244 Y1.6769
X1.2398 Y1.6719
X1.2357 Y1.6668
X1.2319 Y1.6616
X1.2283 Y1.6564
X1.225 Y1.6512
X1.2219 Y1.646
X1.219 Y1.6408
X1.2163 Y1.6354
X1.2137 Y1.63
X1.2113 Y1.6245
X1.2092 Y1.6189
X1.2073 Y1.6132
X1.2056 Y1.6074
X1.2041 Y1.6016
X1.203 Y1.5957
X1.2022 Y1.5898
X1.2017 Y1.5838
X1.2015 Y1.5778
X1.2018 Y1.5718
X1.2026 Y1.5659
X1.2027 Y1.5654
X1.2059 Y1.5554
X1.2109 Y1.5462
X1.2177 Y1.5382
X1.2258 Y1.5316
X1.2351 Y1.5267
X1.2436 Y1.5231
G3 X1.2587 Y1.5284 I0.0044 J0.0117
G1 X1.2657 Y1.54
X1.3648 Y1.7047
X1.3703 Y1.714
G3 X1.3657 Y1.7314 I-0.0107 J0.0065
G1 X1.3614 Y1.7336
X1.3538 Y1.7372
X1.3483 Y1.7395
X1.3423 Y1.7404
X1.3363 Y1.7406
X1.3304 Y1.7401
X1.3244 Y1.7392
X1.3186 Y1.7379
X1.3128 Y1.7363
X1.3071 Y1.7343
X1.3016 Y1.7321
X1.2961 Y1.7297
X1.2907 Y1.727
X1.2855 Y1.7241
X1.2803 Y1.721
X1.2753 Y1.7177
X1.2704 Y1.7143
X1.2655 Y1.7107
X1.2607 Y1.7068
X1.2559 Y1.7027
X1.2511 Y1.6984
X1.2464 Y1.6939
X1.2419 Y1.6892
X1.2375 Y1.6843
X1.2332 Y1.6794
X1.2291 Y1.6743
X1.2253 Y1.6691
X1.2216 Y1.6639
X1.2182 Y1.6587
X1.215 Y1.6535
X1.212 Y1.6483
X1.2092 Y1.643
X1.2066 Y1.6376
X1.2041 Y1.6321
X1.2019 Y1.6266
X1.1999 Y1.6209
X1.198 Y1.6152
X1.1965 Y1.6094
X1.1952 Y1.6035
X1.1941 Y1.5976
X1.1934 Y1.5917
X1.193 Y1.5857
Y1.5797
X1.1934 Y1.5737
X1.1943 Y1.5676
X1.1988 Y1.5556
X1.2059 Y1.5451
X1.2153 Y1.5364
X1.2264 Y1.5302
X1.2351 Y1.5267
G3 X1.2502 Y1.5321 I0.0043 J0.0117
G1 X1.2569 Y1.5437
X1.3535 Y1.7105
X1.3588 Y1.7198
G3 X1.3538 Y1.7372 I-0.0108 J0.0063
G1 X1.344 Y1.7419
X1.3385 Y1.7442
X1.3326 Y1.7452
X1.3266 Y1.7454
X1.3206 Y1.745
X1.3147 Y1.7441
X1.3088 Y1.7428
X1.303 Y1.7411
X1.2974 Y1.7391
X1.2918 Y1.7369
X1.2864 Y1.7344
X1.281 Y1.7317
X1.2758 Y1.7287
X1.2707 Y1.7256
X1.2657 Y1.7223
X1.2608 Y1.7188
X1.256 Y1.7151
X1.2511 Y1.7112
X1.2464 Y1.7071
X1.2417 Y1.7028
X1.2371 Y1.6983
X1.2327 Y1.6936
X1.2283 Y1.6887
X1.2241 Y1.6837
X1.2201 Y1.6786
X1.2162 Y1.6734
X1.2126 Y1.6682
X1.2092 Y1.6629
X1.2061 Y1.6577
X1.2031 Y1.6525
X1.2004 Y1.6472
X1.1978 Y1.6417
X1.1954 Y1.6362
X1.1932 Y1.6307
X1.1912 Y1.625
X1.1894 Y1.6193
X1.1879 Y1.6135
X1.1866 Y1.6076
X1.1855 Y1.6017
X1.1848 Y1.5958
X1.1844 Y1.5898
X1.1843 Y1.5838
X1.1848 Y1.5778
X1.185 Y1.5761
X1.1878 Y1.5652
X1.1927 Y1.5551
X1.1996 Y1.5463
X1.2082 Y1.539
X1.2181 Y1.5337
X1.2264 Y1.5302
G3 X1.2417 Y1.5357 I0.0044 J0.0117
G1 X1.2482 Y1.5473
X1.3437 Y1.7152
X1.3491 Y1.7246
G3 X1.344 Y1.7419 I-0.0109 J0.0062
G1 X1.3417 Y1.743
X1.3325 Y1.747
X1.3268 Y1.7492
X1.3209 Y1.75
X1.3149 Y1.7501
X1.3089 Y1.7495
X1.303 Y1.7485
X1.2972 Y1.747
X1.2915 Y1.7452
X1.2859 Y1.7431
X1.2803 Y1.7408
X1.2749 Y1.7381
X1.2697 Y1.7353
X1.2645 Y1.7323
X1.2594 Y1.729
X1.2545 Y1.7256
X1.2497 Y1.7221
X1.2449 Y1.7183
X1.2402 Y1.7144
X1.2355 Y1.7101
X1.2309 Y1.7057
X1.2264 Y1.7011
X1.222 Y1.6963
X1.2177 Y1.6914
X1.2136 Y1.6863
X1.2097 Y1.6812
X1.206 Y1.6759
X1.2025 Y1.6707
X1.1992 Y1.6653
X1.1961 Y1.66
X1.1933 Y1.6547
X1.1906 Y1.6493
X1.1881 Y1.6438
X1.1858 Y1.6383
X1.1837 Y1.6327
X1.1818 Y1.627
X1.1802 Y1.6212
X1.1787 Y1.6154
X1.1775 Y1.6095
X1.1766 Y1.6036
X1.1759 Y1.5976
X1.1757 Y1.5916
X1.1759 Y1.5856
X1.1764 Y1.5796
X1.1767 Y1.5779
X1.1797 Y1.5674
X1.1847 Y1.5578
X1.1915 Y1.5493
X1.1999 Y1.5424
X1.2095 Y1.5372
X1.2181 Y1.5337
G3 X1.2333 Y1.5394 I0.0043 J0.0117
G1 X1.2397 Y1.5509
X1.3329 Y1.7205
X1.338 Y1.7298
G3 X1.3325 Y1.7471 I-0.011 J0.006
G1 X1.3221 Y1.7516
X1.3165 Y1.7537
X1.3105 Y1.7546
X1.3045
X1.2985 Y1.754
X1.2926 Y1.7529
X1.2868 Y1.7515
X1.2811 Y1.7496
X1.2755 Y1.7475
X1.27 Y1.745
X1.2647 Y1.7424
X1.2594 Y1.7395
X1.2543 Y1.7364
X1.2492 Y1.7331
X1.2443 Y1.7296
X1.2396 Y1.726
X1.2349 Y1.7222
X1.2302 Y1.7182
X1.2255 Y1.7139
X1.221 Y1.7095
X1.2166 Y1.7048
X1.2122 Y1.7
X1.2081 Y1.6951
X1.204 Y1.69
X1.2002 Y1.6847
X1.1965 Y1.6794
X1.193 Y1.6741
X1.1898 Y1.6687
X1.1867 Y1.6633
X1.1839 Y1.6579
X1.1814 Y1.6525
X1.1789 Y1.647
X1.1767 Y1.6414
X1.1747 Y1.6358
X1.1728 Y1.6301
X1.1712 Y1.6243
X1.1698 Y1.6185
X1.1686 Y1.6126
X1.1678 Y1.6067
X1.1672 Y1.6007
X1.167 Y1.5947
X1.1672 Y1.5887
X1.1678 Y1.5827
X1.1681 Y1.5812
X1.1712 Y1.5708
X1.1762 Y1.5612
X1.183 Y1.5528
X1.1913 Y1.5459
X1.2008 Y1.5408
X1.2095 Y1.5372
G3 X1.2249 Y1.543 I0.0044 J0.0117
G1 X1.231 Y1.5545
X1.3226 Y1.725
X1.3276 Y1.7344
G3 X1.3221 Y1.7517 I-0.011 J0.006
G1 X1.3119 Y1.756
X1.3063 Y1.758
X1.3004 Y1.759
X1.2944
X1.2884 Y1.7584
X1.2825 Y1.7573
X1.2767 Y1.7558
X1.271 Y1.7539
X1.2654 Y1.7518
X1.2599 Y1.7493
X1.2546 Y1.7466
X1.2494 Y1.7436
X1.2442 Y1.7405
X1.2393 Y1.7372
X1.2344 Y1.7337
X1.2296 Y1.73
X1.225 Y1.7262
X1.2204 Y1.7221
X1.2158 Y1.7178
X1.2113 Y1.7134
X1.207 Y1.7087
X1.2027 Y1.7039
X1.1985 Y1.6988
X1.1946 Y1.6937
X1.1907 Y1.6884
X1.1871 Y1.6831
X1.1837 Y1.6777
X1.1805 Y1.6722
X1.1775 Y1.6668
X1.1747 Y1.6614
X1.1722 Y1.6559
X1.1698 Y1.6504
X1.1676 Y1.6448
X1.1656 Y1.6392
X1.1638 Y1.6334
X1.1623 Y1.6277
X1.1609 Y1.6218
X1.1598 Y1.6159
X1.159 Y1.61
X1.1585 Y1.604
X1.1583 Y1.598
X1.1586 Y1.592
X1.1592 Y1.586
X1.1595 Y1.5844
X1.1626 Y1.5741
X1.1677 Y1.5645
X1.1746 Y1.5561
X1.183 Y1.5493
X1.1926 Y1.5442
X1.2008 Y1.5408
G3 X1.2163 Y1.5467 I0.0044 J0.0117
G1 X1.2223 Y1.5581
X1.3127 Y1.7293
X1.3177 Y1.7388
G3 X1.3119 Y1.7559 I-0.0111 J0.0058
G1 X1.3035 Y1.7596
X1.3005 Y1.7607
X1.2947 Y1.7626
X1.2888 Y1.7633
X1.2828 Y1.7632
X1.2768 Y1.7625
X1.2709 Y1.7613
X1.2652 Y1.7596
X1.2595 Y1.7576
X1.254 Y1.7554
X1.2485 Y1.7528
X1.2432 Y1.75
X1.2381 Y1.747
X1.233 Y1.7437
X1.2281 Y1.7403
X1.2233 Y1.7367
X1.2186 Y1.733
X1.214 Y1.7291
X1.2095 Y1.7249
X1.205 Y1.7206
X1.2006 Y1.716
X1.1962 Y1.7112
X1.192 Y1.7063
X1.188 Y1.7012
X1.1841 Y1.6959
X1.1803 Y1.6906
X1.1768 Y1.6852
X1.1735 Y1.6797
X1.1703 Y1.6742
X1.1674 Y1.6687
X1.1647 Y1.6632
X1.1623 Y1.6577
X1.16 Y1.6521
X1.1579 Y1.6465
X1.156 Y1.6408
X1.1544 Y1.635
X1.1529 Y1.6292
X1.1517 Y1.6234
X1.1507 Y1.6174
X1.15 Y1.6115
X1.1496 Y1.6055
Y1.5995
X1.15 Y1.5935
X1.1508 Y1.5876
X1.1511 Y1.5863
X1.1544 Y1.5763
X1.1595 Y1.5672
X1.1663 Y1.5592
X1.1745 Y1.5526
X1.1838 Y1.5478
X1.1926 Y1.5442
G3 X1.2079 Y1.5503 I0.0042 J0.0118
G1 X1.2138 Y1.5617
X1.3021 Y1.7343
X1.3068 Y1.7435
G3 X1.3004 Y1.7607 I-0.0111 J0.0057
G1 X1.289 Y1.765
X1.2833 Y1.7669
X1.2773 Y1.7675
X1.2713 Y1.7672
X1.2654 Y1.7664
X1.2595 Y1.7651
X1.2538 Y1.7633
X1.2482 Y1.7613
X1.2427 Y1.7589
X1.2373 Y1.7562
X1.232 Y1.7533
X1.2269 Y1.7502
X1.2219 Y1.7469
X1.217 Y1.7434
X1.2123 Y1.7397
X1.2076 Y1.7359
X1.2031 Y1.7319
X1.1987 Y1.7277
X1.1942 Y1.7232
X1.1899 Y1.7186
X1.1856 Y1.7137
X1.1815 Y1.7087
X1.1775 Y1.7035
X1.1737 Y1.6982
X1.17 Y1.6928
X1.1666 Y1.6874
X1.1633 Y1.6818
X1.1603 Y1.6762
X1.1574 Y1.6706
X1.1549 Y1.6651
X1.1525 Y1.6596
X1.1503 Y1.654
X1.1483 Y1.6483
X1.1465 Y1.6426
X1.145 Y1.6368
X1.1436 Y1.631
X1.1425 Y1.6251
X1.1416 Y1.6191
X1.141 Y1.6132
X1.1408 Y1.6072
X1.1409 Y1.6012
X1.1414 Y1.5952
X1.1423 Y1.5893
X1.1426 Y1.5881
X1.1463 Y1.5779
X1.152 Y1.5686
X1.1593 Y1.5607
X1.1682 Y1.5543
X1.178 Y1.5498
X1.1821 Y1.5484
X1.1838 Y1.5478
G3 X1.1993 Y1.554 I0.0043 J0.0117
G1 X1.2049 Y1.5653
X1.2908 Y1.7386
X1.2954 Y1.7479
G3 X1.289 Y1.7651 I-0.0112 J0.0056
G1 X1.2787 Y1.7689
X1.2729 Y1.7707
X1.267 Y1.7714
X1.261 Y1.7712
X1.255 Y1.7703
X1.2492 Y1.769
X1.2435 Y1.7673
X1.2378 Y1.7651
X1.2324 Y1.7627
X1.227 Y1.76
X1.2218 Y1.7571
X1.2167 Y1.7539
X1.2117 Y1.7506
X1.2069 Y1.747
X1.2021 Y1.7433
X1.1976 Y1.7394
X1.1931 Y1.7354
X1.1887 Y1.7311
X1.1843 Y1.7267
X1.18 Y1.722
X1.1758 Y1.7171
X1.1717 Y1.7121
X1.1678 Y1.7069
X1.164 Y1.7015
X1.1604 Y1.6961
X1.157 Y1.6905
X1.1538 Y1.6849
X1.1508 Y1.6793
X1.148 Y1.6737
X1.1455 Y1.6682
X1.1432 Y1.6627
X1.1411 Y1.6571
X1.1392 Y1.6514
X1.1374 Y1.6457
X1.1359 Y1.6399
X1.1346 Y1.634
X1.1335 Y1.6281
X1.1327 Y1.6222
X1.1322 Y1.6162
X1.1319 Y1.6102
X1.132 Y1.6042
X1.1326 Y1.5982
X1.1336 Y1.5923
X1.134 Y1.5906
X1.1381 Y1.5796
X1.1444 Y1.5697
X1.1527 Y1.5614
X1.1626 Y1.5551
X1.1736 Y1.5511
G3 X1.1873 Y1.5577 I0.0026 J0.0122
G1 X1.1939 Y1.5706
X1.2805 Y1.7425
X1.2851 Y1.7517
G3 X1.2787 Y1.7689 I-0.0112 J0.0056
G1 X1.2705 Y1.7719
X1.2671 Y1.773
X1.2613 Y1.7747
X1.2554 Y1.7752
X1.2494 Y1.7749
X1.2434 Y1.7739
X1.2376 Y1.7725
X1.2319 Y1.7706
X1.2263 Y1.7684
X1.2209 Y1.7659
X1.2156 Y1.7631
X1.2104 Y1.7601
X1.2054 Y1.7568
X1.2004 Y1.7534
X1.1957 Y1.7497
X1.191 Y1.746
X1.1865 Y1.742
X1.1821 Y1.7379
X1.1777 Y1.7336
X1.1734 Y1.729
X1.1692 Y1.7242
X1.1651 Y1.7193
X1.161 Y1.7141
X1.1572 Y1.7088
X1.1535 Y1.7034
X1.15 Y1.698
X1.1467 Y1.6924
X1.1436 Y1.6868
X1.1407 Y1.6811
X1.138 Y1.6755
X1.1356 Y1.6699
X1.1334 Y1.6643
X1.1314 Y1.6587
X1.1295 Y1.653
X1.1279 Y1.6472
X1.1264 Y1.6414
X1.1252 Y1.6355
X1.1243 Y1.6296
X1.1236 Y1.6236
X1.1231 Y1.6176
X1.123 Y1.6116
X1.1233 Y1.6056
X1.124 Y1.5997
X1.1251 Y1.5938
X1.1267 Y1.588
