%
(Bezel_Top)
(Machine)
(  vendor: Carbide 3D)
(  model: Nomad 3)
(  description: Nomad 3 micro mill)
(T1  D=0.0625 CR=0 - ZMIN=-0.0844 - flat end mill)
(T2  D=0.125 CR=0 - ZMIN=-0.125 - flat end mill)
(T3  D=0.12 CR=0.001 - ZMIN=-0.0848 - slot mill)
G90
G17
G20
G28 G91 Z0
G90

(Faceing Operation)
T2 M6
S10000 M3
G54
G0 X1.7502 Y1.0377
Z0.6
Z0.2
Z0.1
G3 X1.6392 Y1.0798 Z0.0935 I-0.0555 J0.0211 F13
X1.7502 Y1.0377 Z0.087 I0.0555 J-0.021
X1.6392 Y1.0798 Z0.0805 I-0.0555 J0.0211
X1.7502 Y1.0377 Z0.0739 I0.0555 J-0.021
X1.6392 Y1.0798 Z0.0674 I-0.0555 J0.0211
X1.7502 Y1.0377 Z0.0609 I0.0555 J-0.021
X1.6392 Y1.0798 Z0.0544 I-0.0555 J0.0211
X1.7502 Y1.0377 Z0.0479 I0.0555 J-0.021
X1.6392 Y1.0798 Z0.0414 I-0.0555 J0.0211
X1.7502 Y1.0377 Z0.0349 I0.0555 J-0.021
X1.6392 Y1.0798 Z0.0283 I-0.0555 J0.0211
X1.7502 Y1.0377 Z0.0218 I0.0555 J-0.021
X1.6392 Y1.0798 Z0.0153 I-0.0555 J0.0211
X1.7502 Y1.0377 Z0.0088 I0.0555 J-0.021
X1.6392 Y1.0798 Z0.0023 I-0.0555 J0.0211
X1.7502 Y1.0377 Z-0.0042 I0.0555 J-0.021
X1.6392 Y1.0798 Z-0.0107 I-0.0555 J0.0211
X1.7502 Y1.0377 Z-0.0172 I0.0555 J-0.021
X1.7541 Y1.0588 Z-0.018 I-0.0555 J0.0211
X1.6353 I-0.0594 J0
X1.7541 I0.0594 J0
G1 X1.7544 Y1.074 F26
Y1.08
X1.7531 Y1.0859
X1.7509 Y1.0915
X1.7481 Y1.0967
X1.7447 Y1.1016
X1.7407 Y1.1062
X1.7363 Y1.1103
X1.7316 Y1.1139
X1.7265 Y1.1171
X1.7211 Y1.1198
X1.7155 Y1.122
X1.7098 Y1.1236
X1.7039 Y1.1247
X1.6979 Y1.1253
X1.6919
X1.6859 Y1.1248
X1.68 Y1.1238
X1.6742 Y1.1222
X1.6686 Y1.1201
X1.6632 Y1.1175
X1.658 Y1.1144
X1.6532 Y1.1109
X1.6486 Y1.107
X1.6445 Y1.1026
X1.6408 Y1.098
X1.6374 Y1.0929
X1.6346 Y1.0877
X1.6323 Y1.0821
X1.6304 Y1.0764
X1.6291 Y1.0706
X1.6283 Y1.0646
X1.628 Y1.0586
X1.6283 Y1.0527
X1.6291 Y1.0467
X1.6305 Y1.0409
X1.6323 Y1.0352
X1.6347 Y1.0297
X1.6376 Y1.0244
X1.6409 Y1.0194
X1.6447 Y1.0147
X1.6488 Y1.0104
X1.6534 Y1.0065
X1.6582 Y1.003
X1.6634 Y0.9999
X1.6688 Y0.9973
X1.6745 Y0.9953
X1.6802 Y0.9937
X1.6862 Y0.9927
X1.6921 Y0.9922
X1.6981
X1.7041 Y0.9928
X1.71 Y0.9939
X1.7158 Y0.9955
X1.7214 Y0.9977
X1.7268 Y1.0004
X1.7319 Y1.0035
X1.7367 Y1.007
X1.7412 Y1.011
X1.7453 Y1.0154
X1.749 Y1.0201
X1.7522 Y1.0252
X1.755 Y1.0305
X1.7573 Y1.036
X1.7591 Y1.0418
X1.7605 Y1.0476
X1.7616 Y1.0535
X1.7625 Y1.0594
X1.7629 Y1.0654
Y1.0714
X1.7624 Y1.0774
X1.7612 Y1.0833
X1.7595 Y1.089
X1.7572 Y1.0946
X1.7544 Y1.0999
X1.7511 Y1.1049
X1.7473 Y1.1095
X1.7431 Y1.1138
X1.7386 Y1.1178
X1.7337 Y1.1213
X1.7285 Y1.1243
X1.7231 Y1.1269
X1.7175 Y1.1291
X1.7118 Y1.1307
X1.7059 Y1.1319
X1.6999 Y1.1326
X1.6939 Y1.1328
X1.6879 Y1.1326
X1.682 Y1.1318
X1.6761 Y1.1306
X1.6704 Y1.1288
X1.6648 Y1.1266
X1.6594 Y1.124
X1.6542 Y1.1209
X1.6493 Y1.1174
X1.6447 Y1.1136
X1.6405 Y1.1094
X1.6365 Y1.1048
X1.633 Y1.1
X1.6299 Y1.0949
X1.6272 Y1.0895
X1.6249 Y1.084
X1.6231 Y1.0782
X1.6218 Y1.0724
X1.6209 Y1.0665
X1.6205 Y1.0605
X1.6206 Y1.0545
X1.6212 Y1.0485
X1.6223 Y1.0426
X1.6238 Y1.0368
X1.6258 Y1.0311
X1.6283 Y1.0257
X1.6312 Y1.0204
X1.6345 Y1.0154
X1.6382 Y1.0107
X1.6423 Y1.0063
X1.6467 Y1.0022
X1.6514 Y0.9985
X1.6564 Y0.9952
X1.6617 Y0.9923
X1.6672 Y0.9899
X1.6728 Y0.9879
X1.6786 Y0.9864
X1.6845 Y0.9853
X1.6905 Y0.9847
X1.6965 Y0.9846
X1.7025 Y0.985
X1.7084 Y0.9859
X1.7143 Y0.9872
X1.72 Y0.989
X1.7255 Y0.9913
X1.7309 Y0.994
X1.736 Y0.9972
X1.7408 Y1.0007
X1.7454 Y1.0047
X1.7496 Y1.0089
X1.7535 Y1.0135
X1.7569 Y1.0184
X1.76 Y1.0236
X1.7626 Y1.029
X1.7649 Y1.0345
X1.7669 Y1.0402
X1.7685 Y1.046
X1.7697 Y1.0518
X1.7705 Y1.0578
X1.7709 Y1.0638
Y1.0698
X1.7704 Y1.0757
X1.7694 Y1.0817
X1.7679 Y1.0875
X1.7659 Y1.0931
X1.7635 Y1.0986
X1.7606 Y1.1039
X1.7573 Y1.1089
X1.7536 Y1.1136
X1.7495 Y1.118
X1.7451 Y1.1221
X1.7404 Y1.1258
X1.7354 Y1.1291
X1.7301 Y1.132
X1.7247 Y1.1345
X1.7191 Y1.1366
X1.7133 Y1.1383
X1.7074 Y1.1395
X1.7015 Y1.1402
X1.6955 Y1.1405
X1.6895 Y1.1404
X1.6835 Y1.1398
X1.6776 Y1.1388
X1.6718 Y1.1374
X1.6661 Y1.1355
X1.6605 Y1.1332
X1.6552 Y1.1305
X1.65 Y1.1274
X1.6451 Y1.124
X1.6405 Y1.1202
X1.6361 Y1.1161
X1.6321 Y1.1116
X1.6284 Y1.1069
X1.625 Y1.1019
X1.622 Y1.0967
X1.6195 Y1.0913
X1.6173 Y1.0857
X1.6155 Y1.08
X1.6142 Y1.0741
X1.6133 Y1.0682
X1.6128 Y1.0622
Y1.0562
X1.6132 Y1.0502
X1.614 Y1.0443
X1.6153 Y1.0384
X1.617 Y1.0327
X1.6191 Y1.027
X1.6216 Y1.0216
X1.6246 Y1.0164
X1.6279 Y1.0114
X1.6315 Y1.0066
X1.6355 Y1.0021
X1.6398 Y0.9979
X1.6444 Y0.9941
X1.6493 Y0.9906
X1.6544 Y0.9874
X1.6597 Y0.9847
X1.6652 Y0.9823
X1.6709 Y0.9804
X1.6767 Y0.9788
X1.6826 Y0.9777
X1.6886 Y0.9771
X1.6946 Y0.9768
X1.7005 Y0.977
X1.7065 Y0.9777
X1.7124 Y0.9788
X1.7182 Y0.9803
X1.7239 Y0.9822
X1.7294 Y0.9846
X1.7348 Y0.9873
X1.7399 Y0.9904
X1.7448 Y0.9939
X1.7494 Y0.9978
X1.7537 Y1.0019
X1.7577 Y1.0064
X1.7614 Y1.0111
X1.7647 Y1.0161
X1.7677 Y1.0213
X1.7704 Y1.0267
X1.7727 Y1.0322
X1.7747 Y1.0379
X1.7763 Y1.0437
X1.7776 Y1.0495
X1.7784 Y1.0555
X1.7789 Y1.0614
X1.779 Y1.0674
X1.7786 Y1.0734
X1.7778 Y1.0794
X1.7766 Y1.0853
X1.775 Y1.091
X1.7729 Y1.0967
X1.7704 Y1.1021
X1.7675 Y1.1074
X1.7643 Y1.1124
X1.7607 Y1.1172
X1.7567 Y1.1217
X1.7525 Y1.126
X1.7479 Y1.1299
X1.7431 Y1.1334
X1.738 Y1.1367
X1.7328 Y1.1395
X1.7273 Y1.142
X1.7217 Y1.1441
X1.7159 Y1.1457
X1.71 Y1.147
X1.7041 Y1.1479
X1.6981 Y1.1484
X1.6921 Y1.1485
X1.6861 Y1.1481
X1.6802 Y1.1474
X1.6743 Y1.1463
X1.6685 Y1.1447
X1.6628 Y1.1428
X1.6573 Y1.1405
X1.6519 Y1.1378
X1.6467 Y1.1348
X1.6417 Y1.1314
X1.637 Y1.1277
X1.6325 Y1.1237
X1.6283 Y1.1195
X1.6244 Y1.1149
X1.6208 Y1.1101
X1.6176 Y1.1051
X1.6146 Y1.0998
X1.6121 Y1.0944
X1.6099 Y1.0888
X1.6081 Y1.0831
X1.6067 Y1.0773
X1.6056 Y1.0714
X1.605 Y1.0654
X1.6047 Y1.0594
X1.6049 Y1.0534
X1.6054 Y1.0474
X1.6064 Y1.0415
X1.6077 Y1.0357
X1.6095 Y1.0299
X1.6116 Y1.0243
X1.6141 Y1.0188
X1.6169 Y1.0136
X1.6201 Y1.0085
X1.6236 Y1.0036
X1.6275 Y0.999
X1.6316 Y0.9947
X1.636 Y0.9906
X1.6407 Y0.9868
X1.6456 Y0.9834
X1.6507 Y0.9803
X1.6561 Y0.9775
X1.6616 Y0.9751
X1.6672 Y0.9731
X1.673 Y0.9715
X1.6789 Y0.9702
X1.6848 Y0.9694
X1.6908 Y0.9689
X1.6968 Y0.9688
X1.7028 Y0.9692
X1.7087 Y0.9699
X1.7146 Y0.971
X1.7204 Y0.9726
X1.7261 Y0.9745
X1.7317 Y0.9768
X1.737 Y0.9794
X1.7422 Y0.9824
X1.7472 Y0.9858
X1.752 Y0.9894
X1.7565 Y0.9934
X1.7607 Y0.9977
X1.7647 Y1.0022
X1.7683 Y1.0069
X1.7717 Y1.0119
X1.7747 Y1.017
X1.7775 Y1.0224
X1.7799 Y1.0279
X1.782 Y1.0335
X1.7837 Y1.0392
X1.7851 Y1.0451
X1.7862 Y1.051
X1.7869 Y1.0569
X1.7872 Y1.0629
X1.7871 Y1.0689
X1.7867 Y1.0749
X1.7858 Y1.0809
X1.7846 Y1.0867
X1.7829 Y1.0925
X1.7809 Y1.0982
X1.7786 Y1.1037
X1.7758 Y1.109
X1.7728 Y1.1142
X1.7694 Y1.1191
X1.7656 Y1.1238
X1.7616 Y1.1283
X1.7573 Y1.1324
X1.7527 Y1.1363
X1.7479 Y1.1399
X1.7429 Y1.1432
X1.7376 Y1.1461
X1.7322 Y1.1487
X1.7266 Y1.1509
X1.7209 Y1.1527
X1.7151 Y1.1543
X1.7092 Y1.1554
X1.7033 Y1.1562
X1.6973 Y1.1566
X1.6913
X1.6853 Y1.1563
X1.6794 Y1.1556
X1.6735 Y1.1545
X1.6676 Y1.153
X1.6619 Y1.1512
X1.6563 Y1.149
X1.6509 Y1.1465
X1.6456 Y1.1437
X1.6405 Y1.1405
X1.6356 Y1.1371
X1.6309 Y1.1333
X1.6264 Y1.1293
X1.6222 Y1.125
X1.6183 Y1.1205
X1.6147 Y1.1157
X1.6114 Y1.1107
X1.6084 Y1.1055
X1.6057 Y1.1001
X1.6033 Y1.0946
X1.6013 Y1.089
X1.5996 Y1.0832
X1.5983 Y1.0774
X1.5973 Y1.0714
X1.5967 Y1.0655
X1.5965 Y1.0595
X1.5966 Y1.0535
X1.5971 Y1.0475
X1.598 Y1.0416
X1.5993 Y1.0357
X1.6009 Y1.0299
X1.6028 Y1.0242
X1.6051 Y1.0187
X1.6077 Y1.0133
X1.6106 Y1.0081
X1.6139 Y1.003
X1.6174 Y0.9982
X1.6213 Y0.9936
X1.6254 Y0.9892
X1.6298 Y0.9851
X1.6344 Y0.9813
X1.6392 Y0.9777
X1.6443 Y0.9745
X1.6496 Y0.9716
X1.655 Y0.969
X1.6605 Y0.9668
X1.6662 Y0.9648
X1.672 Y0.9633
X1.6779 Y0.9621
X1.6838 Y0.9612
X1.6898 Y0.9607
X1.6958 Y0.9606
X1.7018 Y0.9609
X1.7078 Y0.9615
X1.7137 Y0.9625
X1.7195 Y0.9638
X1.7253 Y0.9655
X1.7309 Y0.9676
X1.7364 Y0.9699
X1.7418 Y0.9726
X1.747 Y0.9757
X1.7519 Y0.979
X1.7567 Y0.9827
X1.7613 Y0.9866
X1.7656 Y0.9908
X1.7696 Y0.9952
X1.7734 Y0.9998
X1.7769 Y1.0047
X1.7802 Y1.0097
X1.7831 Y1.0149
X1.7858 Y1.0203
X1.7882 Y1.0258
X1.7902 Y1.0315
X1.7919 Y1.0372
X1.7933 Y1.0431
X1.7944 Y1.049
X1.7951 Y1.0549
X1.7955 Y1.0609
Y1.0669
X1.7952 Y1.0729
X1.7945 Y1.0789
X1.7935 Y1.0848
X1.7921 Y1.0906
X1.7904 Y1.0964
X1.7883 Y1.102
X1.7859 Y1.1075
X1.7832 Y1.1128
X1.7801 Y1.118
X1.7768 Y1.123
X1.7731 Y1.1277
X1.7692 Y1.1323
X1.765 Y1.1365
X1.7606 Y1.1406
X1.7559 Y1.1443
X1.751 Y1.1478
X1.7459 Y1.151
X1.7406 Y1.1539
X1.7352 Y1.1564
X1.7296 Y1.1586
X1.7239 Y1.1606
X1.7181 Y1.1621
X1.7123 Y1.1634
X1.7063 Y1.1643
X1.7004 Y1.1648
X1.6944 Y1.165
X1.6884 Y1.1649
X1.6824 Y1.1644
X1.6765 Y1.1635
X1.6706 Y1.1624
X1.6648 Y1.1609
X1.659 Y1.1591
X1.6534 Y1.1569
X1.648 Y1.1545
X1.6426 Y1.1517
X1.6375 Y1.1486
X1.6325 Y1.1453
X1.6277 Y1.1416
X1.6232 Y1.1377
X1.6188 Y1.1336
X1.6147 Y1.1292
X1.6109 Y1.1246
X1.6073 Y1.1198
X1.604 Y1.1148
X1.601 Y1.1096
X1.5983 Y1.1042
X1.5959 Y1.0987
X1.5938 Y1.0931
X1.592 Y1.0874
X1.5906 Y1.0816
X1.5894 Y1.0757
X1.5887 Y1.0697
X1.5882 Y1.0637
X1.5881 Y1.0577
X1.5883 Y1.0517
X1.5889 Y1.0458
X1.5898 Y1.0398
X1.591 Y1.034
X1.5926 Y1.0282
X1.5945 Y1.0225
X1.5967 Y1.0169
X1.5992 Y1.0114
X1.602 Y1.0061
X1.6051 Y1.001
X1.6085 Y0.9961
X1.6122 Y0.9913
X1.6161 Y0.9868
X1.6203 Y0.9825
X1.6247 Y0.9784
X1.6293 Y0.9746
X1.6341 Y0.971
X1.6392 Y0.9678
X1.6444 Y0.9648
X1.6498 Y0.9621
X1.6553 Y0.9597
X1.6609 Y0.9577
X1.6666 Y0.9559
X1.6725 Y0.9545
X1.6784 Y0.9534
X1.6843 Y0.9527
X1.6903 Y0.9523
X1.6963 Y0.9522
X1.7023 Y0.9525
X1.7083 Y0.9531
X1.7142 Y0.954
X1.7201 Y0.9553
X1.7259 Y0.9569
X1.7315 Y0.9588
X1.7371 Y0.961
X1.7425 Y0.9636
X1.7478 Y0.9664
X1.7529 Y0.9695
X1.7579 Y0.9729
X1.7626 Y0.9766
X1.7672 Y0.9805
X1.7715 Y0.9847
X1.7756 Y0.9891
X1.7794 Y0.9937
X1.783 Y0.9985
X1.7864 Y1.0035
X1.7894 Y1.0086
X1.7922 Y1.0139
X1.7948 Y1.0194
X1.797 Y1.0249
X1.7989 Y1.0306
X1.8006 Y1.0364
X1.8019 Y1.0422
X1.8029 Y1.0481
X1.8037 Y1.0541
X1.804 Y1.0601
X1.8041 Y1.0661
X1.8038 Y1.0721
X1.8032 Y1.0781
X1.8023 Y1.084
X1.8011 Y1.0899
X1.7995 Y1.0956
X1.7976 Y1.1013
X1.7954 Y1.1069
X1.7929 Y1.1124
X1.7902 Y1.1177
X1.7871 Y1.1228
X1.7837 Y1.1278
X1.7801 Y1.1326
X1.7762 Y1.1372
X1.772 Y1.1415
X1.7677 Y1.1456
X1.7631 Y1.1495
X1.7583 Y1.1531
X1.7533 Y1.1564
X1.7481 Y1.1595
X1.7428 Y1.1622
X1.7373 Y1.1647
X1.7318 Y1.1669
X1.7261 Y1.1688
X1.7203 Y1.1704
X1.7144 Y1.1716
X1.7085 Y1.1726
X1.7025 Y1.1732
X1.6965 Y1.1735
X1.6905
X1.6845 Y1.1732
X1.6786 Y1.1725
X1.6726 Y1.1715
X1.6668 Y1.1703
X1.661 Y1.1687
X1.6553 Y1.1668
X1.6497 Y1.1646
X1.6442 Y1.1622
X1.6389 Y1.1594
X1.6337 Y1.1564
X1.6287 Y1.1531
X1.6239 Y1.1495
X1.6192 Y1.1457
X1.6148 Y1.1417
X1.6106 Y1.1374
X1.6066 Y1.1329
X1.6029 Y1.1282
X1.5994 Y1.1234
X1.5961 Y1.1183
X1.5932 Y1.1131
X1.5905 Y1.1078
X1.588 Y1.1023
X1.5859 Y1.0967
X1.5841 Y1.0909
X1.5826 Y1.0851
X1.5813 Y1.0793
X1.5804 Y1.0733
X1.5798 Y1.0674
X1.5795 Y1.0614
X1.5796 Y1.0554
X1.5799 Y1.0494
X1.5805 Y1.0434
X1.5815 Y1.0375
X1.5827 Y1.0316
X1.5843 Y1.0258
X1.5862 Y1.0201
X1.5883 Y1.0145
X1.5908 Y1.009
X1.5935 Y1.0037
X1.5965 Y0.9985
X1.5998 Y0.9935
X1.6033 Y0.9886
X1.6071 Y0.984
X1.6111 Y0.9795
X1.6154 Y0.9753
X1.6198 Y0.9713
X1.6245 Y0.9675
X1.6293 Y0.9639
X1.6343 Y0.9607
X1.6395 Y0.9576
X1.6449 Y0.9549
X1.6503 Y0.9525
X1.6559 Y0.9503
X1.6616 Y0.9484
X1.6674 Y0.9469
X1.6733 Y0.9456
X1.6792 Y0.9446
X1.6852 Y0.944
X1.6912 Y0.9436
X1.6972
X1.7032 Y0.9439
X1.7091 Y0.9445
X1.7151 Y0.9454
X1.7209 Y0.9466
X1.7268 Y0.9481
X1.7325 Y0.95
X1.7381 Y0.9521
X1.7436 Y0.9545
X1.7489 Y0.9572
X1.7542 Y0.9601
X1.7592 Y0.9633
X1.7641 Y0.9668
X1.7688 Y0.9705
X1.7734 Y0.9745
X1.7777 Y0.9786
X1.7818 Y0.983
X1.7857 Y0.9876
X1.7893 Y0.9923
X1.7928 Y0.9973
X1.7959 Y1.0024
X1.7988 Y1.0076
X1.8015 Y1.013
X1.8039 Y1.0185
X1.806 Y1.0241
X1.8078 Y1.0298
X1.8094 Y1.0356
X1.8107 Y1.0415
X1.8116 Y1.0474
X1.8123 Y1.0533
X1.8127 Y1.0593
X1.8128 Y1.0653
X1.8126 Y1.0713
X1.8121 Y1.0773
X1.8113 Y1.0832
X1.8101 Y1.0891
X1.8087 Y1.095
X1.807 Y1.1007
X1.805 Y1.1064
X1.8027 Y1.1119
X1.8001 Y1.1173
X1.7973 Y1.1226
X1.7942 Y1.1278
X1.7908 Y1.1327
X1.7872 Y1.1375
X1.7833 Y1.1421
X1.7793 Y1.1465
X1.7749 Y1.1507
X1.7704 Y1.1546
X1.7657 Y1.1583
X1.7608 Y1.1618
X1.7558 Y1.165
X1.7506 Y1.168
X1.7452 Y1.1707
X1.7397 Y1.1731
X1.7341 Y1.1753
X1.7284 Y1.1772
X1.7226 Y1.1787
X1.7168 Y1.18
X1.7108 Y1.181
X1.7049 Y1.1817
X1.6989 Y1.1822
X1.6929 Y1.1823
X1.6869 Y1.1821
X1.6809 Y1.1816
X1.675 Y1.1808
X1.6691 Y1.1797
X1.6632 Y1.1784
X1.6575 Y1.1767
X1.6518 Y1.1748
X1.6462 Y1.1726
X1.6407 Y1.1702
X1.6354 Y1.1674
X1.6302 Y1.1645
X1.6251 Y1.1612
X1.6202 Y1.1578
X1.6155 Y1.154
X1.611 Y1.1501
X1.6067 Y1.1459
X1.6025 Y1.1416
X1.5986 Y1.137
X1.595 Y1.1323
X1.5915 Y1.1274
X1.5883 Y1.1223
X1.5853 Y1.1171
X1.5826 Y1.1117
X1.5802 Y1.1062
X1.578 Y1.1006
X1.5761 Y1.095
X1.5745 Y1.0892
X1.5739 Y1.0867
X1.573 Y1.0813
X1.5726 Y1.0758
X1.5728 Y1.0703
X1.5753 Y1.0381
X1.5762 Y1.0314
X1.5771 Y1.0254
X1.5785 Y1.0196
X1.5803 Y1.0139
X1.5824 Y1.0082
X1.5848 Y1.0028
X1.5875 Y0.9974
X1.5906 Y0.9922
X1.5938 Y0.9872
X1.5974 Y0.9824
X1.6012 Y0.9777
X1.6052 Y0.9732
X1.6094 Y0.969
X1.6138 Y0.9649
X1.6185 Y0.9611
X1.6233 Y0.9575
X1.6282 Y0.9542
X1.6334 Y0.9511
X1.6387 Y0.9482
X1.6441 Y0.9456
X1.6496 Y0.9433
X1.6552 Y0.9413
X1.661 Y0.9395
X1.6668 Y0.938
X1.6727 Y0.9368
X1.6786 Y0.9359
X1.6846 Y0.9353
X1.6906 Y0.9349
X1.6966 Y0.9348
X1.7025 Y0.9351
X1.7085 Y0.9356
X1.7145 Y0.9364
X1.7204 Y0.9375
X1.7262 Y0.9389
X1.732 Y0.9406
X1.7376 Y0.9425
X1.7432 Y0.9447
X1.7487 Y0.9472
X1.754 Y0.9499
X1.7592 Y0.9529
X1.7643 Y0.9561
X1.7692 Y0.9596
X1.7739 Y0.9633
X1.7785 Y0.9672
X1.7829 Y0.9713
X1.787 Y0.9756
X1.791 Y0.9801
X1.7948 Y0.9848
X1.7983 Y0.9896
X1.8016 Y0.9946
X1.8047 Y0.9998
X1.8075 Y1.0051
X1.8101 Y1.0105
X1.8125 Y1.016
X1.8134 Y1.0186
X1.8155 Y1.0256
X1.8166 Y1.0329
X1.8167 Y1.0403
X1.8163 Y1.0491
X1.8151 Y1.0665
X1.8146 Y1.0723
X1.8128 Y1.0896
X1.8115 Y1.1012
X1.8105 Y1.1071
X1.8091 Y1.1129
X1.8072 Y1.1186
X1.8048 Y1.1241
X1.8021 Y1.1295
X1.7991 Y1.1347
X1.7958 Y1.1397
X1.7922 Y1.1445
X1.7883 Y1.1491
X1.7843 Y1.1535
X1.78 Y1.1577
X1.7755 Y1.1616
X1.7708 Y1.1654
X1.7659 Y1.1689
X1.7609 Y1.1722
X1.7557 Y1.1752
X1.7504 Y1.178
X1.7449 Y1.1805
X1.7394 Y1.1828
X1.7337 Y1.1848
X1.728 Y1.1865
X1.7222 Y1.1879
X1.7163 Y1.1891
X1.7103 Y1.19
X1.7044 Y1.1907
X1.6984 Y1.191
X1.6924 Y1.1911
X1.6864 Y1.1909
X1.6804 Y1.1904
X1.6745 Y1.1897
X1.6685 Y1.1887
X1.6627 Y1.1874
X1.6569 Y1.1859
X1.6512 Y1.1841
X1.6455 Y1.182
X1.64 Y1.1797
X1.6346 Y1.1771
X1.6293 Y1.1743
X1.6241 Y1.1712
X1.6191 Y1.1679
X1.6143 Y1.1644
X1.6096 Y1.1606
X1.605 Y1.1567
X1.6007 Y1.1526
X1.5965 Y1.1482
X1.5926 Y1.1437
X1.5889 Y1.139
X1.5853 Y1.1342
X1.582 Y1.1292
X1.579 Y1.124
X1.5759 Y1.1183
X1.5722 Y1.1078
X1.5706 Y1.0968
X1.5714 Y1.0857
X1.5717 Y1.0838
X1.5728 Y1.0703
G3 X1.5868 Y1.0593 I0.0124 J0.0014
G1 X1.5978 Y1.0608
X1.7888 Y1.0862
X1.8007 Y1.0878
G3 X1.8115 Y1.1012 I-0.0017 J0.0124
G1 X1.8108 Y1.107
X1.8084 Y1.1231
X1.8072 Y1.129
X1.8054 Y1.1347
X1.8029 Y1.1402
X1.8 Y1.1455
X1.7967 Y1.1505
X1.7931 Y1.1552
X1.7892 Y1.1598
X1.785 Y1.1641
X1.7806 Y1.1682
X1.776 Y1.172
X1.7712 Y1.1756
X1.7662 Y1.179
X1.7611 Y1.1822
X1.7559 Y1.185
X1.7505 Y1.1877
X1.745 Y1.1901
X1.7394 Y1.1922
X1.7337 Y1.1941
X1.7279 Y1.1957
X1.7221 Y1.1971
X1.7162 Y1.1982
X1.7102 Y1.1991
X1.7042 Y1.1997
X1.6983 Y1.2
X1.6923 Y1.2001
X1.6863 Y1.1999
X1.6803 Y1.1995
X1.6743 Y1.1988
X1.6684 Y1.1978
X1.6625 Y1.1966
X1.6567 Y1.1952
X1.6509 Y1.1935
X1.6453 Y1.1916
X1.6397 Y1.1894
X1.6342 Y1.1869
X1.6288 Y1.1843
X1.6236 Y1.1814
X1.6184 Y1.1783
X1.6134 Y1.175
X1.6086 Y1.1714
X1.6039 Y1.1677
X1.5993 Y1.1638
X1.595 Y1.1596
X1.5908 Y1.1553
X1.5868 Y1.1509
X1.583 Y1.1462
X1.5794 Y1.1414
X1.576 Y1.1365
X1.5757 Y1.1358
X1.5715 Y1.127
X1.5689 Y1.1175
X1.5681 Y1.1077
X1.5691 Y1.098
X1.5707 Y1.0896
X1.5714 Y1.0857
G3 X1.5856 Y1.0759 I0.0122 J0.0025
G1 X1.5973 Y1.0777
X1.7863 Y1.1075
X1.7979 Y1.1093
G3 X1.8085 Y1.1231 I-0.0019 J0.0124
G1 X1.8059 Y1.1391
X1.8047 Y1.1449
X1.8027 Y1.1506
X1.8 Y1.1559
X1.7968 Y1.161
X1.7932 Y1.1658
X1.7893 Y1.1704
X1.785 Y1.1746
X1.7806 Y1.1786
X1.7759 Y1.1824
X1.771 Y1.1859
X1.766 Y1.1892
X1.7608 Y1.1922
X1.7555 Y1.195
X1.7501 Y1.1975
X1.7445 Y1.1998
X1.7389 Y1.2018
X1.7331 Y1.2036
X1.7273 Y1.2051
X1.7215 Y1.2064
X1.7156 Y1.2075
X1.7096 Y1.2083
X1.7037 Y1.2088
X1.6977 Y1.2091
X1.6917 Y1.2092
X1.6857 Y1.209
X1.6797 Y1.2086
X1.6737 Y1.2079
X1.6678 Y1.207
X1.6619 Y1.2059
X1.6561 Y1.2045
X1.6503 Y1.2029
X1.6446 Y1.201
X1.6389 Y1.199
X1.6334 Y1.1966
X1.628 Y1.1941
X1.6226 Y1.1914
X1.6174 Y1.1884
X1.6123 Y1.1853
X1.6073 Y1.1819
X1.6025 Y1.1783
X1.5978 Y1.1746
X1.5933 Y1.1707
X1.5889 Y1.1666
X1.5847 Y1.1623
X1.5807 Y1.1578
X1.5769 Y1.1531
X1.5758 Y1.1516
X1.5701 Y1.1414
X1.5667 Y1.1303
X1.5657 Y1.1187
X1.5672 Y1.1072
X1.5685 Y1.1012
X1.5691 Y1.098
G3 X1.5834 Y1.0884 I0.0122 J0.0027
G1 X1.5952 Y1.0905
X1.7839 Y1.1232
X1.7956 Y1.1252
G3 X1.806 Y1.1391 I-0.0021 J0.0124
G1 X1.8046 Y1.1474
X1.8031 Y1.155
X1.8016 Y1.1608
X1.7992 Y1.1663
X1.7962 Y1.1715
X1.7926 Y1.1763
X1.7887 Y1.1808
X1.7845 Y1.1851
X1.78 Y1.1891
X1.7753 Y1.1928
X1.7703 Y1.1962
X1.7652 Y1.1994
X1.76 Y1.2023
X1.7546 Y1.205
X1.7491 Y1.2074
X1.7436 Y1.2096
X1.7379 Y1.2115
X1.7321 Y1.2132
X1.7263 Y1.2147
X1.7204 Y1.2159
X1.7145 Y1.2169
X1.7086 Y1.2176
X1.7026 Y1.2181
X1.6966 Y1.2184
X1.6906
X1.6846 Y1.2182
X1.6786 Y1.2178
X1.6726 Y1.2171
X1.6667 Y1.2162
X1.6608 Y1.2151
X1.655 Y1.2138
X1.6492 Y1.2122
X1.6434 Y1.2104
X1.6378 Y1.2084
X1.6322 Y1.2062
X1.6267 Y1.2038
X1.6213 Y1.2012
X1.616 Y1.1983
X1.6108 Y1.1953
X1.6058 Y1.1921
X1.6008 Y1.1887
X1.596 Y1.1851
X1.5914 Y1.1813
X1.5869 Y1.1774
X1.5825 Y1.1732
X1.5784 Y1.1688
X1.5746 Y1.1642
X1.5738 Y1.1631
X1.5678 Y1.1529
X1.5642 Y1.1416
X1.5631 Y1.1297
X1.5646 Y1.1179
X1.5672 Y1.1072
G3 X1.5817 Y1.0983 I0.012 J0.0033
G1 X1.5936 Y1.1006
X1.7817 Y1.1384
X1.7932 Y1.1407
G3 X1.8031 Y1.155 I-0.0025 J0.0123
G1 X1.8008 Y1.1665
X1.8002 Y1.1693
X1.7986 Y1.1751
X1.7959 Y1.1804
X1.7926 Y1.1854
X1.7888 Y1.1901
X1.7846 Y1.1944
X1.7802 Y1.1984
X1.7755 Y1.2021
X1.7706 Y1.2056
X1.7655 Y1.2087
X1.7602 Y1.2117
X1.7548 Y1.2143
X1.7493 Y1.2167
X1.7437 Y1.2189
X1.7381 Y1.2208
X1.7323 Y1.2225
X1.7265 Y1.2239
X1.7206 Y1.2251
X1.7147 Y1.2261
X1.7087 Y1.2268
X1.7027 Y1.2273
X1.6967 Y1.2276
X1.6907 Y1.2277
X1.6847 Y1.2275
X1.6788 Y1.2271
X1.6728 Y1.2265
X1.6668 Y1.2257
X1.6609 Y1.2247
X1.6551 Y1.2234
X1.6492 Y1.222
X1.6435 Y1.2203
X1.6378 Y1.2184
X1.6321 Y1.2163
X1.6266 Y1.2141
X1.6211 Y1.2116
X1.6158 Y1.2089
X1.6105 Y1.206
X1.6053 Y1.203
X1.6003 Y1.1997
X1.5954 Y1.1963
X1.5906 Y1.1927
X1.5859 Y1.1889
X1.5814 Y1.1849
X1.5772 Y1.1806
X1.5733 Y1.1761
X1.5694 Y1.1712
X1.5643 Y1.1614
X1.5613 Y1.1507
X1.5605 Y1.1396
X1.562 Y1.1287
X1.5646 Y1.1179
G3 X1.5793 Y1.1091 I0.012 J0.0034
G1 X1.591 Y1.1116
X1.7791 Y1.1524
X1.7905 Y1.1548
G3 X1.8003 Y1.1693 I-0.0026 J0.0123
G1 X1.7976 Y1.181
X1.7961 Y1.1867
X1.7934 Y1.1921
X1.79 Y1.1971
X1.7862 Y1.2017
X1.7819 Y1.2059
X1.7774 Y1.2098
X1.7726 Y1.2134
X1.7676 Y1.2167
X1.7624 Y1.2198
X1.757 Y1.2225
X1.7516 Y1.225
X1.746 Y1.2273
X1.7404 Y1.2293
X1.7346 Y1.231
X1.7288 Y1.2326
X1.723 Y1.2339
X1.7171 Y1.2349
X1.7111 Y1.2358
X1.7052 Y1.2364
X1.6992 Y1.2368
X1.6932 Y1.237
X1.6872 Y1.2369
X1.6812 Y1.2367
X1.6752 Y1.2362
X1.6692 Y1.2356
X1.6633 Y1.2347
X1.6574 Y1.2336
X1.6516 Y1.2323
X1.6457 Y1.2308
X1.64 Y1.2291
X1.6343 Y1.2272
X1.6287 Y1.2251
X1.6231 Y1.2229
X1.6176 Y1.2204
X1.6123 Y1.2178
X1.607 Y1.2149
X1.6018 Y1.2119
X1.5967 Y1.2087
X1.5918 Y1.2053
X1.5869 Y1.2017
X1.5823 Y1.198
X1.5778 Y1.194
X1.5736 Y1.1897
X1.5696 Y1.1852
X1.5693 Y1.1847
X1.563 Y1.1744
X1.5592 Y1.1629
X1.5581 Y1.1509
X1.5596 Y1.1389
X1.562 Y1.1287
G3 X1.5768 Y1.1197 I0.0121 J0.0033
G1 X1.5884 Y1.1224
X1.7765 Y1.164
X1.788 Y1.1665
G3 X1.7976 Y1.1809 I-0.0027 J0.0122
G1 X1.796 Y1.1879
X1.7945 Y1.1937
X1.7927 Y1.1994
X1.7899 Y1.2047
X1.7864 Y1.2095
X1.7823 Y1.214
X1.7779 Y1.2181
X1.7732 Y1.2218
X1.7683 Y1.2252
X1.7632 Y1.2283
X1.7579 Y1.2312
X1.7525 Y1.2338
X1.7469 Y1.2361
X1.7413 Y1.2381
X1.7356 Y1.24
X1.7298 Y1.2415
X1.7239 Y1.2429
X1.7181 Y1.244
X1.7121 Y1.2449
X1.7062 Y1.2456
X1.7002 Y1.2461
X1.6942 Y1.2463
X1.6882
X1.6822 Y1.2462
X1.6762 Y1.2458
X1.6702 Y1.2452
X1.6643 Y1.2444
X1.6584 Y1.2435
X1.6525 Y1.2423
X1.6466 Y1.2409
X1.6408 Y1.2393
X1.6351 Y1.2376
X1.6294 Y1.2356
X1.6238 Y1.2335
X1.6183 Y1.2312
X1.6128 Y1.2287
X1.6074 Y1.226
X1.6022 Y1.2232
X1.597 Y1.2201
X1.5919 Y1.2169
X1.587 Y1.2135
X1.5822 Y1.2099
X1.5776 Y1.206
X1.5732 Y1.2019
X1.5691 Y1.1976
X1.5652 Y1.1928
X1.5598 Y1.1828
X1.5565 Y1.1719
X1.5556 Y1.1605
X1.5571 Y1.1492
X1.5596 Y1.1389
G3 X1.5744 Y1.1301 I0.012 J0.0033
G1 X1.5859 Y1.1327
X1.7741 Y1.1762
X1.7851 Y1.1788
G3 X1.7945 Y1.1937 I-0.0028 J0.0122
G1 X1.7915 Y1.2053
X1.7897 Y1.211
X1.7868 Y1.2162
X1.7831 Y1.221
X1.779 Y1.2253
X1.7745 Y1.2293
X1.7697 Y1.2329
X1.7647 Y1.2362
X1.7595 Y1.2392
X1.7542 Y1.242
X1.7487 Y1.2444
X1.7431 Y1.2466
X1.7374 Y1.2485
X1.7317 Y1.2502
X1.7259 Y1.2517
X1.72 Y1.2529
X1.7141 Y1.2539
X1.7081 Y1.2547
X1.7022 Y1.2552
X1.6962 Y1.2556
X1.6902 Y1.2557
X1.6842
X1.6782 Y1.2554
X1.6722 Y1.255
X1.6662 Y1.2543
X1.6603 Y1.2535
X1.6544 Y1.2524
X1.6485 Y1.2512
X1.6427 Y1.2498
X1.6369 Y1.2482
X1.6312 Y1.2464
X1.6255 Y1.2445
X1.6199 Y1.2423
X1.6143 Y1.24
X1.6089 Y1.2375
X1.6035 Y1.2348
X1.5982 Y1.232
X1.5931 Y1.2289
X1.588 Y1.2257
X1.5831 Y1.2223
X1.5783 Y1.2186
X1.5738 Y1.2147
X1.5694 Y1.2106
X1.5672 Y1.2082
X1.561 Y1.1997
X1.5564 Y1.1902
X1.5538 Y1.18
X1.5533 Y1.1694
X1.5547 Y1.159
X1.5571 Y1.1492
G3 X1.572 Y1.1404 I0.012 J0.0033
G1 X1.5835 Y1.1431
X1.7711 Y1.1877
X1.7822 Y1.1904
G3 X1.7914 Y1.2052 I-0.0029 J0.0121
G1 X1.7885 Y1.2168
X1.7867 Y1.2225
X1.7836 Y1.2277
X1.7798 Y1.2323
X1.7756 Y1.2366
X1.771 Y1.2404
X1.7661 Y1.2439
X1.761 Y1.2471
X1.7558 Y1.25
X1.7504 Y1.2526
X1.7448 Y1.2549
X1.7392 Y1.257
X1.7335 Y1.2588
X1.7277 Y1.2604
X1.7218 Y1.2617
X1.7159 Y1.2628
X1.71 Y1.2637
X1.704 Y1.2644
X1.6981 Y1.2648
X1.6921 Y1.2651
X1.6861 Y1.2652
X1.6801 Y1.265
X1.6741 Y1.2647
X1.6681 Y1.2642
X1.6621 Y1.2634
X1.6561 Y1.2625
X1.6501 Y1.2614
X1.6441 Y1.2601
X1.6382 Y1.2586
X1.6323 Y1.2569
X1.6265 Y1.2551
X1.6208 Y1.2531
X1.6152 Y1.2509
X1.6097 Y1.2485
X1.6042 Y1.246
X1.5989 Y1.2433
X1.5936 Y1.2404
X1.5885 Y1.2373
X1.5835 Y1.234
X1.5786 Y1.2305
X1.5739 Y1.2268
X1.5694 Y1.2228
X1.5652 Y1.2185
X1.5637 Y1.2167
X1.5578 Y1.2083
X1.5536 Y1.1988
X1.5513 Y1.1888
X1.5509 Y1.1785
X1.5524 Y1.1683
X1.5547 Y1.159
G3 X1.5698 Y1.1501 I0.0121 J0.0033
G1 X1.5811 Y1.153
X1.7681 Y1.1992
X1.7793 Y1.202
G3 X1.7885 Y1.2168 I-0.003 J0.0121
G1 X1.787 Y1.2226
X1.7853 Y1.2284
X1.7833 Y1.234
X1.78 Y1.2391
X1.7761 Y1.2436
X1.7718 Y1.2478
X1.7671 Y1.2515
X1.7622 Y1.2549
X1.757 Y1.258
X1.7517 Y1.2607
X1.7462 Y1.2632
X1.7406 Y1.2654
X1.7349 Y1.2673
X1.7292 Y1.269
X1.7234 Y1.2705
X1.7175 Y1.2717
X1.7116 Y1.2727
X1.7056 Y1.2735
X1.6996 Y1.2741
X1.6937 Y1.2744
X1.6877 Y1.2746
X1.6817
X1.6756 Y1.2743
X1.6696 Y1.2739
X1.6635 Y1.2733
X1.6573 Y1.2725
X1.6512 Y1.2715
X1.645 Y1.2703
X1.6389 Y1.2689
X1.6329 Y1.2673
X1.6269 Y1.2655
X1.621 Y1.2635
X1.6153 Y1.2614
X1.6097 Y1.2591
X1.6042 Y1.2567
X1.5988 Y1.2541
X1.5935 Y1.2513
X1.5883 Y1.2483
X1.5832 Y1.2452
X1.5783 Y1.2418
X1.5735 Y1.2382
X1.5689 Y1.2343
X1.5663 Y1.2318
X1.5585 Y1.2226
X1.5529 Y1.2119
X1.5495 Y1.2003
X1.5487 Y1.1883
X1.5504 Y1.1763
X1.5524 Y1.1683
G3 X1.5675 Y1.1596 I0.012 J0.0034
G1 X1.5788 Y1.1625
X1.7654 Y1.2104
X1.7763 Y1.2132
G3 X1.7853 Y1.2284 I-0.0031 J0.0121
G1 X1.7821 Y1.2388
X1.78 Y1.2445
X1.7768 Y1.2496
X1.7729 Y1.2541
X1.7685 Y1.2582
X1.7638 Y1.2619
X1.7588 Y1.2653
X1.7536 Y1.2683
X1.7483 Y1.2709
X1.7428 Y1.2733
X1.7372 Y1.2755
X1.7315 Y1.2773
X1.7257 Y1.2789
X1.7198 Y1.2803
X1.714 Y1.2815
X1.708 Y1.2824
X1.7021 Y1.2831
X1.6961 Y1.2836
X1.6901 Y1.2839
X1.6841 Y1.2841
X1.678 Y1.284
X1.6719 Y1.2837
X1.6657 Y1.2832
X1.6595 Y1.2826
X1.6533 Y1.2817
X1.647 Y1.2806
X1.6408 Y1.2793
X1.6345 Y1.2778
X1.6284 Y1.2762
X1.6224 Y1.2743
X1.6165 Y1.2723
X1.6108 Y1.2702
X1.6053 Y1.2679
X1.5998 Y1.2654
X1.5945 Y1.2627
X1.5892 Y1.2599
X1.584 Y1.2569
X1.5789 Y1.2536
X1.5741 Y1.2501
X1.5694 Y1.2464
X1.5649 Y1.2424
X1.5607 Y1.2381
X1.5586 Y1.2356
X1.5522 Y1.2262
X1.5478 Y1.2157
X1.5457 Y1.2046
X1.5459 Y1.1932
X1.5484 Y1.1821
X1.5504 Y1.1763
G3 X1.5653 Y1.1687 I0.0117 J0.0045
G1 X1.5774 Y1.1719
X1.7624 Y1.2206
X1.7732 Y1.2234
G3 X1.7821 Y1.2388 I-0.0032 J0.0121
G1 X1.7784 Y1.2503
X1.7763 Y1.256
X1.7729 Y1.2609
X1.7689 Y1.2653
X1.7644 Y1.2693
X1.7596 Y1.2729
X1.7545 Y1.2761
X1.7492 Y1.279
X1.7438 Y1.2815
X1.7383 Y1.2838
X1.7326 Y1.2858
X1.7269 Y1.2876
X1.7211 Y1.2891
X1.7152 Y1.2903
X1.7093 Y1.2914
X1.7033 Y1.2922
X1.6974 Y1.2928
X1.6914 Y1.2933
X1.6854 Y1.2935
X1.6793
X1.6732 Y1.2933
X1.6669 Y1.293
X1.6606 Y1.2924
X1.6543 Y1.2916
X1.6479 Y1.2907
X1.6416 Y1.2895
X1.6353 Y1.2881
X1.6291 Y1.2865
X1.6229 Y1.2848
X1.617 Y1.2828
X1.6111 Y1.2808
X1.6055 Y1.2786
X1.6 Y1.2762
X1.5946 Y1.2736
X1.5893 Y1.2709
X1.584 Y1.268
X1.5789 Y1.2648
X1.574 Y1.2614
X1.5691 Y1.2579
X1.5645 Y1.254
X1.5602 Y1.2499
X1.5561 Y1.2455
X1.5523 Y1.2408
X1.5515 Y1.2396
X1.5464 Y1.2302
X1.5431 Y1.22
X1.542 Y1.2093
X1.5429 Y1.1986
X1.5459 Y1.1883
X1.5484 Y1.1821
G3 X1.5633 Y1.1752 I0.0114 J0.0051
G1 X1.5758 Y1.1788
X1.7589 Y1.2318
X1.7699 Y1.235
G3 X1.7789 Y1.2469 I-0.0035 J0.012
G1 Y1.247
X1.7788 Y1.2487
X1.7784 Y1.2503
X1.7753 Y1.2603
X1.7732 Y1.2659
X1.7699 Y1.2709
X1.7658 Y1.2753
X1.7613 Y1.2793
X1.7565 Y1.2828
X1.7514 Y1.286
X1.7461 Y1.2889
X1.7407 Y1.2914
X1.7351 Y1.2936
X1.7295 Y1.2956
X1.7237 Y1.2973
X1.7179 Y1.2988
X1.712 Y1.3
X1.7061 Y1.301
X1.7001 Y1.3018
X1.6942 Y1.3024
X1.6882 Y1.3028
X1.6822 Y1.303
X1.6761
X1.6699 Y1.3028
X1.6636 Y1.3024
X1.6573 Y1.3018
X1.6509 Y1.301
X1.6445 Y1.3
X1.6381 Y1.2987
X1.6317 Y1.2973
X1.6254 Y1.2957
X1.6193 Y1.2939
X1.6134 Y1.292
X1.6077 Y1.2899
X1.6021 Y1.2877
X1.5966 Y1.2853
X1.5912 Y1.2827
X1.5859 Y1.2799
X1.5806 Y1.277
X1.5755 Y1.2738
X1.5706 Y1.2704
X1.5658 Y1.2668
X1.5612 Y1.263
X1.5568 Y1.2589
X1.5528 Y1.2545
X1.549 Y1.2498
X1.548 Y1.2485
X1.5428 Y1.239
X1.5395 Y1.2287
X1.5384 Y1.218
X1.5394 Y1.2072
X1.5424 Y1.1969
X1.5459 Y1.1883
G3 X1.5611 Y1.1814 I0.0115 J0.0051
G1 X1.5733 Y1.1852
X1.7558 Y1.2415
X1.7669 Y1.245
G3 X1.7753 Y1.2603 I-0.0036 J0.0119
G1 X1.7744 Y1.2631
X1.7719 Y1.2705
X1.7695 Y1.276
X1.7662 Y1.2811
X1.7622 Y1.2855
X1.7577 Y1.2894
X1.7528 Y1.293
X1.7477 Y1.2961
X1.7424 Y1.2989
X1.737 Y1.3014
X1.7314 Y1.3036
X1.7257 Y1.3055
X1.7199 Y1.3072
X1.7141 Y1.3086
X1.7082 Y1.3098
X1.7023 Y1.3107
X1.6963 Y1.3115
X1.6904 Y1.312
X1.6844 Y1.3123
X1.6783 Y1.3125
X1.6721 Y1.3124
X1.6659 Y1.3122
X1.6595 Y1.3118
X1.6531 Y1.3111
X1.6467 Y1.3102
X1.6403 Y1.3092
X1.6338 Y1.3079
X1.6275 Y1.3064
X1.6213 Y1.3048
X1.6152 Y1.3029
X1.6093 Y1.301
X1.6037 Y1.2989
X1.5981 Y1.2966
X1.5926 Y1.2942
X1.5872 Y1.2915
X1.5819 Y1.2887
X1.5767 Y1.2857
X1.5717 Y1.2825
X1.5667 Y1.2791
X1.562 Y1.2754
X1.5574 Y1.2716
X1.553 Y1.2675
X1.549 Y1.263
X1.5452 Y1.2584
X1.5442 Y1.2569
X1.5391 Y1.2475
X1.5359 Y1.2372
X1.5348 Y1.2265
X1.5358 Y1.2157
X1.5389 Y1.2054
X1.5424 Y1.1969
G3 X1.5576 Y1.1901 I0.0114 J0.0051
G1 X1.5698 Y1.1939
X1.7528 Y1.2515
X1.7637 Y1.255
G3 X1.7719 Y1.2705 I-0.0038 J0.0119
G1 X1.7676 Y1.2822
X1.7652 Y1.2877
X1.7616 Y1.2925
X1.7574 Y1.2967
X1.7528 Y1.3005
X1.7478 Y1.3039
X1.7426 Y1.3069
X1.7372 Y1.3096
X1.7317 Y1.312
X1.7261 Y1.314
X1.7204 Y1.3158
X1.7146 Y1.3174
X1.7087 Y1.3187
X1.7028 Y1.3197
X1.6969 Y1.3206
X1.6909 Y1.3212
X1.6849 Y1.3217
X1.6789 Y1.3219
X1.6728 Y1.322
X1.6665 Y1.3218
X1.6602 Y1.3215
X1.6537 Y1.3209
X1.6473 Y1.3202
X1.6408 Y1.3192
X1.6344 Y1.318
X1.6281 Y1.3167
X1.6218 Y1.3151
X1.6156 Y1.3134
X1.6096 Y1.3114
X1.6038 Y1.3094
X1.5982 Y1.3072
X1.5927 Y1.3049
X1.5872 Y1.3023
X1.5819 Y1.2996
X1.5766 Y1.2967
X1.5715 Y1.2936
X1.5665 Y1.2903
X1.5616 Y1.2868
X1.5569 Y1.2831
X1.5524 Y1.2791
X1.5481 Y1.2749
X1.5442 Y1.2704
X1.5405 Y1.2657
X1.5397 Y1.2645
X1.5349 Y1.2551
X1.532 Y1.2451
X1.5311 Y1.2347
X1.5322 Y1.2242
X1.5353 Y1.2142
X1.5389 Y1.2054
G3 X1.5542 Y1.1987 I0.0114 J0.0052
G1 X1.5662 Y1.2027
X1.749 Y1.2628
X1.7596 Y1.2663
G3 X1.7676 Y1.2822 I-0.0039 J0.0119
G1 X1.7639 Y1.292
X1.7615 Y1.2975
X1.758 Y1.3024
X1.7538 Y1.3066
X1.7492 Y1.3104
X1.7442 Y1.3138
X1.739 Y1.3168
X1.7336 Y1.3194
X1.7281 Y1.3218
X1.7224 Y1.3238
X1.7167 Y1.3256
X1.7109 Y1.3271
X1.705 Y1.3283
X1.6991 Y1.3294
X1.6932 Y1.3302
X1.6872 Y1.3308
X1.6812 Y1.3312
X1.6752 Y1.3314
X1.6691
X1.6629 Y1.3313
X1.6565 Y1.3309
X1.6502 Y1.3303
X1.6437 Y1.3295
X1.6372 Y1.3285
X1.6308 Y1.3273
X1.6244 Y1.3259
X1.6181 Y1.3243
X1.6119 Y1.3225
X1.6059 Y1.3206
X1.6001 Y1.3185
X1.5946 Y1.3163
X1.589 Y1.3139
X1.5836 Y1.3114
X1.5783 Y1.3086
X1.573 Y1.3057
X1.5679 Y1.3026
X1.5629 Y1.2993
X1.558 Y1.2958
X1.5533 Y1.292
X1.5488 Y1.2881
X1.5446 Y1.2839
X1.5406 Y1.2794
X1.5369 Y1.2746
X1.5362 Y1.2735
X1.5314 Y1.2642
X1.5284 Y1.2541
X1.5275 Y1.2436
X1.5286 Y1.2331
X1.5316 Y1.2231
X1.5353 Y1.2142
G3 X1.5506 Y1.2076 I0.0113 J0.0052
G1 X1.5626 Y1.2116
X1.7453 Y1.2726
X1.756 Y1.2762
G3 X1.7639 Y1.292 I-0.0039 J0.0118
G1 X1.7599 Y1.3027
X1.7574 Y1.3081
X1.7538 Y1.3129
X1.7495 Y1.3171
X1.7448 Y1.3208
X1.7398 Y1.3241
X1.7345 Y1.327
X1.7291 Y1.3296
X1.7235 Y1.3319
X1.7179 Y1.3338
X1.7121 Y1.3355
X1.7063 Y1.3369
X1.7004 Y1.3381
X1.6945 Y1.3391
X1.6885 Y1.3399
X1.6826 Y1.3404
X1.6766 Y1.3407
X1.6705 Y1.3409
X1.6643
X1.658 Y1.3406
X1.6517 Y1.3402
X1.6453 Y1.3395
X1.6388 Y1.3387
X1.6324 Y1.3376
X1.6259 Y1.3363
X1.6196 Y1.3348
X1.6133 Y1.3332
X1.6072 Y1.3313
X1.6012 Y1.3293
X1.5954 Y1.3272
X1.5898 Y1.3249
X1.5843 Y1.3225
X1.5789 Y1.3199
X1.5736 Y1.3171
X1.5684 Y1.3141
X1.5633 Y1.3109
X1.5583 Y1.3076
X1.5535 Y1.304
X1.5488 Y1.3002
X1.5444 Y1.2962
X1.5402 Y1.2919
X1.5363 Y1.2874
X1.5326 Y1.2826
X1.532 Y1.2816
X1.5274 Y1.2723
X1.5246 Y1.2624
X1.5238 Y1.2521
X1.5249 Y1.2418
X1.5279 Y1.2319
X1.5316 Y1.2231
G3 X1.5471 Y1.2164 I0.0114 J0.0051
G1 X1.5589 Y1.2205
X1.7416 Y1.2831
X1.7522 Y1.2867
G3 X1.7599 Y1.3027 I-0.0041 J0.0118
G1 X1.7596 Y1.3035
X1.7551 Y1.3139
X1.7525 Y1.3193
X1.7487 Y1.324
X1.7443 Y1.328
X1.7395 Y1.3316
X1.7344 Y1.3348
X1.729 Y1.3376
X1.7236 Y1.34
X1.718 Y1.3422
X1.7123 Y1.344
X1.7065 Y1.3456
X1.7006 Y1.347
X1.6947 Y1.3481
X1.6888 Y1.3489
X1.6828 Y1.3496
X1.6768 Y1.35
X1.6708 Y1.3503
X1.6648
X1.6585 Y1.3502
X1.6522 Y1.3499
X1.6458 Y1.3493
X1.6393 Y1.3486
X1.6329 Y1.3476
X1.6264 Y1.3464
X1.62 Y1.345
X1.6137 Y1.3435
X1.6075 Y1.3417
X1.6014 Y1.3398
X1.5954 Y1.3377
X1.5896 Y1.3355
X1.5841 Y1.3331
X1.5787 Y1.3306
X1.5733 Y1.3279
X1.568 Y1.325
X1.5629 Y1.322
X1.5578 Y1.3187
X1.5529 Y1.3153
X1.5482 Y1.3116
X1.5436 Y1.3077
X1.5392 Y1.3036
X1.5351 Y1.2993
X1.5313 Y1.2946
X1.5278 Y1.2897
X1.5275 Y1.2892
X1.5225 Y1.2778
X1.5202 Y1.2655
X1.5208 Y1.253
X1.5242 Y1.2409
X1.5279 Y1.2319
G3 X1.5435 Y1.2253 I0.0114 J0.0052
G1 X1.5552 Y1.2295
X1.7373 Y1.294
X1.7476 Y1.2976
G3 X1.7551 Y1.3139 I-0.0042 J0.0118
G1 X1.7514 Y1.3226
X1.7508 Y1.3239
X1.7481 Y1.3292
X1.7444 Y1.3339
X1.74 Y1.338
X1.7352 Y1.3416
X1.7301 Y1.3447
X1.7247 Y1.3475
X1.7192 Y1.3499
X1.7136 Y1.352
X1.7079 Y1.3538
X1.7021 Y1.3553
X1.6962 Y1.3566
X1.6903 Y1.3577
X1.6844 Y1.3585
X1.6784 Y1.3591
X1.6724 Y1.3595
X1.6664 Y1.3597
X1.6603
X1.6541 Y1.3596
X1.6478 Y1.3592
X1.6415 Y1.3586
X1.6351 Y1.3578
X1.6286 Y1.3568
X1.6222 Y1.3556
X1.6157 Y1.3541
X1.6094 Y1.3525
X1.6031 Y1.3507
X1.597 Y1.3487
X1.5911 Y1.3466
X1.5853 Y1.3443
X1.5798 Y1.3419
X1.5744 Y1.3394
X1.5691 Y1.3366
X1.5638 Y1.3337
X1.5587 Y1.3306
X1.5536 Y1.3273
X1.5488 Y1.3239
X1.544 Y1.3202
X1.5395 Y1.3163
X1.5351 Y1.3121
X1.531 Y1.3078
X1.5273 Y1.3031
X1.5263 Y1.3017
X1.521 Y1.2921
X1.5176 Y1.2818
X1.5165 Y1.2709
X1.5175 Y1.2601
X1.5206 Y1.2496
X1.5242 Y1.2409
G3 X1.5398 Y1.2343 I0.0114 J0.0052
G1 X1.5514 Y1.2385
X1.7332 Y1.3038
X1.7434 Y1.3075
G3 X1.7507 Y1.3238 I-0.0042 J0.0117
G1 X1.7463 Y1.3342
X1.7436 Y1.3396
X1.7397 Y1.3442
X1.7353 Y1.3482
X1.7304 Y1.3517
X1.7253 Y1.3548
X1.7199 Y1.3575
X1.7144 Y1.3599
X1.7088 Y1.3619
X1.703 Y1.3636
X1.6972 Y1.3651
X1.6913 Y1.3664
X1.6854 Y1.3673
X1.6795 Y1.3681
X1.6735 Y1.3687
X1.6675 Y1.369
X1.6615 Y1.3692
X1.6554 Y1.3691
X1.6492 Y1.3689
X1.6429 Y1.3684
X1.6365 Y1.3678
X1.63 Y1.3669
X1.6236 Y1.3658
X1.6171 Y1.3645
X1.6107 Y1.363
X1.6044 Y1.3613
X1.5982 Y1.3595
X1.5921 Y1.3574
X1.5862 Y1.3552
X1.5804 Y1.3529
X1.5749 Y1.3504
X1.5695 Y1.3478
X1.5642 Y1.345
X1.559 Y1.3421
X1.5539 Y1.3389
X1.5489 Y1.3356
X1.5441 Y1.3321
X1.5393 Y1.3283
X1.5348 Y1.3244
X1.5306 Y1.3202
X1.5266 Y1.3157
X1.5251 Y1.3138
X1.5187 Y1.3037
X1.5146 Y1.2924
X1.513 Y1.2805
X1.514 Y1.2685
X1.5175 Y1.2571
X1.5206 Y1.2496
G3 X1.5363 Y1.243 I0.0114 J0.0052
G1 X1.5478 Y1.2473
X1.7287 Y1.3141
X1.739 Y1.3178
G3 X1.7464 Y1.3342 I-0.0043 J0.0118
G1 X1.743 Y1.3417
X1.741 Y1.3458
X1.7382 Y1.351
X1.7341 Y1.3554
X1.7294 Y1.3592
X1.7245 Y1.3626
X1.7192 Y1.3655
X1.7138 Y1.368
X1.7082 Y1.3703
X1.7025 Y1.3722
X1.6967 Y1.3738
X1.6909 Y1.3752
X1.685 Y1.3763
X1.6791 Y1.3771
X1.6731 Y1.3778
X1.6671 Y1.3782
X1.6611 Y1.3785
X1.6551
X1.649 Y1.3784
X1.6427 Y1.378
X1.6364 Y1.3774
X1.6299 Y1.3767
X1.6235 Y1.3757
X1.617 Y1.3745
X1.6106 Y1.3731
X1.6042 Y1.3715
X1.5979 Y1.3697
X1.5917 Y1.3677
X1.5857 Y1.3656
X1.5798 Y1.3633
X1.5741 Y1.3608
X1.5686 Y1.3583
X1.5633 Y1.3556
X1.558 Y1.3527
X1.5529 Y1.3496
X1.5478 Y1.3464
X1.5429 Y1.343
X1.5381 Y1.3393
X1.5335 Y1.3355
X1.5292 Y1.3314
X1.5251 Y1.327
X1.5212 Y1.3224
X1.5177 Y1.3175
X1.5146 Y1.3124
X1.5144 Y1.312
X1.5106 Y1.3022
X1.5087 Y1.2919
X1.5089 Y1.2814
X1.511 Y1.2711
X1.5151 Y1.2615
X1.5175 Y1.2571
G3 X1.5327 Y1.2517 I0.0108 J0.0063
G1 X1.5452 Y1.2565
X1.7241 Y1.3252
X1.7341 Y1.3291
G3 X1.7411 Y1.3458 I-0.0045 J0.0117
G1 X1.7363 Y1.3556
X1.7335 Y1.3609
X1.7294 Y1.3653
X1.7248 Y1.3691
X1.7198 Y1.3724
X1.7145 Y1.3753
X1.7091 Y1.3778
X1.7035 Y1.38
X1.6978 Y1.3819
X1.692 Y1.3835
X1.6861 Y1.3848
X1.6802 Y1.3858
X1.6743 Y1.3867
X1.6683 Y1.3873
X1.6623 Y1.3877
X1.6563 Y1.3878
X1.6503
X1.6442 Y1.3876
X1.6379 Y1.3872
X1.6316 Y1.3866
X1.6252 Y1.3858
X1.6188 Y1.3848
X1.6124 Y1.3835
X1.6059 Y1.3821
X1.5995 Y1.3804
X1.5932 Y1.3786
X1.587 Y1.3765
X1.5809 Y1.3743
X1.5751 Y1.372
X1.5695 Y1.3695
X1.5641 Y1.3669
X1.5587 Y1.3642
X1.5535 Y1.3613
X1.5484 Y1.3582
X1.5433 Y1.3549
X1.5385 Y1.3514
X1.5337 Y1.3477
X1.5292 Y1.3438
X1.5248 Y1.3397
X1.5207 Y1.3353
X1.5168 Y1.3307
X1.5134 Y1.3258
X1.5102 Y1.3207
X1.5098 Y1.32
X1.506 Y1.31
X1.5042 Y1.2996
X1.5045 Y1.2889
X1.5068 Y1.2786
X1.5111 Y1.2689
X1.5151 Y1.2615
G3 X1.5307 Y1.2562 I0.0108 J0.0063
G1 X1.5427 Y1.2612
X1.7195 Y1.3348
X1.7297 Y1.339
G3 X1.7364 Y1.3556 I-0.0048 J0.0116
G1 X1.7336 Y1.3614
X1.7314 Y1.3656
X1.7284 Y1.3709
X1.7243 Y1.3753
X1.7197 Y1.379
X1.7147 Y1.3823
X1.7094 Y1.3852
X1.7039 Y1.3877
X1.6983 Y1.3898
X1.6926 Y1.3916
X1.6868 Y1.3931
X1.6809 Y1.3944
X1.675 Y1.3954
X1.6691 Y1.3962
X1.6631 Y1.3967
X1.6571 Y1.397
X1.6511 Y1.3972
X1.6451 Y1.3971
X1.639 Y1.3968
X1.6327 Y1.3964
X1.6264 Y1.3957
X1.62 Y1.3948
X1.6136 Y1.3937
X1.6071 Y1.3924
X1.6007 Y1.3909
X1.5943 Y1.3892
X1.588 Y1.3872
X1.5819 Y1.3852
X1.5759 Y1.3829
X1.5701 Y1.3805
X1.5645 Y1.378
X1.5591 Y1.3754
X1.5538 Y1.3726
X1.5486 Y1.3696
X1.5435 Y1.3665
X1.5385 Y1.3631
X1.5337 Y1.3596
X1.529 Y1.3558
X1.5245 Y1.3519
X1.5202 Y1.3477
X1.5161 Y1.3434
X1.5122 Y1.3388
X1.5087 Y1.3339
X1.5056 Y1.3288
X1.5052 Y1.3279
X1.5013 Y1.3176
X1.4996 Y1.3067
X1.5001 Y1.2957
X1.5027 Y1.2851
X1.5075 Y1.2752
X1.5111 Y1.2689
G3 X1.5267 Y1.2639 I0.0107 J0.0065
G1 X1.5387 Y1.269
X1.7149 Y1.3446
X1.725 Y1.3489
G3 X1.7314 Y1.3657 I-0.0049 J0.0115
G1 X1.7266 Y1.3752
X1.7236 Y1.3804
X1.7196 Y1.3849
X1.7149 Y1.3887
X1.7099 Y1.392
X1.7046 Y1.3948
X1.6991 Y1.3973
X1.6935 Y1.3994
X1.6878 Y1.4011
X1.682 Y1.4026
X1.6761 Y1.4039
X1.6702 Y1.4048
X1.6642 Y1.4056
X1.6583 Y1.4061
X1.6523 Y1.4064
X1.6463
X1.6403 Y1.4063
X1.6341 Y1.406
X1.6279 Y1.4055
X1.6216 Y1.4048
X1.6153 Y1.4039
X1.6088 Y1.4027
X1.6024 Y1.4014
X1.596 Y1.3998
X1.5896 Y1.398
X1.5834 Y1.3961
X1.5772 Y1.394
X1.5713 Y1.3917
X1.5656 Y1.3893
X1.5601 Y1.3868
X1.5547 Y1.3841
X1.5494 Y1.3813
X1.5442 Y1.3782
X1.5391 Y1.3751
X1.5342 Y1.3717
X1.5293 Y1.3681
X1.5247 Y1.3644
X1.5201 Y1.3604
X1.5158 Y1.3563
X1.5117 Y1.3519
X1.5079 Y1.3473
X1.5044 Y1.3424
X1.5013 Y1.3373
X1.5006 Y1.3361
X1.4966 Y1.3257
X1.4948 Y1.3148
X1.4953 Y1.3037
X1.498 Y1.2929
X1.5028 Y1.2829
X1.5075 Y1.2752
G3 X1.523 Y1.2707 I0.0104 J0.0069
G1 X1.5352 Y1.2761
X1.7102 Y1.354
X1.7203 Y1.3585
G3 X1.7266 Y1.3752 I-0.0051 J0.0115
G1 X1.7248 Y1.3787
X1.7212 Y1.3855
X1.718 Y1.3906
X1.7139 Y1.395
X1.7092 Y1.3988
X1.7042 Y1.402
X1.6988 Y1.4048
X1.6933 Y1.4071
X1.6877 Y1.4092
X1.6819 Y1.4109
X1.6761 Y1.4123
X1.6702 Y1.4134
X1.6643 Y1.4143
X1.6583 Y1.415
X1.6523 Y1.4154
X1.6463 Y1.4156
X1.6403 Y1.4157
X1.6343 Y1.4155
X1.6282 Y1.4151
X1.6219 Y1.4145
X1.6156 Y1.4137
X1.6092 Y1.4127
X1.6028 Y1.4115
X1.5964 Y1.41
X1.59 Y1.4084
X1.5838 Y1.4066
X1.5776 Y1.4045
X1.5715 Y1.4023
X1.5656 Y1.4
X1.5599 Y1.3975
X1.5544 Y1.3949
X1.549 Y1.3922
X1.5438 Y1.3893
X1.5386 Y1.3862
X1.5336 Y1.3829
X1.5287 Y1.3795
X1.5239 Y1.3759
X1.5193 Y1.3721
X1.5148 Y1.3681
X1.5105 Y1.3638
X1.5065 Y1.3594
X1.5027 Y1.3547
X1.4993 Y1.3498
X1.4962 Y1.3447
X1.4955 Y1.3432
X1.4917 Y1.333
X1.49 Y1.3222
X1.4905 Y1.3112
X1.4932 Y1.3006
X1.4979 Y1.2908
X1.5028 Y1.2829
G3 X1.5184 Y1.2784 I0.0104 J0.0069
G1 X1.5304 Y1.284
X1.7054 Y1.364
X1.7152 Y1.3685
G3 X1.7212 Y1.3855 I-0.0052 J0.0114
G1 X1.7154 Y1.3961
X1.7122 Y1.4012
X1.708 Y1.4054
X1.7032 Y1.409
X1.6981 Y1.4121
X1.6927 Y1.4148
X1.6872 Y1.4171
X1.6815 Y1.419
X1.6757 Y1.4206
X1.6698 Y1.422
X1.6639 Y1.423
X1.658 Y1.4238
X1.652 Y1.4244
X1.646 Y1.4247
X1.64 Y1.4249
X1.634 Y1.4248
X1.628 Y1.4245
X1.6219 Y1.424
X1.6156 Y1.4234
X1.6093 Y1.4225
X1.6029 Y1.4214
X1.5965 Y1.4201
X1.5902 Y1.4186
X1.5838 Y1.4168
X1.5776 Y1.4149
X1.5715 Y1.4128
X1.5654 Y1.4105
X1.5596 Y1.4081
X1.5539 Y1.4055
X1.5484 Y1.4029
X1.5431 Y1.4001
X1.5379 Y1.3971
X1.5328 Y1.3939
X1.5278 Y1.3906
X1.5229 Y1.3871
X1.5182 Y1.3834
X1.5136 Y1.3795
X1.5092 Y1.3755
X1.505 Y1.3712
X1.501 Y1.3667
X1.4973 Y1.362
X1.494 Y1.357
X1.4909 Y1.3518
X1.4903 Y1.3505
X1.4867 Y1.3403
X1.4851 Y1.3296
X1.4857 Y1.3189
X1.4884 Y1.3084
X1.4931 Y1.2987
X1.4979 Y1.2908
G3 X1.5137 Y1.2863 I0.0105 J0.0069
G1 X1.5255 Y1.292
X1.6996 Y1.3744
X1.7096 Y1.3791
G3 X1.7154 Y1.3961 I-0.0054 J0.0113
G1 X1.7122 Y1.4018
X1.7095 Y1.4064
X1.7062 Y1.4115
X1.7019 Y1.4156
X1.697 Y1.4191
X1.6918 Y1.4222
X1.6864 Y1.4247
X1.6808 Y1.4269
X1.6751 Y1.4288
X1.6693 Y1.4303
X1.6634 Y1.4315
X1.6575 Y1.4325
X1.6516 Y1.4332
X1.6456 Y1.4337
X1.6396 Y1.434
X1.6336
X1.6276 Y1.4338
X1.6216 Y1.4335
X1.6154 Y1.4329
X1.6092 Y1.4322
X1.6028 Y1.4312
X1.5965 Y1.43
X1.5901 Y1.4286
X1.5838 Y1.427
X1.5775 Y1.4252
X1.5713 Y1.4232
X1.5652 Y1.421
X1.5592 Y1.4186
X1.5534 Y1.4161
X1.5477 Y1.4135
X1.5423 Y1.4107
X1.537 Y1.4079
X1.5319 Y1.4048
X1.5268 Y1.4016
X1.5219 Y1.3982
X1.517 Y1.3946
X1.5124 Y1.3909
X1.5078 Y1.3869
X1.5035 Y1.3828
X1.4993 Y1.3784
X1.4954 Y1.3739
X1.4918 Y1.3691
X1.4885 Y1.3641
X1.4856 Y1.3589
X1.485 Y1.3577
X1.4816 Y1.3476
X1.4802 Y1.3371
X1.4808 Y1.3265
X1.4835 Y1.3163
X1.4882 Y1.3067
X1.4931 Y1.2987
G3 X1.509 Y1.2944 I0.0104 J0.0069
G1 X1.5206 Y1.3
X1.6942 Y1.3846
X1.7039 Y1.3893
G3 X1.7094 Y1.4064 I-0.0054 J0.0112
G1 X1.7039 Y1.416
X1.7006 Y1.421
X1.6963 Y1.4252
X1.6915 Y1.4287
X1.6863 Y1.4317
X1.6808 Y1.4342
X1.6752 Y1.4364
X1.6695 Y1.4382
X1.6637 Y1.4397
X1.6578 Y1.4409
X1.6519 Y1.4418
X1.6459 Y1.4424
X1.6399 Y1.4429
X1.6339 Y1.4431
X1.6279
X1.6219 Y1.4429
X1.6159 Y1.4425
X1.6098 Y1.4418
X1.6036 Y1.441
X1.5973 Y1.44
X1.591 Y1.4388
X1.5847 Y1.4373
X1.5784 Y1.4356
X1.5721 Y1.4338
X1.5659 Y1.4317
X1.5598 Y1.4295
X1.5538 Y1.4271
X1.548 Y1.4245
X1.5424 Y1.4218
X1.537 Y1.419
X1.5318 Y1.4161
X1.5266 Y1.413
X1.5216 Y1.4097
X1.5167 Y1.4063
X1.5119 Y1.4027
X1.5072 Y1.3989
X1.5027 Y1.3949
X1.4984 Y1.3908
X1.4943 Y1.3864
X1.4904 Y1.3818
X1.4868 Y1.377
X1.4835 Y1.372
X1.4806 Y1.3668
X1.4801 Y1.3656
X1.4767 Y1.3556
X1.4753 Y1.3451
X1.4759 Y1.3345
X1.4786 Y1.3243
X1.4833 Y1.3148
X1.4882 Y1.3067
G3 X1.5042 Y1.3024 I0.0104 J0.0069
G1 X1.5157 Y1.3081
X1.6887 Y1.394
X1.6985 Y1.3989
G3 X1.7039 Y1.416 I-0.0056 J0.0112
G1 X1.6981 Y1.426
X1.6948 Y1.431
X1.6904 Y1.4351
X1.6855 Y1.4385
X1.6802 Y1.4414
X1.6747 Y1.4439
X1.6691 Y1.446
X1.6634 Y1.4477
X1.6575 Y1.4491
X1.6516 Y1.4502
X1.6457 Y1.4511
X1.6397 Y1.4517
X1.6337 Y1.452
X1.6277 Y1.4522
X1.6217 Y1.4521
X1.6158 Y1.4518
X1.6098 Y1.4513
X1.6036 Y1.4506
X1.5974 Y1.4497
X1.5912 Y1.4486
X1.5848 Y1.4473
X1.5785 Y1.4458
X1.5722 Y1.4441
X1.566 Y1.4421
X1.5598 Y1.44
X1.5537 Y1.4377
X1.5478 Y1.4352
X1.542 Y1.4326
X1.5364 Y1.4298
X1.531 Y1.4269
X1.5258 Y1.4239
X1.5207 Y1.4208
X1.5157 Y1.4174
X1.5108 Y1.4139
X1.5061 Y1.4103
X1.5015 Y1.4064
X1.497 Y1.4024
X1.4928 Y1.3982
X1.4887 Y1.3938
X1.4848 Y1.3892
X1.4813 Y1.3844
X1.4781 Y1.3793
X1.4752 Y1.374
X1.4748 Y1.373
X1.4716 Y1.3631
X1.4703 Y1.3527
X1.471 Y1.3423
X1.4737 Y1.3322
X1.4783 Y1.3229
X1.4833 Y1.3148
G3 X1.4993 Y1.3106 I0.0104 J0.0069
G1 X1.5107 Y1.3163
X1.683 Y1.4039
X1.6928 Y1.4089
G3 X1.6981 Y1.426 I-0.0057 J0.0111
G1 X1.6953 Y1.4307
X1.6924 Y1.4354
X1.689 Y1.4403
X1.6846 Y1.4444
X1.6797 Y1.4479
X1.6745 Y1.4508
X1.669 Y1.4532
X1.6634 Y1.4553
X1.6576 Y1.457
X1.6518 Y1.4584
X1.6459 Y1.4594
X1.6399 Y1.4602
X1.6339 Y1.4608
X1.628 Y1.4611
X1.622 Y1.4612
X1.616 Y1.461
X1.61 Y1.4607
X1.604 Y1.4602
X1.5979 Y1.4594
X1.5917 Y1.4585
X1.5855 Y1.4573
X1.5792 Y1.456
X1.5729 Y1.4544
X1.5666 Y1.4526
X1.5604 Y1.4506
X1.5542 Y1.4484
X1.5481 Y1.446
X1.5422 Y1.4435
X1.5364 Y1.4408
X1.5308 Y1.438
X1.5255 Y1.435
X1.5203 Y1.432
X1.5152 Y1.4288
X1.5103 Y1.4254
X1.5054 Y1.4219
X1.5007 Y1.4182
X1.4961 Y1.4143
X1.4917 Y1.4103
X1.4874 Y1.406
X1.4834 Y1.4016
X1.4796 Y1.397
X1.4761 Y1.3921
X1.4729 Y1.387
X1.4701 Y1.3817
X1.4696 Y1.3807
X1.4664 Y1.3704
X1.4652 Y1.3597
X1.4662 Y1.3491
X1.4693 Y1.3388
X1.4743 Y1.3292
X1.476 Y1.3267
X1.4783 Y1.3229
G3 X1.4944 Y1.3187 I0.0104 J0.0068
G1 X1.5057 Y1.3244
X1.6777 Y1.4131
X1.6873 Y1.4181
G3 X1.6924 Y1.4354 I-0.0058 J0.0111
G1 X1.6909 Y1.4377
X1.6857 Y1.4457
X1.6822 Y1.4506
X1.6777 Y1.4545
X1.6727 Y1.4579
X1.6674 Y1.4607
X1.6619 Y1.463
X1.6562 Y1.4649
X1.6504 Y1.4665
X1.6445 Y1.4678
X1.6386 Y1.4687
X1.6327 Y1.4694
X1.6267 Y1.4699
X1.6207 Y1.4701
X1.6147
X1.6087 Y1.4698
X1.6027 Y1.4694
X1.5967 Y1.4688
X1.5906 Y1.468
X1.5844 Y1.4669
X1.5782 Y1.4656
X1.5719 Y1.4641
X1.5656 Y1.4625
X1.5593 Y1.4605
X1.5531 Y1.4584
X1.547 Y1.4562
X1.541 Y1.4537
X1.5351 Y1.4511
X1.5294 Y1.4483
X1.5238 Y1.4454
X1.5185 Y1.4423
X1.5133 Y1.4392
X1.5083 Y1.4359
X1.5034 Y1.4325
X1.4986 Y1.4288
X1.494 Y1.4251
X1.4895 Y1.4211
X1.4851 Y1.4169
X1.481 Y1.4126
X1.477 Y1.4081
X1.4733 Y1.4034
X1.4699 Y1.3985
X1.4669 Y1.3933
X1.4642 Y1.3879
X1.4637 Y1.3868
X1.4608 Y1.3764
X1.46 Y1.3656
X1.4613 Y1.3549
X1.4648 Y1.3446
X1.4701 Y1.3353
X1.4721 Y1.3325
X1.4743 Y1.3292
G3 X1.4903 Y1.3255 I0.0101 J0.0073
G1 X1.5017 Y1.3316
X1.6715 Y1.4232
X1.6809 Y1.4282
G3 X1.6857 Y1.4457 I-0.0059 J0.011
G1 X1.6794 Y1.4554
X1.6758 Y1.4603
X1.6713 Y1.4642
X1.6662 Y1.4674
X1.6609 Y1.4702
X1.6553 Y1.4724
X1.6496 Y1.4743
X1.6438 Y1.4758
X1.6379 Y1.477
X1.632 Y1.4779
X1.626 Y1.4785
X1.62 Y1.4789
X1.6141 Y1.479
X1.6081 Y1.4789
X1.6021 Y1.4786
X1.5961 Y1.4781
X1.5901 Y1.4774
X1.584 Y1.4765
X1.5778 Y1.4754
X1.5716 Y1.474
X1.5653 Y1.4725
X1.5591 Y1.4707
X1.5528 Y1.4687
X1.5466 Y1.4665
X1.5405 Y1.4642
X1.5345 Y1.4616
X1.5286 Y1.4589
X1.5229 Y1.456
X1.5174 Y1.453
X1.5121 Y1.45
X1.5071 Y1.4468
X1.5021 Y1.4434
X1.4972 Y1.4399
X1.4925 Y1.4362
X1.4879 Y1.4324
X1.4834 Y1.4284
X1.4791 Y1.4242
X1.475 Y1.4198
X1.4711 Y1.4152
X1.4675 Y1.4105
X1.4641 Y1.4055
X1.4612 Y1.4003
X1.4585 Y1.3949
X1.4581 Y1.3938
X1.4553 Y1.3835
X1.4546 Y1.3728
X1.456 Y1.3622
X1.4594 Y1.3521
X1.4648 Y1.3428
X1.4701 Y1.3353
G3 X1.4861 Y1.332 I0.0099 J0.0076
G1 X1.4976 Y1.3384
X1.6653 Y1.4327
X1.6748 Y1.4381
G3 X1.6794 Y1.4554 I-0.0061 J0.0109
G1 X1.6766 Y1.4597
X1.6725 Y1.4654
X1.6688 Y1.4701
X1.6642 Y1.474
X1.6591 Y1.4771
X1.6537 Y1.4798
X1.6481 Y1.4819
X1.6424 Y1.4837
X1.6365 Y1.4851
X1.6306 Y1.4862
X1.6247 Y1.487
X1.6187 Y1.4875
X1.6127 Y1.4878
X1.6067
X1.6007 Y1.4876
X1.5947 Y1.4872
X1.5888 Y1.4866
X1.5828 Y1.4858
X1.5767 Y1.4848
X1.5705 Y1.4836
X1.5643 Y1.4822
X1.558 Y1.4805
X1.5518 Y1.4786
X1.5455 Y1.4766
X1.5394 Y1.4743
X1.5333 Y1.4718
X1.5274 Y1.4692
X1.5216 Y1.4664
X1.5159 Y1.4635
X1.5105 Y1.4604
X1.5052 Y1.4572
X1.5002 Y1.454
X1.4953 Y1.4505
X1.4905 Y1.447
X1.4858 Y1.4432
X1.4812 Y1.4393
X1.4769 Y1.4352
X1.4726 Y1.4309
X1.4686 Y1.4265
X1.4648 Y1.4219
X1.4612 Y1.417
X1.458 Y1.412
X1.4551 Y1.4067
X1.4526 Y1.4013
X1.4522 Y1.4001
X1.4496 Y1.3895
X1.4491 Y1.3787
X1.4508 Y1.368
X1.4546 Y1.3578
X1.4603 Y1.3486
X1.4639 Y1.344
X1.4648 Y1.3428
G3 X1.4809 Y1.3396 I0.0099 J0.0076
G1 X1.4921 Y1.346
X1.6593 Y1.4425
X1.6684 Y1.4477
G3 X1.6725 Y1.4654 I-0.0063 J0.0108
G1 X1.666 Y1.4746
X1.6623 Y1.4793
X1.6577 Y1.4832
X1.6526 Y1.4863
X1.6471 Y1.4889
X1.6415 Y1.491
X1.6358 Y1.4928
X1.6299 Y1.4941
X1.624 Y1.4952
X1.6181 Y1.4959
X1.6121 Y1.4964
X1.6061 Y1.4966
X1.6001 Y1.4965
X1.5941 Y1.4963
X1.5881 Y1.4958
X1.5822 Y1.4952
X1.5762 Y1.4943
X1.5701 Y1.4932
X1.5639 Y1.492
X1.5578 Y1.4905
X1.5515 Y1.4887
X1.5453 Y1.4868
X1.5391 Y1.4847
X1.533 Y1.4823
X1.527 Y1.4798
X1.521 Y1.4771
X1.5152 Y1.4742
X1.5096 Y1.4712
X1.5042 Y1.4681
X1.4991 Y1.4649
X1.4941 Y1.4616
X1.4892 Y1.4581
X1.4844 Y1.4545
X1.4798 Y1.4507
X1.4752 Y1.4467
X1.4709 Y1.4426
X1.4667 Y1.4383
X1.4627 Y1.4338
X1.459 Y1.4291
X1.4555 Y1.4243
X1.4522 Y1.4192
X1.4494 Y1.4139
X1.4469 Y1.4084
X1.4464 Y1.4069
X1.4437 Y1.3958
X1.4435 Y1.3844
X1.4455 Y1.3732
X1.4499 Y1.3627
X1.4564 Y1.3534
X1.4597 Y1.3495
X1.4603 Y1.3486
G3 X1.4764 Y1.3458 I0.0097 J0.008
G1 X1.4877 Y1.3526
X1.6528 Y1.4515
X1.662 Y1.457
G3 X1.666 Y1.4746 I-0.0064 J0.0107
G1 X1.662 Y1.4801
X1.6588 Y1.4843
X1.655 Y1.4889
X1.6503 Y1.4927
X1.6452 Y1.4957
X1.6397 Y1.4982
X1.6341 Y1.5003
X1.6283 Y1.5019
X1.6225 Y1.5032
X1.6165 Y1.5041
X1.6106 Y1.5048
X1.6046 Y1.5052
X1.5986 Y1.5053
X1.5926 Y1.5052
X1.5866 Y1.5048
X1.5806 Y1.5043
X1.5747 Y1.5035
X1.5687 Y1.5026
X1.5627 Y1.5014
X1.5565 Y1.5
X1.5503 Y1.4984
X1.5441 Y1.4966
X1.5379 Y1.4946
X1.5317 Y1.4923
X1.5256 Y1.4899
X1.5197 Y1.4873
X1.5138 Y1.4845
X1.5081 Y1.4816
X1.5025 Y1.4785
X1.4972 Y1.4753
X1.492 Y1.472
X1.4871 Y1.4686
X1.4822 Y1.4651
X1.4775 Y1.4614
X1.4729 Y1.4575
X1.4685 Y1.4535
X1.4642 Y1.4493
X1.4601 Y1.4449
X1.4562 Y1.4403
X1.4525 Y1.4356
X1.4491 Y1.4307
X1.4459 Y1.4256
X1.4432 Y1.4202
X1.4408 Y1.4147
X1.4402 Y1.413
X1.4378 Y1.4021
X1.4376 Y1.3908
X1.4398 Y1.3798
X1.4441 Y1.3695
X1.4505 Y1.3602
X1.4564 Y1.3534
G3 X1.4722 Y1.3512 I0.0092 J0.0084
G1 X1.4837 Y1.3585
X1.6463 Y1.4608
X1.6553 Y1.4665
G3 X1.6589 Y1.4843 I-0.0067 J0.0106
G1 X1.6512 Y1.4943
X1.6474 Y1.4989
X1.6426 Y1.5025
X1.6373 Y1.5054
X1.6318 Y1.5077
X1.6261 Y1.5096
X1.6203 Y1.5111
X1.6144 Y1.5123
X1.6084 Y1.5131
X1.6025 Y1.5136
X1.5965 Y1.5139
X1.5905
X1.5845 Y1.5137
X1.5785 Y1.5132
X1.5725 Y1.5126
X1.5666 Y1.5117
X1.5606 Y1.5106
X1.5546 Y1.5094
X1.5484 Y1.5079
X1.5423 Y1.5061
X1.5361 Y1.5042
X1.5299 Y1.5021
X1.5238 Y1.4997
X1.5177 Y1.4972
X1.5118 Y1.4945
X1.506 Y1.4916
X1.5003 Y1.4886
X1.4948 Y1.4854
X1.4895 Y1.4821
X1.4845 Y1.4787
X1.4796 Y1.4753
X1.4748 Y1.4716
X1.4702 Y1.4678
X1.4657 Y1.4639
X1.4613 Y1.4598
X1.4571 Y1.4555
X1.4531 Y1.451
X1.4493 Y1.4464
X1.4457 Y1.4416
X1.4423 Y1.4366
X1.4393 Y1.4314
X1.4367 Y1.426
X1.4344 Y1.4205
X1.4339 Y1.4188
X1.4317 Y1.4081
Y1.3971
X1.4339 Y1.3863
X1.4383 Y1.3762
X1.4445 Y1.3672
X1.4505 Y1.3602
G3 X1.4665 Y1.3582 I0.0092 J0.0085
G1 X1.4777 Y1.3655
X1.6388 Y1.4708
X1.6479 Y1.4767
G3 X1.6513 Y1.4944 I-0.0069 J0.0105
G1 X1.6447 Y1.503
X1.6408 Y1.5075
X1.636 Y1.5112
X1.6308 Y1.5141
X1.6253 Y1.5165
X1.6196 Y1.5183
X1.6138 Y1.5198
X1.6079 Y1.5209
X1.6019 Y1.5217
X1.5959 Y1.5222
X1.5899 Y1.5224
X1.5839
X1.5779 Y1.5221
X1.572 Y1.5216
X1.566 Y1.5209
X1.5601 Y1.52
X1.5541 Y1.5189
X1.5481 Y1.5176
X1.542 Y1.5161
X1.5359 Y1.5143
X1.5298 Y1.5124
X1.5237 Y1.5102
X1.5176 Y1.5078
X1.5116 Y1.5052
X1.5056 Y1.5024
X1.4998 Y1.4995
X1.4941 Y1.4964
X1.4887 Y1.4932
X1.4834 Y1.4899
X1.4784 Y1.4865
X1.4736 Y1.483
X1.4688 Y1.4793
X1.4642 Y1.4755
X1.4597 Y1.4715
X1.4554 Y1.4673
X1.4512 Y1.463
X1.4472 Y1.4585
X1.4434 Y1.4539
X1.4399 Y1.4491
X1.4366 Y1.4441
X1.4335 Y1.4389
X1.4309 Y1.4335
X1.4286 Y1.428
X1.4267 Y1.4221
X1.4253 Y1.4095
X1.4269 Y1.3969
X1.4313 Y1.385
X1.4384 Y1.3744
X1.4445 Y1.3672
G3 X1.4606 Y1.3653 I0.0092 J0.0085
G1 X1.4717 Y1.3726
X1.6324 Y1.4793
X1.6414 Y1.4853
G3 X1.6447 Y1.5029 I-0.0069 J0.0104
G1 X1.6379 Y1.5117
X1.634 Y1.5162
X1.6292 Y1.5199
X1.624 Y1.5228
X1.6185 Y1.5252
X1.6128 Y1.527
X1.607 Y1.5285
X1.6011 Y1.5296
X1.5951 Y1.5303
X1.5891 Y1.5308
X1.5831 Y1.5309
X1.5771 Y1.5308
X1.5711 Y1.5305
X1.5652 Y1.53
X1.5592 Y1.5292
X1.5533 Y1.5283
X1.5474 Y1.5271
X1.5414 Y1.5257
X1.5353 Y1.5241
X1.5293 Y1.5223
X1.5232 Y1.5203
X1.5171 Y1.5181
X1.511 Y1.5156
X1.505 Y1.513
X1.4991 Y1.5102
X1.4933 Y1.5072
X1.4877 Y1.504
X1.4823 Y1.5008
X1.4771 Y1.4974
X1.4721 Y1.494
X1.4672 Y1.4904
X1.4625 Y1.4867
X1.4579 Y1.4828
X1.4535 Y1.4788
X1.4492 Y1.4746
X1.4451 Y1.4703
X1.4411 Y1.4658
X1.4373 Y1.4611
X1.4338 Y1.4562
X1.4305 Y1.4512
X1.4275 Y1.446
X1.4248 Y1.4407
X1.4225 Y1.4351
X1.422 Y1.4336
X1.4197 Y1.4227
X1.4196 Y1.4116
X1.4218 Y1.4007
X1.4261 Y1.3905
X1.4324 Y1.3813
X1.4384 Y1.3744
G3 X1.4546 Y1.3725 I0.0092 J0.0084
G1 X1.4655 Y1.3798
X1.6257 Y1.4879
X1.6348 Y1.4941
G3 X1.6379 Y1.5117 I-0.007 J0.0103
G1 X1.6331 Y1.5177
X1.6293 Y1.5221
X1.6251 Y1.5265
X1.6202 Y1.5298
X1.6148 Y1.5325
X1.6092 Y1.5346
X1.6034 Y1.5363
X1.5976 Y1.5375
X1.5916 Y1.5384
X1.5856 Y1.539
X1.5797 Y1.5393
X1.5737
X1.5677 Y1.5391
X1.5617 Y1.5386
X1.5557 Y1.5379
X1.5498 Y1.537
X1.5439 Y1.5359
X1.538 Y1.5346
X1.532 Y1.5331
X1.526 Y1.5314
X1.5199 Y1.5294
X1.5138 Y1.5272
X1.5077 Y1.5248
X1.5017 Y1.5222
X1.4958 Y1.5195
X1.4899 Y1.5165
X1.4843 Y1.5134
X1.4787 Y1.5101
X1.4734 Y1.5068
X1.4683 Y1.5033
X1.4633 Y1.4997
X1.4586 Y1.496
X1.454 Y1.4922
X1.4495 Y1.4882
X1.4451 Y1.4841
X1.4409 Y1.4798
X1.4369 Y1.4753
X1.4331 Y1.4707
X1.4294 Y1.466
X1.426 Y1.461
X1.4229 Y1.4559
X1.4201 Y1.4506
X1.4176 Y1.4451
X1.4155 Y1.4395
X1.4152 Y1.4382
X1.4134 Y1.4277
X1.4137 Y1.4172
X1.416 Y1.4068
X1.4203 Y1.3972
X1.4263 Y1.3885
X1.4324 Y1.3813
G3 X1.4489 Y1.3795 I0.0093 J0.0085
G1 X1.4594 Y1.387
X1.6182 Y1.4981
X1.6267 Y1.504
G3 X1.6293 Y1.5222 I-0.0071 J0.0103
G1 X1.6215 Y1.5311
X1.6174 Y1.5354
X1.6124 Y1.5387
X1.607 Y1.5413
X1.6013 Y1.5434
X1.5956 Y1.545
X1.5897 Y1.5461
X1.5837 Y1.547
X1.5778 Y1.5474
X1.5718 Y1.5476
X1.5658
X1.5598 Y1.5473
X1.5538 Y1.5467
X1.5478 Y1.5459
X1.5419 Y1.5449
X1.536 Y1.5438
X1.5302 Y1.5424
X1.5242 Y1.5408
X1.5181 Y1.5389
X1.5121 Y1.5369
X1.506 Y1.5346
X1.5 Y1.5322
X1.494 Y1.5295
X1.4881 Y1.5266
X1.4824 Y1.5236
X1.4767 Y1.5204
X1.4712 Y1.5171
X1.4659 Y1.5136
X1.4608 Y1.51
X1.4559 Y1.5064
X1.4513 Y1.5026
X1.4467 Y1.4987
X1.4423 Y1.4947
X1.438 Y1.4905
X1.4338 Y1.4861
X1.4299 Y1.4816
X1.4261 Y1.477
X1.4225 Y1.4722
X1.4192 Y1.4672
X1.4161 Y1.462
X1.4134 Y1.4567
X1.411 Y1.4512
X1.409 Y1.4455
X1.4088 Y1.4445
X1.4072 Y1.4342
X1.4076 Y1.4238
X1.41 Y1.4137
X1.4142 Y1.4042
X1.4202 Y1.3957
X1.4263 Y1.3885
G3 X1.4428 Y1.3868 I0.0092 J0.0084
G1 X1.4532 Y1.3942
X1.6105 Y1.5069
X1.6191 Y1.5131
G3 X1.6215 Y1.531 I-0.0073 J0.0101
G1 X1.6144 Y1.5393
X1.6103 Y1.5437
X1.6053 Y1.547
X1.5999 Y1.5497
X1.5943 Y1.5517
X1.5885 Y1.5533
X1.5826 Y1.5545
X1.5767 Y1.5553
X1.5707 Y1.5557
X1.5647 Y1.5559
X1.5587 Y1.5558
X1.5527 Y1.5554
X1.5467 Y1.5548
X1.5408 Y1.554
X1.5349 Y1.5529
X1.529 Y1.5517
X1.5231 Y1.5503
X1.5172 Y1.5486
X1.5112 Y1.5467
X1.5052 Y1.5447
X1.4992 Y1.5424
X1.4932 Y1.5399
X1.4873 Y1.5371
X1.4814 Y1.5342
X1.4756 Y1.5311
X1.47 Y1.5279
X1.4645 Y1.5245
X1.4593 Y1.521
X1.4542 Y1.5174
X1.4494 Y1.5137
X1.4448 Y1.5099
X1.4402 Y1.506
X1.4358 Y1.5019
X1.4316 Y1.4977
X1.4275 Y1.4933
X1.4235 Y1.4888
X1.4198 Y1.4841
X1.4162 Y1.4793
X1.4129 Y1.4742
X1.4099 Y1.4691
X1.4071 Y1.4637
X1.4048 Y1.4582
X1.4028 Y1.4526
X1.4026 Y1.4517
X1.401 Y1.4414
X1.4014 Y1.431
X1.4038 Y1.4209
X1.408 Y1.4114
X1.414 Y1.4029
X1.4202 Y1.3957
G3 X1.4367 Y1.394 I0.0092 J0.0084
G1 X1.447 Y1.4015
X1.6034 Y1.5151
X1.612 Y1.5214
G3 X1.6144 Y1.5393 I-0.0073 J0.0101
G1 X1.6071 Y1.5478
X1.6029 Y1.5521
X1.5979 Y1.5555
X1.5925 Y1.5581
X1.5869 Y1.5601
X1.5811 Y1.5617
X1.5752 Y1.5628
X1.5692 Y1.5635
X1.5632 Y1.5639
X1.5572 Y1.564
X1.5512 Y1.5639
X1.5453 Y1.5634
X1.5393 Y1.5628
X1.5334 Y1.5619
X1.5275 Y1.5608
X1.5216 Y1.5595
X1.5158 Y1.558
X1.5099 Y1.5563
X1.5039 Y1.5544
X1.4979 Y1.5522
X1.492 Y1.5499
X1.486 Y1.5473
X1.4801 Y1.5445
X1.4742 Y1.5415
X1.4685 Y1.5384
X1.4629 Y1.5351
X1.4575 Y1.5316
X1.4523 Y1.5281
X1.4472 Y1.5244
X1.4424 Y1.5206
X1.4378 Y1.5168
X1.4333 Y1.5128
X1.4289 Y1.5087
X1.4247 Y1.5044
X1.4207 Y1.5
X1.4168 Y1.4955
X1.4131 Y1.4907
X1.4096 Y1.4859
X1.4063 Y1.4808
X1.4033 Y1.4756
X1.4006 Y1.4703
X1.3983 Y1.4647
X1.3976 Y1.4627
X1.3951 Y1.4511
Y1.4393
X1.3976 Y1.4278
X1.4025 Y1.417
X1.4096 Y1.4076
X1.4134 Y1.4036
X1.414 Y1.4029
G3 X1.4306 Y1.4013 I0.0092 J0.0085
G1 X1.4408 Y1.4088
X1.5961 Y1.5235
X1.6048 Y1.5299
G3 X1.607 Y1.5478 I-0.0075 J0.01
G1 X1.6033 Y1.5522
X1.5994 Y1.5565
X1.5952 Y1.5608
X1.5902 Y1.5641
X1.5847 Y1.5666
X1.5791 Y1.5686
X1.5732 Y1.57
X1.5673 Y1.5711
X1.5614 Y1.5717
X1.5554 Y1.5721
X1.5494
X1.5434 Y1.5719
X1.5374 Y1.5714
X1.5314 Y1.5706
X1.5255 Y1.5697
X1.5196 Y1.5685
X1.5138 Y1.5671
X1.508 Y1.5656
X1.5021 Y1.5638
X1.4962 Y1.5618
X1.4902 Y1.5596
X1.4842 Y1.5571
X1.4783 Y1.5545
X1.4724 Y1.5516
X1.4666 Y1.5486
X1.461 Y1.5454
X1.4554 Y1.542
X1.45 Y1.5385
X1.4448 Y1.5348
X1.4398 Y1.5311
X1.435 Y1.5273
X1.4304 Y1.5234
X1.426 Y1.5194
X1.4217 Y1.5152
X1.4175 Y1.5109
X1.4135 Y1.5064
X1.4097 Y1.5018
X1.4061 Y1.497
X1.4026 Y1.4921
X1.3994 Y1.487
X1.3965 Y1.4818
X1.394 Y1.4763
X1.3917 Y1.4708
X1.39 Y1.465
X1.3896 Y1.4635
X1.3883 Y1.4523
X1.3892 Y1.4411
X1.3925 Y1.4303
X1.3979 Y1.4205
X1.4052 Y1.4119
X1.4076 Y1.4096
X1.4096 Y1.4076
G3 X1.4258 Y1.4068 I0.0086 J0.0091
G1 X1.4364 Y1.4149
X1.5888 Y1.5321
X1.5974 Y1.5387
G3 X1.5994 Y1.5566 I-0.0076 J0.0099
G1 X1.5981 Y1.5579
X1.5908 Y1.5654
X1.5896 Y1.5666
X1.5851 Y1.5706
X1.5799 Y1.5736
X1.5743 Y1.5758
X1.5686 Y1.5775
X1.5627 Y1.5787
X1.5568 Y1.5795
X1.5508 Y1.58
X1.5448 Y1.5801
X1.5388 Y1.5799
X1.5328 Y1.5795
X1.5268 Y1.5789
X1.5209 Y1.578
X1.515 Y1.5768
X1.5091 Y1.5755
X1.5033 Y1.574
X1.4976 Y1.5723
X1.4917 Y1.5703
X1.4858 Y1.5682
X1.4799 Y1.5658
X1.4739 Y1.5631
X1.468 Y1.5603
X1.4622 Y1.5573
X1.4565 Y1.5541
X1.4509 Y1.5507
X1.4454 Y1.5472
X1.4401 Y1.5436
X1.435 Y1.5398
X1.4302 Y1.536
X1.4255 Y1.5321
X1.4211 Y1.528
X1.4167 Y1.5239
X1.4125 Y1.5196
X1.4085 Y1.5152
X1.4046 Y1.5106
X1.4009 Y1.5059
X1.3975 Y1.501
X1.3942 Y1.4959
X1.3912 Y1.4907
X1.3885 Y1.4854
X1.3861 Y1.4799
X1.3842 Y1.4742
X1.3826 Y1.4684
X1.3823 Y1.4668
X1.3815 Y1.4555
X1.3831 Y1.4444
X1.3869 Y1.4338
X1.3928 Y1.4242
X1.4006 Y1.416
X1.4037 Y1.4134
X1.4052 Y1.4119
G3 X1.4214 Y1.4116 I0.0083 J0.0094
G1 X1.4317 Y1.42
X1.5803 Y1.5418
X1.5884 Y1.5484
G3 X1.5896 Y1.5666 I-0.008 J0.0097
G1 X1.5811 Y1.5751
X1.5766 Y1.5791
X1.5713 Y1.582
X1.5657 Y1.5841
X1.5599 Y1.5857
X1.5541 Y1.5868
X1.5481 Y1.5876
X1.5421 Y1.5879
X1.5361 Y1.588
X1.5301 Y1.5877
X1.5241 Y1.5872
X1.5182 Y1.5864
X1.5123 Y1.5854
X1.5064 Y1.5842
X1.5006 Y1.5828
X1.4948 Y1.5812
X1.489 Y1.5794
X1.4831 Y1.5773
X1.4772 Y1.5751
X1.4713 Y1.5726
X1.4654 Y1.5699
X1.4596 Y1.567
X1.4538 Y1.5639
X1.4481 Y1.5606
X1.4426 Y1.5571
X1.4372 Y1.5535
X1.432 Y1.5498
X1.4269 Y1.5459
X1.4221 Y1.542
X1.4175 Y1.538
X1.4131 Y1.5339
X1.4088 Y1.5297
X1.4047 Y1.5254
X1.4007 Y1.5209
X1.397 Y1.5162
X1.3934 Y1.5114
X1.39 Y1.5065
X1.3868 Y1.5014
X1.3839 Y1.4961
X1.3813 Y1.4907
X1.379 Y1.4852
X1.3771 Y1.4795
X1.3756 Y1.4736
X1.3754 Y1.4721
X1.3747 Y1.4609
X1.3763 Y1.4499
X1.3802 Y1.4394
X1.3861 Y1.4299
X1.3938 Y1.4219
X1.4006 Y1.416
G3 X1.4166 Y1.4163 I0.0078 J0.0098
G1 X1.4269 Y1.4252
X1.5719 Y1.5501
X1.5801 Y1.5571
G3 X1.5811 Y1.5751 I-0.0082 J0.0095
G1 X1.5734 Y1.5828
X1.569 Y1.5868
X1.5637 Y1.5898
X1.5581 Y1.5919
X1.5524 Y1.5935
X1.5465 Y1.5947
X1.5405 Y1.5954
X1.5345 Y1.5957
X1.5285
X1.5225 Y1.5954
X1.5166 Y1.5949
X1.5106 Y1.5941
X1.5047 Y1.593
X1.4988 Y1.5918
X1.493 Y1.5903
X1.4872 Y1.5886
X1.4815 Y1.5868
X1.4757 Y1.5847
X1.4698 Y1.5824
X1.464 Y1.5799
X1.4582 Y1.5772
X1.4524 Y1.5742
X1.4466 Y1.5711
X1.441 Y1.5677
X1.4354 Y1.5642
X1.43 Y1.5605
X1.4248 Y1.5567
X1.4198 Y1.5529
X1.4151 Y1.549
X1.4106 Y1.545
X1.4063 Y1.5409
X1.402 Y1.5366
X1.3979 Y1.5323
X1.394 Y1.5277
X1.3903 Y1.523
X1.3867 Y1.5182
X1.3833 Y1.5133
X1.3801 Y1.5082
X1.3772 Y1.5029
X1.3746 Y1.4975
X1.3723 Y1.492
X1.3704 Y1.4863
X1.3689 Y1.4805
X1.3679 Y1.4746
X1.3678 Y1.4742
X1.3679 Y1.4638
X1.3699 Y1.4536
X1.3738 Y1.444
X1.3795 Y1.4353
X1.3867 Y1.4279
X1.3938 Y1.4219
G3 X1.4097 Y1.4223 I0.0077 J0.0097
G1 X1.42 Y1.4312
X1.5643 Y1.5577
X1.5725 Y1.5649
G3 X1.5734 Y1.5828 I-0.0082 J0.0094
G1 X1.5649 Y1.5913
X1.5604 Y1.5954
X1.5551 Y1.5981
X1.5494 Y1.6001
X1.5436 Y1.6016
X1.5377 Y1.6026
X1.5317 Y1.6032
X1.5257 Y1.6035
X1.5197 Y1.6034
X1.5138 Y1.603
X1.5078 Y1.6023
X1.5019 Y1.6014
X1.496 Y1.6003
X1.4901 Y1.599
X1.4843 Y1.5974
X1.4786 Y1.5957
X1.4729 Y1.5937
X1.4671 Y1.5916
X1.4612 Y1.5892
X1.4554 Y1.5865
X1.4496 Y1.5837
X1.4438 Y1.5807
X1.4381 Y1.5774
X1.4325 Y1.574
X1.4271 Y1.5705
X1.4218 Y1.5667
X1.4167 Y1.5629
X1.4118 Y1.559
X1.4071 Y1.555
X1.4026 Y1.5509
X1.3983 Y1.5467
X1.3941 Y1.5424
X1.3901 Y1.538
X1.3862 Y1.5334
X1.3826 Y1.5286
X1.3791 Y1.5238
X1.3758 Y1.5188
X1.3727 Y1.5136
X1.3698 Y1.5083
X1.3673 Y1.5029
X1.3651 Y1.4973
X1.3631 Y1.4916
X1.3617 Y1.4858
X1.3607 Y1.4799
Y1.4796
X1.3608 Y1.4694
X1.3629 Y1.4593
X1.3668 Y1.4499
X1.3725 Y1.4413
X1.3796 Y1.4339
X1.3867 Y1.4279
G3 X1.4029 Y1.4284 I0.0078 J0.0098
G1 X1.4128 Y1.4373
X1.5559 Y1.5661
X1.5641 Y1.5735
G3 X1.5649 Y1.5913 I-0.0084 J0.0093
G1 X1.5577 Y1.5984
X1.5567 Y1.5992
X1.552 Y1.603
X1.5468 Y1.6058
X1.5411 Y1.6079
X1.5353 Y1.6093
X1.5294 Y1.6103
X1.5234 Y1.6109
X1.5174 Y1.611
X1.5114 Y1.6109
X1.5054 Y1.6105
X1.4995 Y1.6097
X1.4936 Y1.6088
X1.4877 Y1.6076
X1.4818 Y1.6062
X1.4761 Y1.6046
X1.4703 Y1.6028
X1.4646 Y1.6007
X1.4589 Y1.5985
X1.4531 Y1.596
X1.4473 Y1.5934
X1.4415 Y1.5905
X1.4358 Y1.5874
X1.4302 Y1.5841
X1.4246 Y1.5806
X1.4192 Y1.577
X1.414 Y1.5732
X1.4089 Y1.5693
X1.404 Y1.5653
X1.3994 Y1.5613
X1.395 Y1.5572
X1.3907 Y1.553
X1.3866 Y1.5486
X1.3827 Y1.5441
X1.3788 Y1.5395
X1.3752 Y1.5347
X1.3717 Y1.5298
X1.3685 Y1.5248
X1.3654 Y1.5196
X1.3626 Y1.5143
X1.3601 Y1.5088
X1.3579 Y1.5033
X1.356 Y1.4976
X1.3546 Y1.4917
X1.3536 Y1.4856
X1.3537 Y1.4754
X1.3558 Y1.4654
X1.3598 Y1.4559
X1.3654 Y1.4474
X1.3725 Y1.44
X1.3796 Y1.4339
G3 X1.3958 Y1.4344 I0.0078 J0.0098
G1 X1.4056 Y1.4434
X1.5489 Y1.5739
X1.5566 Y1.5809
G3 X1.5568 Y1.5993 I-0.0085 J0.0093
G1 X1.5511 Y1.6042
X1.5473 Y1.6075
X1.5426 Y1.6112
X1.5372 Y1.6138
X1.5316 Y1.6158
X1.5257 Y1.6171
X1.5198 Y1.618
X1.5138 Y1.6184
X1.5078 Y1.6185
X1.5018 Y1.6182
X1.4958 Y1.6177
X1.4899 Y1.6168
X1.484 Y1.6158
X1.4781 Y1.6145
X1.4723 Y1.613
X1.4666 Y1.6112
X1.4609 Y1.6093
X1.4552 Y1.6072
X1.4495 Y1.6049
X1.4438 Y1.6023
X1.438 Y1.5995
X1.4323 Y1.5965
X1.4266 Y1.5933
X1.421 Y1.5899
X1.4156 Y1.5864
X1.4103 Y1.5827
X1.4051 Y1.5788
X1.4001 Y1.5748
X1.3953 Y1.5708
X1.3907 Y1.5666
X1.3864 Y1.5624
X1.3822 Y1.5581
X1.3781 Y1.5537
X1.3742 Y1.5491
X1.3705 Y1.5444
X1.367 Y1.5396
X1.3636 Y1.5346
X1.3604 Y1.5295
X1.3575 Y1.5243
X1.3548 Y1.5189
X1.3523 Y1.5134
X1.3502 Y1.5078
X1.3484 Y1.5021
X1.3471 Y1.4962
X1.347 Y1.4954
X1.3465 Y1.4844
X1.3482 Y1.4736
X1.3521 Y1.4633
X1.3579 Y1.4539
X1.3655 Y1.446
X1.3725 Y1.44
G3 X1.3889 Y1.4407 I0.0078 J0.0098
G1 X1.3984 Y1.4496
X1.5397 Y1.5821
X1.5474 Y1.5892
G3 X1.5473 Y1.6075 I-0.0086 J0.0091
G1 X1.5378 Y1.6158
X1.533 Y1.6195
X1.5276 Y1.6219
X1.5218 Y1.6237
X1.5159 Y1.6248
X1.51 Y1.6255
X1.504 Y1.6258
X1.498
X1.492 Y1.6254
X1.486 Y1.6247
X1.4801 Y1.6238
X1.4742 Y1.6226
X1.4684 Y1.6212
X1.4626 Y1.6196
X1.4569 Y1.6177
X1.4513 Y1.6157
X1.4456 Y1.6135
X1.4399 Y1.6111
X1.4342 Y1.6084
X1.4285 Y1.6055
X1.4228 Y1.6024
X1.4172 Y1.5991
X1.4117 Y1.5956
X1.4063 Y1.5919
X1.4011 Y1.5881
X1.396 Y1.5841
X1.3911 Y1.5801
X1.3863 Y1.5759
X1.3818 Y1.5717
X1.3775 Y1.5674
X1.3734 Y1.563
X1.3695 Y1.5585
X1.3657 Y1.5538
X1.362 Y1.5491
X1.3585 Y1.5442
X1.3553 Y1.5391
X1.3522 Y1.534
X1.3494 Y1.5287
X1.3467 Y1.5233
X1.3444 Y1.5178
X1.3425 Y1.5121
X1.3409 Y1.5063
X1.3397 Y1.5004
X1.3396 Y1.4992
X1.3395 Y1.4887
X1.3415 Y1.4783
X1.3454 Y1.4685
X1.3511 Y1.4596
X1.3584 Y1.452
X1.3655 Y1.446
G3 X1.382 Y1.4468 I0.0078 J0.0097
G1 X1.3913 Y1.4557
X1.5303 Y1.5902
X1.5379 Y1.5976
G3 X1.5377 Y1.6157 I-0.0087 J0.009
G1 X1.53 Y1.6225
X1.5252 Y1.6262
X1.5199 Y1.6289
X1.5142 Y1.6307
X1.5083 Y1.632
X1.5023 Y1.6327
X1.4963 Y1.6331
X1.4903 Y1.633
X1.4844 Y1.6326
X1.4784 Y1.6319
X1.4725 Y1.631
X1.4666 Y1.6298
X1.4608 Y1.6283
X1.455 Y1.6267
X1.4493 Y1.6248
X1.4437 Y1.6228
X1.4381 Y1.6205
X1.4324 Y1.6181
X1.4268 Y1.6154
X1.4212 Y1.6125
X1.4156 Y1.6094
X1.41 Y1.6061
X1.4045 Y1.6025
X1.3991 Y1.5988
X1.3939 Y1.595
X1.3888 Y1.5909
X1.3838 Y1.5868
X1.3791 Y1.5826
X1.3746 Y1.5783
X1.3703 Y1.574
X1.3663 Y1.5696
X1.3623 Y1.5651
X1.3585 Y1.5604
X1.3549 Y1.5556
X1.3515 Y1.5507
X1.3482 Y1.5457
X1.3451 Y1.5405
X1.3423 Y1.5353
X1.3397 Y1.5298
X1.3374 Y1.5243
X1.3354 Y1.5186
X1.3339 Y1.5129
X1.3327 Y1.507
X1.3325 Y1.5058
X1.3324 Y1.4952
X1.3342 Y1.4847
X1.3381 Y1.4748
X1.3439 Y1.4658
X1.3513 Y1.4581
X1.3584 Y1.452
G3 X1.375 Y1.4528 I0.0078 J0.0098
G1 X1.3841 Y1.4619
X1.5226 Y1.597
X1.5302 Y1.6044
G3 X1.53 Y1.6226 I-0.0087 J0.009
G1 X1.5216 Y1.6298
X1.5169 Y1.6335
X1.5115 Y1.6361
X1.5058 Y1.638
X1.4999 Y1.6392
X1.4939 Y1.6399
X1.488 Y1.6402
X1.482 Y1.6401
X1.476 Y1.6397
X1.47 Y1.639
X1.4641 Y1.638
X1.4582 Y1.6367
X1.4524 Y1.6352
X1.4467 Y1.6335
X1.441 Y1.6316
X1.4354 Y1.6295
X1.4298 Y1.6272
X1.4242 Y1.6247
X1.4186 Y1.622
X1.413 Y1.619
X1.4074 Y1.6158
X1.4019 Y1.6124
X1.3964 Y1.6089
X1.3911 Y1.6051
X1.3859 Y1.6012
X1.3808 Y1.5971
X1.3759 Y1.593
X1.3712 Y1.5887
X1.3667 Y1.5843
X1.3624 Y1.5799
X1.3584 Y1.5755
X1.3545 Y1.5709
X1.3508 Y1.5662
X1.3472 Y1.5614
X1.3438 Y1.5565
X1.3406 Y1.5514
X1.3376 Y1.5462
X1.3348 Y1.5409
X1.3322 Y1.5355
X1.33 Y1.5299
X1.328 Y1.5242
X1.3265 Y1.5184
X1.3254 Y1.5125
X1.3252 Y1.511
Y1.4999
X1.3275 Y1.489
X1.3318 Y1.4789
X1.3382 Y1.4698
X1.3462 Y1.4622
X1.3498 Y1.4594
X1.3513 Y1.4581
G3 X1.3679 Y1.459 I0.0078 J0.0098
G1 X1.3769 Y1.468
X1.5142 Y1.6041
X1.5219 Y1.6117
G3 X1.5216 Y1.6298 I-0.0088 J0.0089
G1 X1.5175 Y1.6333
X1.5117 Y1.6379
X1.5068 Y1.6414
X1.5013 Y1.6438
X1.4955 Y1.6455
X1.4896 Y1.6466
X1.4836 Y1.6471
X1.4777 Y1.6473
X1.4717 Y1.647
X1.4657 Y1.6465
X1.4597 Y1.6456
X1.4539 Y1.6445
X1.448 Y1.6431
X1.4422 Y1.6415
X1.4365 Y1.6397
X1.4309 Y1.6376
X1.4253 Y1.6354
X1.4198 Y1.633
X1.4142 Y1.6304
X1.4086 Y1.6275
X1.4031 Y1.6245
X1.3975 Y1.6212
X1.392 Y1.6176
X1.3866 Y1.6139
X1.3813 Y1.6101
X1.3762 Y1.6061
X1.3712 Y1.6019
X1.3664 Y1.5976
X1.3618 Y1.5932
X1.3574 Y1.5888
X1.3532 Y1.5843
X1.3492 Y1.5798
X1.3454 Y1.5751
X1.3418 Y1.5704
X1.3383 Y1.5655
X1.335 Y1.5605
X1.3319 Y1.5553
X1.329 Y1.5501
X1.3263 Y1.5447
X1.324 Y1.5392
X1.3218 Y1.5336
X1.3201 Y1.5278
X1.3188 Y1.522
X1.3178 Y1.5161
X1.3177 Y1.5145
X1.3181 Y1.5034
X1.3207 Y1.4926
X1.3254 Y1.4826
X1.3321 Y1.4738
X1.3404 Y1.4665
X1.344 Y1.4639
X1.3462 Y1.4622
G3 X1.3625 Y1.4637 I0.0073 J0.0101
G1 X1.3716 Y1.4731
X1.5052 Y1.6122
X1.5126 Y1.6198
G3 X1.5117 Y1.638 I-0.0091 J0.0087
G1 X1.5014 Y1.6459
X1.4965 Y1.6493
X1.4909 Y1.6515
X1.4851 Y1.6529
X1.4791 Y1.6538
X1.4731 Y1.6542
X1.4671 Y1.6541
X1.4611 Y1.6537
X1.4552 Y1.653
X1.4493 Y1.652
X1.4434 Y1.6508
X1.4376 Y1.6493
X1.4318 Y1.6476
X1.4262 Y1.6456
X1.4206 Y1.6435
X1.415 Y1.6412
X1.4096 Y1.6386
X1.404 Y1.6359
X1.3985 Y1.6329
X1.3929 Y1.6297
X1.3874 Y1.6262
X1.382 Y1.6226
X1.3767 Y1.6188
X1.3714 Y1.6148
X1.3664 Y1.6107
X1.3615 Y1.6064
X1.3567 Y1.602
X1.3522 Y1.5976
X1.3479 Y1.593
X1.3438 Y1.5885
X1.34 Y1.5839
X1.3363 Y1.5792
X1.3327 Y1.5743
X1.3293 Y1.5694
X1.3262 Y1.5643
X1.3232 Y1.5591
X1.3204 Y1.5538
X1.3179 Y1.5483
X1.3156 Y1.5427
X1.3137 Y1.5371
X1.3121 Y1.5313
X1.3109 Y1.5254
X1.3102 Y1.5195
X1.3101 Y1.5181
X1.3108 Y1.5074
X1.3135 Y1.4971
X1.3183 Y1.4874
X1.3248 Y1.4789
X1.3329 Y1.4718
X1.3404 Y1.4665
G3 X1.3565 Y1.4685 I0.0069 J0.0104
G1 X1.3655 Y1.4782
X1.4954 Y1.6199
X1.5026 Y1.6278
G3 X1.5013 Y1.6458 I-0.0092 J0.0084
G1 X1.4926 Y1.6526
X1.4876 Y1.6559
X1.4821 Y1.6582
X1.4763 Y1.6597
X1.4703 Y1.6606
X1.4643 Y1.661
X1.4583 Y1.6609
X1.4524 Y1.6605
X1.4464 Y1.6597
X1.4405 Y1.6587
X1.4346 Y1.6574
X1.4289 Y1.6558
X1.4231 Y1.654
X1.4175 Y1.652
X1.4119 Y1.6498
X1.4064 Y1.6475
X1.4009 Y1.6449
X1.3954 Y1.6421
X1.3899 Y1.639
X1.3844 Y1.6358
X1.379 Y1.6323
X1.3736 Y1.6287
X1.3683 Y1.6248
X1.3631 Y1.6208
X1.3581 Y1.6166
X1.3532 Y1.6122
X1.3485 Y1.6078
X1.344 Y1.6033
X1.3398 Y1.5987
X1.3358 Y1.5942
X1.332 Y1.5896
X1.3283 Y1.5848
X1.3248 Y1.5799
X1.3215 Y1.5749
X1.3184 Y1.5698
X1.3154 Y1.5646
X1.3127 Y1.5593
X1.3102 Y1.5538
X1.308 Y1.5482
X1.3061 Y1.5425
X1.3045 Y1.5367
X1.3034 Y1.5309
X1.3026 Y1.5249
Y1.5234
X1.3033 Y1.5122
X1.3062 Y1.5015
X1.3113 Y1.4915
X1.3184 Y1.4828
X1.327 Y1.4757
X1.3329 Y1.4718
G3 X1.3491 Y1.4739 I0.0069 J0.0105
G1 X1.3579 Y1.4836
X1.4869 Y1.6266
X1.494 Y1.6345
G3 X1.4926 Y1.6526 I-0.0093 J0.0084
G1 X1.4838 Y1.6592
X1.4788 Y1.6626
X1.4733 Y1.6649
X1.4675 Y1.6664
X1.4615 Y1.6673
X1.4556 Y1.6676
X1.4496
X1.4436 Y1.6671
X1.4376 Y1.6663
X1.4317 Y1.6652
X1.4259 Y1.6639
X1.4201 Y1.6622
X1.4144 Y1.6604
X1.4087 Y1.6584
X1.4032 Y1.6561
X1.3977 Y1.6537
X1.3923 Y1.6511
X1.3868 Y1.6482
X1.3814 Y1.6451
X1.3759 Y1.6418
X1.3705 Y1.6383
X1.3652 Y1.6346
X1.3599 Y1.6307
X1.3548 Y1.6266
X1.3498 Y1.6224
X1.345 Y1.618
X1.3403 Y1.6136
X1.3359 Y1.609
X1.3317 Y1.6045
X1.3278 Y1.5999
X1.324 Y1.5952
X1.3204 Y1.5904
X1.3169 Y1.5855
X1.3137 Y1.5805
X1.3106 Y1.5753
X1.3077 Y1.5701
X1.305 Y1.5647
X1.3025 Y1.5592
X1.3004 Y1.5537
X1.2985 Y1.548
X1.2969 Y1.5422
X1.2958 Y1.5363
X1.295 Y1.5303
X1.2948 Y1.5243
Y1.5238
X1.2963 Y1.5133
X1.2998 Y1.5032
X1.3052 Y1.494
X1.3123 Y1.486
X1.3208 Y1.4796
X1.327 Y1.4757
G3 X1.3429 Y1.4782 I0.0065 J0.0107
G1 X1.3518 Y1.4883
X1.4782 Y1.6331
X1.4853 Y1.6413
G3 X1.4838 Y1.6592 I-0.0094 J0.0082
G1 X1.4801 Y1.662
X1.477 Y1.6643
X1.4743 Y1.6662
X1.4692 Y1.6695
X1.4637 Y1.6717
X1.4579 Y1.6731
X1.4519 Y1.6739
X1.4459 Y1.6742
X1.4399 Y1.674
X1.4339 Y1.6735
X1.428 Y1.6726
X1.4221 Y1.6715
X1.4163 Y1.67
X1.4105 Y1.6683
X1.4048 Y1.6664
X1.3992 Y1.6643
X1.3937 Y1.662
X1.3882 Y1.6595
X1.3829 Y1.6568
X1.3775 Y1.6539
X1.372 Y1.6507
X1.3666 Y1.6473
X1.3612 Y1.6437
X1.356 Y1.6399
X1.3508 Y1.636
X1.3457 Y1.6318
X1.3408 Y1.6275
X1.336 Y1.6231
X1.3315 Y1.6186
X1.3271 Y1.614
X1.323 Y1.6094
X1.3191 Y1.6047
X1.3154 Y1.6
X1.3118 Y1.5951
X1.3084 Y1.5902
X1.3052 Y1.5851
X1.3022 Y1.5799
X1.2994 Y1.5746
X1.2968 Y1.5692
X1.2944 Y1.5637
X1.2923 Y1.5581
X1.2905 Y1.5524
X1.289 Y1.5466
X1.2879 Y1.5407
X1.2872 Y1.5347
X1.287 Y1.5287
Y1.528
X1.2886 Y1.5176
X1.2921 Y1.5076
X1.2975 Y1.4986
X1.3045 Y1.4907
X1.313 Y1.4844
X1.3208 Y1.4796
G3 X1.3365 Y1.4824 I0.0062 J0.0108
G1 X1.3453 Y1.4928
X1.4693 Y1.64
X1.4762 Y1.6483
G3 X1.4742 Y1.6662 I-0.0095 J0.008
G1 X1.464 Y1.6736
X1.4589 Y1.6768
X1.4532 Y1.6787
X1.4473 Y1.68
X1.4414 Y1.6806
X1.4354 Y1.6807
X1.4294 Y1.6804
X1.4234 Y1.6797
X1.4175 Y1.6787
X1.4116 Y1.6774
X1.4059 Y1.6759
X1.4001 Y1.6741
X1.3945 Y1.672
X1.3889 Y1.6698
X1.3834 Y1.6674
X1.378 Y1.6648
X1.3727 Y1.662
X1.3673 Y1.659
X1.3619 Y1.6557
X1.3566 Y1.6522
X1.3512 Y1.6485
X1.346 Y1.6446
X1.3409 Y1.6406
X1.3359 Y1.6363
X1.3311 Y1.632
X1.3264 Y1.6275
X1.3219 Y1.6229
X1.3177 Y1.6182
X1.3136 Y1.6135
X1.3098 Y1.6088
X1.3062 Y1.604
X1.3027 Y1.5991
X1.2994 Y1.594
X1.2963 Y1.5889
X1.2934 Y1.5837
X1.2907 Y1.5783
X1.2882 Y1.5729
X1.2859 Y1.5673
X1.2839 Y1.5617
X1.2822 Y1.5559
X1.2808 Y1.5501
X1.2798 Y1.5442
X1.2792 Y1.5382
X1.2791 Y1.5322
Y1.5317
X1.2809 Y1.5216
X1.2845 Y1.5119
X1.2898 Y1.5031
X1.2968 Y1.4954
X1.305 Y1.4892
X1.313 Y1.4844
G3 X1.3287 Y1.4874 I0.0061 J0.0108
G1 X1.3373 Y1.4977
X1.4591 Y1.6473
X1.4661 Y1.6558
G3 X1.464 Y1.6736 I-0.0097 J0.0079
G1 X1.4597 Y1.6766
X1.4539 Y1.6804
X1.4487 Y1.6834
X1.443 Y1.6853
X1.4371 Y1.6864
X1.4311 Y1.6869
X1.4251
X1.4191 Y1.6865
X1.4132 Y1.6858
X1.4073 Y1.6847
X1.4015 Y1.6833
X1.3957 Y1.6816
X1.39 Y1.6797
X1.3844 Y1.6776
X1.3788 Y1.6753
X1.3734 Y1.6728
X1.368 Y1.6701
X1.3627 Y1.6672
X1.3574 Y1.6641
X1.3521 Y1.6608
X1.3467 Y1.6572
X1.3415 Y1.6534
X1.3363 Y1.6494
X1.3313 Y1.6453
X1.3264 Y1.641
X1.3216 Y1.6365
X1.317 Y1.632
X1.3126 Y1.6273
X1.3084 Y1.6226
X1.3044 Y1.6178
X1.3007 Y1.613
X1.2972 Y1.6082
X1.2938 Y1.6032
X1.2906 Y1.5981
X1.2876 Y1.593
X1.2847 Y1.5877
X1.2821 Y1.5823
X1.2797 Y1.5768
X1.2775 Y1.5712
X1.2756 Y1.5655
X1.2739 Y1.5597
X1.2726 Y1.5539
X1.2717 Y1.548
X1.2712 Y1.542
Y1.5358
X1.2738 Y1.5234
X1.2792 Y1.5119
X1.2871 Y1.5019
X1.297 Y1.4941
X1.305 Y1.4892
G3 X1.321 Y1.4923 I0.0062 J0.0109
G1 X1.3292 Y1.5027
X1.4499 Y1.6541
X1.4565 Y1.6624
G3 X1.4539 Y1.6804 I-0.0098 J0.0078
G1 X1.4442 Y1.6867
X1.439 Y1.6897
X1.4333 Y1.6916
X1.4274 Y1.6927
X1.4215 Y1.6931
X1.4155
X1.4095 Y1.6926
X1.4035 Y1.6918
X1.3977 Y1.6906
X1.3918 Y1.6892
X1.3861 Y1.6874
X1.3804 Y1.6855
X1.3748 Y1.6833
X1.3693 Y1.6809
X1.3639 Y1.6784
X1.3586 Y1.6756
X1.3533 Y1.6727
X1.348 Y1.6695
X1.3427 Y1.6661
X1.3375 Y1.6624
X1.3323 Y1.6586
X1.3272 Y1.6546
X1.3222 Y1.6504
X1.3173 Y1.646
X1.3126 Y1.6415
X1.3081 Y1.6369
X1.3037 Y1.6321
X1.2996 Y1.6274
X1.2957 Y1.6226
X1.292 Y1.6178
X1.2886 Y1.6129
X1.2853 Y1.6079
X1.2821 Y1.6028
X1.2791 Y1.5976
X1.2764 Y1.5922
X1.2738 Y1.5868
X1.2714 Y1.5813
X1.2693 Y1.5757
X1.2674 Y1.57
X1.2658 Y1.5642
X1.2646 Y1.5583
X1.2636 Y1.5524
X1.2633 Y1.5464
Y1.5452
X1.2644 Y1.5342
X1.2678 Y1.5236
X1.2732 Y1.5139
X1.2805 Y1.5056
X1.2893 Y1.4988
X1.297 Y1.4941
G3 X1.3131 Y1.4973 I0.0062 J0.0109
G1 X1.3211 Y1.5077
X1.4403 Y1.6604
X1.4469 Y1.6688
G3 X1.4443 Y1.6867 I-0.0099 J0.0077
G1 X1.4365 Y1.6917
X1.4336 Y1.6935
X1.4283 Y1.6964
X1.4225 Y1.6981
X1.4166 Y1.699
X1.4106 Y1.6993
X1.4046 Y1.6991
X1.3986 Y1.6984
X1.3927 Y1.6975
X1.3869 Y1.6962
X1.3811 Y1.6946
X1.3754 Y1.6928
X1.3697 Y1.6907
X1.3642 Y1.6884
X1.3587 Y1.686
X1.3533 Y1.6833
X1.3481 Y1.6804
X1.3429 Y1.6774
X1.3376 Y1.6741
X1.3324 Y1.6706
X1.3272 Y1.6669
X1.3221 Y1.6629
X1.317 Y1.6588
X1.3121 Y1.6545
X1.3073 Y1.65
X1.3027 Y1.6454
X1.2983 Y1.6408
X1.294 Y1.636
X1.29 Y1.6311
X1.2861 Y1.6262
X1.2825 Y1.6213
X1.2791 Y1.6163
X1.2759 Y1.6113
X1.2729 Y1.6061
X1.27 Y1.6009
X1.2673 Y1.5955
X1.2648 Y1.59
X1.2626 Y1.5845
X1.2605 Y1.5788
X1.2588 Y1.5731
X1.2573 Y1.5673
X1.2562 Y1.5614
X1.2556 Y1.5554
X1.2553 Y1.5494
Y1.5479
X1.2568 Y1.5374
X1.2603 Y1.5273
X1.2657 Y1.5181
X1.2728 Y1.5102
X1.2813 Y1.5037
X1.2893 Y1.4988
G3 X1.3054 Y1.5022 I0.0061 J0.0109
G1 X1.3132 Y1.5125
X1.4302 Y1.6672
X1.4366 Y1.6756
G3 X1.4335 Y1.6935 I-0.01 J0.0075
G1 X1.4307 Y1.6953
X1.4225 Y1.7001
X1.4172 Y1.7029
X1.4114 Y1.7043
X1.4054 Y1.705
X1.3995 Y1.7052
X1.3935 Y1.7048
X1.3875 Y1.7041
X1.3816 Y1.7029
X1.3758 Y1.7015
X1.37 Y1.6998
X1.3643 Y1.6979
X1.3588 Y1.6957
X1.3533 Y1.6933
X1.3478 Y1.6907
X1.3425 Y1.6879
X1.3373 Y1.685
X1.3321 Y1.6818
X1.3269 Y1.6784
X1.3218 Y1.6748
X1.3166 Y1.671
X1.3116 Y1.6669
X1.3066 Y1.6627
X1.3018 Y1.6583
X1.2971 Y1.6537
X1.2925 Y1.649
X1.2882 Y1.6443
X1.284 Y1.6394
X1.2801 Y1.6344
X1.2763 Y1.6294
X1.2728 Y1.6244
X1.2695 Y1.6194
X1.2664 Y1.6143
X1.2634 Y1.6091
X1.2607 Y1.6038
X1.2581 Y1.5983
X1.2557 Y1.5928
X1.2536 Y1.5872
X1.2517 Y1.5815
X1.2501 Y1.5757
X1.2488 Y1.5699
X1.2479 Y1.564
X1.2474 Y1.558
X1.2473 Y1.552
X1.2474 Y1.5508
X1.2492 Y1.5404
X1.253 Y1.5305
X1.2587 Y1.5216
X1.266 Y1.5139
X1.2746 Y1.5078
X1.2813 Y1.5037
G3 X1.2976 Y1.5072 I0.0062 J0.0109
G1 X1.3051 Y1.5175
X1.4197 Y1.6737
X1.4259 Y1.6821
G3 X1.4225 Y1.7001 I-0.0101 J0.0074
G1 X1.4134 Y1.7054
X1.4081 Y1.7082
X1.4023 Y1.7099
X1.3964 Y1.7107
X1.3904 Y1.7109
X1.3844 Y1.7105
X1.3784 Y1.7098
X1.3725 Y1.7087
X1.3667 Y1.7073
X1.3609 Y1.7055
X1.3553 Y1.7036
X1.3497 Y1.7014
X1.3442 Y1.6989
X1.3388 Y1.6963
X1.3335 Y1.6935
X1.3283 Y1.6905
X1.3232 Y1.6873
X1.3181 Y1.6839
X1.313 Y1.6802
X1.3079 Y1.6764
X1.3029 Y1.6723
X1.298 Y1.6681
X1.2932 Y1.6636
X1.2885 Y1.659
X1.284 Y1.6543
X1.2796 Y1.6494
X1.2755 Y1.6445
X1.2715 Y1.6395
X1.2678 Y1.6345
X1.2644 Y1.6295
X1.2611 Y1.6244
X1.2581 Y1.6193
X1.2551 Y1.614
X1.2524 Y1.6087
X1.2499 Y1.6033
X1.2475 Y1.5977
X1.2454 Y1.5921
X1.2436 Y1.5864
X1.242 Y1.5806
X1.2407 Y1.5748
X1.2398 Y1.5688
X1.2393 Y1.5629
X1.2392 Y1.5569
Y1.5559
X1.2411 Y1.5451
X1.2451 Y1.5349
X1.251 Y1.5257
X1.2586 Y1.5179
X1.2677 Y1.5117
X1.2735 Y1.5085
X1.2746 Y1.5078
G3 X1.2906 Y1.5116 I0.0058 J0.0111
G1 X1.2982 Y1.5222
X1.4107 Y1.679
X1.4169 Y1.6876
G3 X1.4134 Y1.7055 I-0.0102 J0.0073
G1 X1.403 Y1.7115
X1.3977 Y1.7142
X1.3919 Y1.7157
X1.3859 Y1.7164
X1.3799 Y1.7165
X1.3739 Y1.7161
X1.368 Y1.7152
X1.3621 Y1.714
X1.3563 Y1.7125
X1.3506 Y1.7107
X1.3449 Y1.7087
X1.3394 Y1.7064
X1.334 Y1.7038
X1.3286 Y1.7011
X1.3233 Y1.6982
X1.3182 Y1.6952
X1.3131 Y1.6919
X1.308 Y1.6884
X1.303 Y1.6847
X1.2979 Y1.6807
X1.293 Y1.6766
X1.2881 Y1.6722
X1.2833 Y1.6677
X1.2787 Y1.663
X1.2743 Y1.6582
X1.27 Y1.6534
X1.266 Y1.6484
X1.2621 Y1.6433
X1.2585 Y1.6382
X1.2551 Y1.6331
X1.2519 Y1.6281
X1.2489 Y1.6229
X1.2461 Y1.6176
X1.2434 Y1.6122
X1.241 Y1.6067
X1.2387 Y1.6012
X1.2367 Y1.5955
X1.2349 Y1.5898
X1.2334 Y1.584
X1.2323 Y1.5781
X1.2314 Y1.5721
X1.2311 Y1.5661
Y1.5601
X1.2312 Y1.5589
X1.2332 Y1.5485
X1.2373 Y1.5386
X1.2432 Y1.5297
X1.2507 Y1.5221
X1.2595 Y1.5161
X1.2677 Y1.5117
G3 X1.2835 Y1.5158 I0.0055 J0.0112
G1 X1.291 Y1.5266
X1.4005 Y1.685
X1.4066 Y1.6938
G3 X1.403 Y1.7115 I-0.0103 J0.0071
G1 X1.3985 Y1.7141
X1.3929 Y1.7171
X1.3875 Y1.7197
X1.3817 Y1.7213
X1.3757 Y1.7219
X1.3697
X1.3637 Y1.7215
X1.3578 Y1.7206
X1.3519 Y1.7193
X1.3461 Y1.7177
X1.3404 Y1.7158
X1.3348 Y1.7137
X1.3293 Y1.7113
X1.3239 Y1.7088
X1.3186 Y1.706
X1.3134 Y1.703
X1.3083 Y1.6999
X1.3032 Y1.6966
X1.2982 Y1.693
X1.2931 Y1.6892
X1.2882 Y1.6852
X1.2833 Y1.681
X1.2785 Y1.6766
X1.2738 Y1.672
X1.2692 Y1.6673
X1.2648 Y1.6624
X1.2606 Y1.6575
X1.2566 Y1.6524
X1.2528 Y1.6473
X1.2493 Y1.6422
X1.246 Y1.6371
X1.2429 Y1.632
X1.2399 Y1.6267
X1.2372 Y1.6214
X1.2346 Y1.616
X1.2322 Y1.6105
X1.23 Y1.6049
X1.2281 Y1.5992
X1.2264 Y1.5934
X1.225 Y1.5876
X1.2239 Y1.5817
X1.2231 Y1.5758
X1.2228 Y1.5698
X1.2229 Y1.5638
X1.2231 Y1.5623
X1.2255 Y1.551
X1.2303 Y1.5405
X1.2372 Y1.5312
X1.2459 Y1.5236
X1.2559 Y1.5179
G3 X1.2706 Y1.5223 I0.0045 J0.0117
G1 X1.279 Y1.5341
X1.3907 Y1.6908
X1.3967 Y1.6991
G3 X1.3929 Y1.7172 I-0.0102 J0.0073
G1 X1.3845 Y1.7217
X1.3827 Y1.7227
X1.3773 Y1.7252
X1.3715 Y1.7267
X1.3655 Y1.7273
X1.3595
X1.3536 Y1.7267
X1.3476 Y1.7258
X1.3418 Y1.7245
X1.336 Y1.7228
X1.3303 Y1.7209
X1.3247 Y1.7187
X1.3193 Y1.7162
X1.3139 Y1.7136
X1.3086 Y1.7107
X1.3034 Y1.7077
X1.2983 Y1.7045
X1.2934 Y1.7011
X1.2884 Y1.6975
X1.2834 Y1.6937
X1.2785 Y1.6896
X1.2736 Y1.6853
X1.2689 Y1.6809
X1.2642 Y1.6763
X1.2598 Y1.6715
X1.2554 Y1.6666
X1.2513 Y1.6615
X1.2474 Y1.6565
X1.2436 Y1.6513
X1.2401 Y1.6462
X1.2369 Y1.6411
X1.2338 Y1.6359
X1.231 Y1.6306
X1.2283 Y1.6253
X1.2258 Y1.6198
X1.2234 Y1.6143
X1.2213 Y1.6087
X1.2195 Y1.603
X1.2178 Y1.5972
X1.2165 Y1.5913
X1.2155 Y1.5854
X1.2148 Y1.5795
X1.2146 Y1.5735
X1.2147 Y1.5675
X1.2154 Y1.5615
X1.2155 Y1.5611
X1.2185 Y1.5508
X1.2236 Y1.5414
X1.2304 Y1.5331
X1.2386 Y1.5263
X1.2481 Y1.5213
X1.2559 Y1.5179
G3 X1.271 Y1.5229 I0.0045 J0.0117
G1 X1.2784 Y1.5345
X1.3813 Y1.6961
X1.387 Y1.7051
G3 X1.3827 Y1.7226 I-0.0105 J0.0067
G1 X1.3787 Y1.7248
X1.3712 Y1.7286
X1.3657 Y1.731
X1.3598 Y1.7322
X1.3538 Y1.7326
X1.3478 Y1.7324
X1.3419 Y1.7317
X1.336 Y1.7306
X1.3302 Y1.7291
X1.3244 Y1.7273
X1.3188 Y1.7252
X1.3133 Y1.7229
X1.3078 Y1.7204
X1.3025 Y1.7176
X1.2973 Y1.7147
X1.2922 Y1.7115
X1.2872 Y1.7082
X1.2822 Y1.7047
X1.2773 Y1.701
X1.2724 Y1.697
X1.2675 Y1.6929
X1.2628 Y1.6885
X1.2581 Y1.6839
X1.2535 Y1.6792
X1.2492 Y1.6743
X1.2449 Y1.6693
X1.2409 Y1.6643
X1.2371 Y1.6591
X1.2335 Y1.6539
X1.2301 Y1.6487
X1.227 Y1.6435
X1.224 Y1.6383
X1.2212 Y1.6329
X1.2187 Y1.6275
X1.2162 Y1.622
X1.2141 Y1.6164
X1.2121 Y1.6108
X1.2104 Y1.605
X1.2089 Y1.5992
X1.2077 Y1.5933
X1.2068 Y1.5874
X1.2063 Y1.5814
X1.2061 Y1.5754
X1.2064 Y1.5694
X1.2072 Y1.5635
X1.2073 Y1.5631
X1.2105 Y1.5532
X1.2156 Y1.5441
X1.2223 Y1.5362
X1.2304 Y1.5297
X1.2396 Y1.5248
X1.2481 Y1.5213
G3 X1.263 Y1.5265 I0.0043 J0.0117
G1 X1.2702 Y1.5381
X1.3702 Y1.702
X1.3758 Y1.7111
G3 X1.3712 Y1.7286 I-0.0106 J0.0066
G1 X1.3614 Y1.7336
X1.3558 Y1.7359
X1.35 Y1.7372
X1.344 Y1.7376
X1.338 Y1.7374
X1.332 Y1.7367
X1.3261 Y1.7356
X1.3203 Y1.7341
X1.3146 Y1.7322
X1.309 Y1.7301
X1.3035 Y1.7278
X1.2981 Y1.7252
X1.2928 Y1.7224
X1.2876 Y1.7194
X1.2825 Y1.7162
X1.2775 Y1.7128
X1.2726 Y1.7093
X1.2677 Y1.7055
X1.2629 Y1.7015
X1.2581 Y1.6973
X1.2534 Y1.6929
X1.2488 Y1.6884
X1.2443 Y1.6836
X1.24 Y1.6787
X1.2358 Y1.6737
X1.2318 Y1.6685
X1.228 Y1.6633
X1.2244 Y1.6581
X1.2211 Y1.6528
X1.218 Y1.6476
X1.2152 Y1.6424
X1.2124 Y1.637
X1.2099 Y1.6316
X1.2076 Y1.6261
X1.2054 Y1.6205
X1.2035 Y1.6148
X1.2018 Y1.609
X1.2003 Y1.6032
X1.1992 Y1.5973
X1.1983 Y1.5914
X1.1978 Y1.5854
X1.1976 Y1.5794
X1.1979 Y1.5734
X1.1986 Y1.5675
X1.1987 Y1.5671
X1.2019 Y1.5571
X1.207 Y1.5479
X1.2137 Y1.5398
X1.2218 Y1.5332
X1.2311 Y1.5283
X1.2396 Y1.5248
G3 X1.2547 Y1.53 I0.0044 J0.0117
G1 X1.2616 Y1.5417
X1.3605 Y1.7069
X1.3661 Y1.7162
G3 X1.3614 Y1.7336 I-0.0108 J0.0064
G1 X1.3498 Y1.7391
X1.3443 Y1.7414
X1.3384 Y1.7424
X1.3324 Y1.7426
X1.3264 Y1.7422
X1.3204 Y1.7414
X1.3146 Y1.7401
X1.3088 Y1.7384
X1.3031 Y1.7365
X1.2976 Y1.7342
X1.2921 Y1.7318
X1.2867 Y1.7291
X1.2815 Y1.7262
X1.2763 Y1.7231
X1.2713 Y1.7198
X1.2664 Y1.7163
X1.2616 Y1.7127
X1.2568 Y1.7089
X1.252 Y1.7048
X1.2473 Y1.7004
X1.2426 Y1.6959
X1.2381 Y1.6912
X1.2337 Y1.6864
X1.2294 Y1.6814
X1.2254 Y1.6763
X1.2215 Y1.6711
X1.2178 Y1.6659
X1.2144 Y1.6606
X1.2112 Y1.6553
X1.2082 Y1.65
X1.2054 Y1.6447
X1.2028 Y1.6393
X1.2003 Y1.6338
X1.1981 Y1.6282
X1.1961 Y1.6226
X1.1942 Y1.6169
X1.1927 Y1.6111
X1.1913 Y1.6052
X1.1903 Y1.5993
X1.1895 Y1.5934
X1.1891 Y1.5874
X1.189 Y1.5814
X1.1895 Y1.5754
X1.1904 Y1.5693
X1.1937 Y1.5596
X1.1988 Y1.5508
X1.2055 Y1.543
X1.2135 Y1.5366
X1.2225 Y1.5319
X1.2311 Y1.5283
G3 X1.2463 Y1.5337 I0.0044 J0.0117
G1 X1.253 Y1.5453
X1.3495 Y1.7125
X1.3548 Y1.7218
G3 X1.3498 Y1.739 I-0.0108 J0.0062
G1 X1.3417 Y1.743
X1.3382 Y1.7445
X1.3326 Y1.7466
X1.3267 Y1.7474
X1.3207
X1.3147 Y1.7469
X1.3088 Y1.7458
X1.303 Y1.7444
X1.2972 Y1.7426
X1.2916 Y1.7405
X1.2861 Y1.7382
X1.2807 Y1.7356
X1.2754 Y1.7328
X1.2702 Y1.7298
X1.2651 Y1.7266
X1.2601 Y1.7232
X1.2553 Y1.7197
X1.2505 Y1.7159
X1.2458 Y1.712
X1.241 Y1.7078
X1.2364 Y1.7034
X1.2318 Y1.6987
X1.2274 Y1.694
X1.2231 Y1.689
X1.2189 Y1.684
X1.215 Y1.6788
X1.2112 Y1.6736
X1.2076 Y1.6682
X1.2043 Y1.6629
X1.2011 Y1.6575
X1.1983 Y1.6522
X1.1956 Y1.6468
X1.1931 Y1.6414
X1.1907 Y1.6359
X1.1886 Y1.6303
X1.1867 Y1.6246
X1.185 Y1.6188
X1.1835 Y1.613
X1.1823 Y1.6071
X1.1813 Y1.6012
X1.1807 Y1.5952
X1.1804 Y1.5892
X1.1805 Y1.5832
X1.1811 Y1.5773
X1.1812 Y1.5766
X1.1841 Y1.566
X1.1891 Y1.5562
X1.1959 Y1.5476
X1.2044 Y1.5406
X1.2141 Y1.5353
X1.2225 Y1.5319
G3 X1.2378 Y1.5375 I0.0044 J0.0117
G1 X1.2442 Y1.549
X1.3386 Y1.7179
X1.3437 Y1.7271
G3 X1.3382 Y1.7445 I-0.0109 J0.0061
G1 X1.3286 Y1.7487
X1.323 Y1.7509
X1.317 Y1.7519
X1.3111 Y1.752
X1.3051 Y1.7515
X1.2992 Y1.7505
X1.2933 Y1.7491
X1.2876 Y1.7473
X1.282 Y1.7452
X1.2765 Y1.7428
X1.2711 Y1.7402
X1.2658 Y1.7374
X1.2606 Y1.7343
X1.2555 Y1.7311
X1.2506 Y1.7277
X1.2458 Y1.7241
X1.2411 Y1.7204
X1.2363 Y1.7164
X1.2317 Y1.7122
X1.2271 Y1.7078
X1.2226 Y1.7032
X1.2183 Y1.6984
X1.214 Y1.6935
X1.2099 Y1.6883
X1.2059 Y1.6831
X1.2022 Y1.6778
X1.1986 Y1.6724
X1.1953 Y1.6671
X1.1922 Y1.6617
X1.1894 Y1.6564
X1.1868 Y1.651
X1.1843 Y1.6455
X1.182 Y1.64
X1.1799 Y1.6344
X1.178 Y1.6287
X1.1763 Y1.6229
X1.1748 Y1.6171
X1.1736 Y1.6112
X1.1727 Y1.6053
X1.1721 Y1.5993
X1.1718 Y1.5933
X1.1719 Y1.5873
X1.1724 Y1.5814
X1.1727 Y1.5798
X1.1757 Y1.5693
X1.1807 Y1.5596
X1.1875 Y1.551
X1.1959 Y1.544
X1.2055 Y1.5389
X1.2141 Y1.5353
G3 X1.2294 Y1.5411 I0.0043 J0.0117
G1 X1.2357 Y1.5525
X1.329 Y1.7222
X1.3341 Y1.7315
G3 X1.3286 Y1.7488 I-0.011 J0.006
G1 X1.3209 Y1.7521
X1.3178 Y1.7534
X1.3122 Y1.7555
X1.3062 Y1.7564
X1.3002 Y1.7565
X1.2943 Y1.7559
X1.2884 Y1.7548
X1.2826 Y1.7533
X1.2769 Y1.7515
X1.2713 Y1.7493
X1.2658 Y1.7469
X1.2604 Y1.7442
X1.2552 Y1.7413
X1.25 Y1.7382
X1.245 Y1.7349
X1.2401 Y1.7314
X1.2354 Y1.7278
X1.2307 Y1.724
X1.2261 Y1.7199
X1.2214 Y1.7156
X1.2169 Y1.7111
X1.2124 Y1.7065
X1.2081 Y1.7016
X1.2039 Y1.6966
X1.1999 Y1.6915
X1.196 Y1.6862
X1.1924 Y1.6809
X1.1889 Y1.6755
X1.1857 Y1.67
X1.1826 Y1.6646
X1.1798 Y1.6592
X1.1773 Y1.6537
X1.1749 Y1.6482
X1.1726 Y1.6427
X1.1706 Y1.637
X1.1688 Y1.6313
X1.1672 Y1.6255
X1.1658 Y1.6197
X1.1647 Y1.6138
X1.1638 Y1.6078
X1.1633 Y1.6019
X1.1631 Y1.5959
X1.1633 Y1.5899
X1.164 Y1.5839
X1.1643 Y1.5824
X1.1673 Y1.5721
X1.1724 Y1.5625
X1.1793 Y1.5542
X1.1876 Y1.5474
X1.1971 Y1.5423
X1.2055 Y1.5389
G3 X1.2209 Y1.5447 I0.0044 J0.0117
G1 X1.227 Y1.5561
X1.3185 Y1.7269
X1.3235 Y1.7362
G3 X1.3178 Y1.7534 I-0.011 J0.0059
G1 X1.3076 Y1.7578
X1.302 Y1.7599
X1.296 Y1.7608
X1.29 Y1.7609
X1.2841 Y1.7603
X1.2782 Y1.7592
X1.2724 Y1.7577
X1.2667 Y1.7558
X1.2611 Y1.7536
X1.2556 Y1.7511
X1.2503 Y1.7483
X1.2451 Y1.7454
X1.24 Y1.7422
X1.235 Y1.7389
X1.2301 Y1.7354
X1.2254 Y1.7317
X1.2208 Y1.7278
X1.2162 Y1.7237
X1.2116 Y1.7194
X1.2071 Y1.7149
X1.2028 Y1.7102
X1.1985 Y1.7053
X1.1944 Y1.7003
X1.1904 Y1.6951
X1.1866 Y1.6898
X1.1829 Y1.6844
X1.1795 Y1.6789
X1.1763 Y1.6734
X1.1733 Y1.6679
X1.1705 Y1.6625
X1.168 Y1.657
X1.1657 Y1.6515
X1.1635 Y1.6459
X1.1615 Y1.6403
X1.1598 Y1.6345
X1.1582 Y1.6287
X1.1569 Y1.6229
X1.1558 Y1.617
X1.155 Y1.611
X1.1545 Y1.605
X1.1544 Y1.599
X1.1547 Y1.5931
X1.1553 Y1.5871
X1.1556 Y1.5856
X1.1588 Y1.5754
X1.1639 Y1.5659
X1.1707 Y1.5576
X1.1791 Y1.5508
X1.1886 Y1.5458
X1.1971 Y1.5423
G3 X1.2126 Y1.5482 I0.0044 J0.0118
G1 X1.2185 Y1.5597
X1.3083 Y1.7312
X1.3133 Y1.7407
G3 X1.3076 Y1.7578 I-0.011 J0.0058
G1 X1.3035 Y1.7596
X1.3016 Y1.7603
X1.296 Y1.7624
X1.2903 Y1.7642
X1.2844 Y1.765
X1.2784 Y1.7649
X1.2724 Y1.7642
X1.2665 Y1.763
X1.2608 Y1.7614
X1.2551 Y1.7594
X1.2496 Y1.7571
X1.2441 Y1.7545
X1.2388 Y1.7516
X1.2337 Y1.7486
X1.2286 Y1.7453
X1.2237 Y1.7419
X1.2189 Y1.7383
X1.2143 Y1.7345
X1.2097 Y1.7306
X1.2052 Y1.7264
X1.2007 Y1.7221
X1.1963 Y1.7174
X1.192 Y1.7126
X1.1878 Y1.7077
X1.1837 Y1.7025
X1.1798 Y1.6973
X1.1761 Y1.6919
X1.1726 Y1.6864
X1.1692 Y1.6809
X1.1661 Y1.6754
X1.1632 Y1.6698
X1.1606 Y1.6643
X1.1581 Y1.6588
X1.1559 Y1.6532
X1.1538 Y1.6476
X1.1519 Y1.6419
X1.1503 Y1.6361
X1.1488 Y1.6303
X1.1476 Y1.6244
X1.1467 Y1.6185
X1.146 Y1.6125
X1.1457 Y1.6065
Y1.6005
X1.1461 Y1.5946
X1.1469 Y1.5886
X1.1474 Y1.5867
X1.1509 Y1.5765
X1.1564 Y1.5672
X1.1636 Y1.5593
X1.1723 Y1.5529
X1.1821 Y1.5484
X1.1886 Y1.5458
G3 X1.2041 Y1.5519 I0.0043 J0.0118
G1 X1.2098 Y1.5633
X1.2977 Y1.736
X1.3024 Y1.7452
G3 X1.2961 Y1.7625 I-0.0112 J0.0057
G1 X1.2844 Y1.7667
X1.2787 Y1.7685
X1.2727 Y1.7691
X1.2667 Y1.7689
X1.2608 Y1.7681
X1.255 Y1.7667
X1.2492 Y1.765
X1.2436 Y1.7629
X1.2381 Y1.7604
X1.2327 Y1.7578
X1.2275 Y1.7548
X1.2224 Y1.7517
X1.2174 Y1.7484
X1.2125 Y1.7449
X1.2078 Y1.7412
X1.2032 Y1.7373
X1.1987 Y1.7333
X1.1942 Y1.7291
X1.1898 Y1.7246
X1.1855 Y1.7199
X1.1812 Y1.715
X1.1771 Y1.7099
X1.1731 Y1.7047
X1.1693 Y1.6994
X1.1657 Y1.694
X1.1622 Y1.6884
X1.159 Y1.6829
X1.156 Y1.6772
X1.1532 Y1.6716
X1.1506 Y1.6661
X1.1483 Y1.6605
X1.1461 Y1.6549
X1.1442 Y1.6493
X1.1424 Y1.6435
X1.1409 Y1.6377
X1.1395 Y1.6319
X1.1384 Y1.626
X1.1376 Y1.6201
X1.1371 Y1.6141
X1.1368 Y1.6081
X1.1369 Y1.6021
X1.1375 Y1.5961
X1.1385 Y1.5902
X1.14 Y1.5844
X1.1401 Y1.5838
X1.1444 Y1.5745
X1.1504 Y1.5662
X1.1579 Y1.5592
X1.1667 Y1.5539
X1.1763 Y1.5504
X1.1821 Y1.5484
G3 X1.197 Y1.555 I0.0036 J0.012
G1 X1.2027 Y1.5669
X1.2863 Y1.7402
X1.2909 Y1.7498
G3 X1.2844 Y1.7667 I-0.0112 J0.0054
G1 X1.2734 Y1.7708
X1.2677 Y1.7726
X1.2617 Y1.7731
X1.2557 Y1.7728
X1.2498 Y1.7719
X1.2439 Y1.7704
X1.2382 Y1.7686
X1.2326 Y1.7664
X1.2272 Y1.7639
X1.2218 Y1.7612
X1.2166 Y1.7582
X1.2116 Y1.755
X1.2066 Y1.7516
X1.2018 Y1.748
X1.1971 Y1.7443
X1.1926 Y1.7403
X1.1881 Y1.7363
X1.1837 Y1.732
X1.1794 Y1.7274
X1.1751 Y1.7227
X1.1709 Y1.7177
X1.1668 Y1.7126
X1.1629 Y1.7074
X1.1592 Y1.702
X1.1556 Y1.6965
X1.1523 Y1.6909
X1.1491 Y1.6853
X1.1461 Y1.6796
X1.1434 Y1.674
X1.141 Y1.6685
X1.1387 Y1.6629
X1.1367 Y1.6573
X1.1348 Y1.6516
X1.1331 Y1.6459
X1.1316 Y1.64
X1.1303 Y1.6342
X1.1293 Y1.6283
X1.1286 Y1.6223
X1.1281 Y1.6163
X1.128 Y1.6103
X1.1281 Y1.6043
X1.1287 Y1.5984
X1.1297 Y1.5924
X1.1298 Y1.592
X1.1339 Y1.5809
X1.1402 Y1.5709
X1.1485 Y1.5626
X1.1585 Y1.5562
X1.1695 Y1.5521
X1.1763 Y1.5504
G3 X1.1904 Y1.5574 I0.0027 J0.0122
G1 X1.1961 Y1.5702
X1.2756 Y1.7443
X1.2801 Y1.7541
G3 X1.2734 Y1.7708 I-0.0114 J0.0051
G1 X1.2705 Y1.7719
X1.2631 Y1.7744
X1.2613 Y1.775
X1.2555 Y1.7765
X1.2495 Y1.7768
X1.2435 Y1.7763
X1.2376 Y1.7752
X1.2319 Y1.7737
X1.2262 Y1.7717
X1.2206 Y1.7694
X1.2152 Y1.7668
X1.21 Y1.7639
X1.2048 Y1.7608
X1.1998 Y1.7575
X1.1949 Y1.754
X1.1902 Y1.7504
X1.1856 Y1.7465
X1.1811 Y1.7425
X1.1768 Y1.7383
X1.1724 Y1.7339
X1.1681 Y1.7293
X1.1639 Y1.7245
X1.1598 Y1.7194
X1.1559 Y1.7142
X1.152 Y1.7089
X1.1484 Y1.7034
X1.145 Y1.6979
X1.1417 Y1.6923
X1.1387 Y1.6866
X1.1359 Y1.681
X1.1333 Y1.6753
X1.1309 Y1.6697
X1.1288 Y1.6641
X1.1268 Y1.6584
X1.125 Y1.6527
X1.1234 Y1.6469
X1.1221 Y1.6411
X1.1209 Y1.6352
X1.1201 Y1.6292
X1.1194 Y1.6233
X1.1191 Y1.6173
X1.119 Y1.6113
X1.1194 Y1.6053
X1.1202 Y1.5994
X1.1213 Y1.5935
X1.1219 Y1.5916
X1.1262 Y1.5811
X1.1326 Y1.5718
X1.1408 Y1.564
X1.1504 Y1.5581
X1.161 Y1.5542
X1.1695 Y1.5521
G3 X1.1836 Y1.5594 I0.0026 J0.0122
G1 X1.189 Y1.572
X1.2645 Y1.7486
X1.2686 Y1.7583
G3 X1.2613 Y1.775 I-0.0115 J0.0049
G1 X1.2498 Y1.7786
X1.244 Y1.7801
X1.238 Y1.7803
X1.232 Y1.7798
X1.2261 Y1.7786
X1.2203 Y1.7769
X1.2147 Y1.7748
X1.2092 Y1.7725
X1.2038 Y1.7698
X1.1986 Y1.7668
X1.1935 Y1.7636
X1.1886 Y1.7603
X1.1838 Y1.7567
X1.1791 Y1.7529
X1.1745 Y1.749
X1.1701 Y1.7449
X1.1658 Y1.7407
X1.1615 Y1.7362
X1.1573 Y1.7315
X1.1532 Y1.7266
X1.1491 Y1.7215
X1.1453 Y1.7162
X1.1415 Y1.7108
X1.138 Y1.7053
X1.1346 Y1.6997
X1.1315 Y1.6941
X1.1285 Y1.6884
X1.1258 Y1.6827
X1.1233 Y1.677
X1.121 Y1.6714
X1.119 Y1.6658
X1.1171 Y1.6601
X1.1154 Y1.6543
X1.1139 Y1.6485
X1.1127 Y1.6426
X1.1116 Y1.6367
X1.1108 Y1.6308
X1.1103 Y1.6248
X1.1101 Y1.6188
Y1.6128
X1.1106 Y1.6068
X1.1115 Y1.6009
X1.1127 Y1.595
X1.1145 Y1.5892
X1.1192 Y1.5799
X1.1257 Y1.5717
X1.1335 Y1.5649
X1.1426 Y1.5597
X1.1524 Y1.5563
X1.161 Y1.5542
G3 X1.1752 Y1.5617 I0.0026 J0.0123
G1 X1.1803 Y1.5742
X1.2531 Y1.7522
X1.2571 Y1.7621
G3 X1.2497 Y1.7785 I-0.0115 J0.0047
G1 X1.2383 Y1.7822
X1.2325 Y1.7837
X1.2265 Y1.7838
X1.2205 Y1.7831
X1.2146 Y1.7818
X1.2089 Y1.78
X1.2033 Y1.7779
X1.1978 Y1.7754
X1.1925 Y1.7726
X1.1873 Y1.7696
X1.1823 Y1.7664
X1.1774 Y1.7629
X1.1726 Y1.7592
X1.168 Y1.7554
X1.1635 Y1.7514
X1.1592 Y1.7473
X1.1549 Y1.743
X1.1507 Y1.7384
X1.1465 Y1.7337
X1.1425 Y1.7287
X1.1386 Y1.7235
X1.1348 Y1.7182
X1.1311 Y1.7128
X1.1277 Y1.7072
X1.1244 Y1.7016
X1.1213 Y1.6959
X1.1185 Y1.6902
X1.1158 Y1.6845
X1.1134 Y1.6788
X1.1112 Y1.6731
X1.1093 Y1.6675
X1.1075 Y1.6618
X1.1059 Y1.656
X1.1045 Y1.6501
X1.1033 Y1.6443
X1.1023 Y1.6383
X1.1016 Y1.6324
X1.1012 Y1.6264
X1.101 Y1.6204
X1.1012 Y1.6144
X1.1017 Y1.6084
X1.1026 Y1.6025
X1.1039 Y1.5966
X1.1057 Y1.5909
Y1.5907
X1.1105 Y1.5816
X1.117 Y1.5736
X1.1248 Y1.5669
X1.1337 Y1.5618
X1.1434 Y1.5585
X1.1524 Y1.5563
G3 X1.1665 Y1.564 I0.0025 J0.0122
G1 X1.1715 Y1.5765
X1.2418 Y1.7558
X1.2458 Y1.7659
G3 X1.2383 Y1.7822 I-0.0117 J0.0045
G1 X1.2284 Y1.7853
X1.2225 Y1.7867
X1.2166 Y1.787
X1.2106 Y1.7864
X1.2047 Y1.7852
X1.199 Y1.7835
X1.1934 Y1.7814
X1.1879 Y1.7789
X1.1826 Y1.7761
X1.1774 Y1.7731
X1.1724 Y1.7698
X1.1675 Y1.7663
X1.1627 Y1.7627
X1.1581 Y1.7588
X1.1537 Y1.7548
X1.1493 Y1.7506
X1.1451 Y1.7463
X1.141 Y1.7418
X1.1369 Y1.7371
X1.1329 Y1.7321
X1.1291 Y1.727
X1.1253 Y1.7217
X1.1217 Y1.7162
X1.1183 Y1.7107
X1.115 Y1.705
X1.112 Y1.6992
X1.1091 Y1.6935
X1.1065 Y1.6877
X1.1041 Y1.682
X1.102 Y1.6763
X1.1001 Y1.6707
X1.0983 Y1.6649
X1.0967 Y1.6591
X1.0954 Y1.6533
X1.0942 Y1.6474
X1.0932 Y1.6415
X1.0925 Y1.6355
X1.0921 Y1.6296
X1.0919 Y1.6236
X1.0921 Y1.6176
X1.0925 Y1.6116
X1.0933 Y1.6056
X1.0946 Y1.5998
X1.0963 Y1.594
X1.0964 Y1.5937
X1.1012 Y1.5844
X1.1076 Y1.5761
X1.1155 Y1.5693
X1.1245 Y1.564
X1.1344 Y1.5606
X1.1434 Y1.5585
G3 X1.1575 Y1.5662 I0.0025 J0.0122
G1 X1.1624 Y1.5787
X1.232 Y1.7589
X1.2359 Y1.769
X1.2365 Y1.7712
X1.2367 Y1.7735
G3 X1.2284 Y1.7853 I-0.0125 J0
G1 X1.2226 Y1.787
X1.2153 Y1.7889
X1.2095 Y1.7901
X1.2035 Y1.79
X1.1975 Y1.7892
X1.1917 Y1.7877
X1.186 Y1.7858
X1.1805 Y1.7835
X1.1751 Y1.7808
X1.1699 Y1.7779
X1.1648 Y1.7747
X1.1598 Y1.7713
X1.155 Y1.7677
X1.1504 Y1.764
X1.1459 Y1.76
X1.1415 Y1.7559
X1.1373 Y1.7516
X1.1332 Y1.7472
X1.1291 Y1.7426
X1.1251 Y1.7377
X1.1212 Y1.7326
X1.1174 Y1.7273
X1.1138 Y1.7219
X1.1103 Y1.7164
X1.107 Y1.7107
X1.1039 Y1.705
X1.101 Y1.6992
X1.0983 Y1.6934
X1.0958 Y1.6876
X1.0936 Y1.6818
X1.0916 Y1.6761
X1.0898 Y1.6704
X1.0881 Y1.6646
X1.0867 Y1.6588
X1.0855 Y1.6529
X1.0844 Y1.647
X1.0837 Y1.641
X1.0831 Y1.6351
X1.0828 Y1.6291
Y1.6231
X1.0831 Y1.6171
X1.0837 Y1.6111
X1.0848 Y1.6052
X1.0863 Y1.5994
X1.0865 Y1.5985
X1.0911 Y1.5885
X1.0975 Y1.5795
X1.1057 Y1.5721
X1.1151 Y1.5664
X1.1255 Y1.5628
X1.1344 Y1.5606
G3 X1.1487 Y1.5686 I0.0025 J0.0123
G1 X1.1532 Y1.5809
X1.2199 Y1.7628
X1.2235 Y1.7726
G3 X1.2153 Y1.7889 I-0.0117 J0.0043
G1 X1.2035 Y1.792
X1.1976 Y1.7932
X1.1916 Y1.7929
X1.1857 Y1.792
X1.1799 Y1.7904
X1.1743 Y1.7884
X1.1688 Y1.7859
X1.1634 Y1.7832
X1.1583 Y1.7802
X1.1532 Y1.7769
X1.1483 Y1.7735
X1.1436 Y1.7698
X1.139 Y1.7659
X1.1346 Y1.7619
X1.1303 Y1.7577
X1.1261 Y1.7534
X1.122 Y1.7489
X1.118 Y1.7441
X1.1141 Y1.7392
X1.1103 Y1.734
X1.1066 Y1.7287
X1.103 Y1.7232
X1.0997 Y1.7176
X1.0965 Y1.7119
X1.0935 Y1.7062
X1.0906 Y1.7003
X1.088 Y1.6945
X1.0856 Y1.6886
X1.0835 Y1.6827
X1.0816 Y1.677
X1.0798 Y1.6712
X1.0783 Y1.6654
X1.077 Y1.6596
X1.0758 Y1.6537
X1.0749 Y1.6478
X1.0742 Y1.6418
X1.0738 Y1.6358
X1.0736 Y1.6298
X1.0737 Y1.6238
X1.0741 Y1.6178
X1.0748 Y1.6119
X1.0761 Y1.606
X1.0776 Y1.6002
X1.0781 Y1.5989
X1.0828 Y1.5893
X1.0892 Y1.5809
X1.0972 Y1.5738
X1.1064 Y1.5684
X1.1165 Y1.5649
X1.1255 Y1.5628
G3 X1.1398 Y1.5709 I0.0025 J0.0122
G1 X1.1441 Y1.5831
X1.2082 Y1.7658
X1.2117 Y1.7759
G3 X1.2035 Y1.792 I-0.0118 J0.0041
G1 X1.1937 Y1.7945
X1.1878 Y1.7957
X1.1818 Y1.7958
X1.1759 Y1.7949
X1.1701 Y1.7934
X1.1644 Y1.7915
X1.1589 Y1.7891
X1.1535 Y1.7864
X1.1483 Y1.7834
X1.1433 Y1.7801
X1.1384 Y1.7766
X1.1337 Y1.7729
X1.1291 Y1.769
X1.1247 Y1.765
X1.1204 Y1.7608
X1.1163 Y1.7564
X1.1123 Y1.7519
X1.1083 Y1.7473
X1.1045 Y1.7424
X1.1008 Y1.7373
X1.0971 Y1.732
X1.0936 Y1.7265
X1.0902 Y1.7209
X1.087 Y1.7151
X1.084 Y1.7093
X1.0812 Y1.7034
X1.0786 Y1.6975
X1.0763 Y1.6916
X1.0742 Y1.6858
X1.0723 Y1.68
X1.0706 Y1.6743
X1.0691 Y1.6685
X1.0677 Y1.6626
X1.0666 Y1.6567
X1.0657 Y1.6508
X1.065 Y1.6448
X1.0646 Y1.6388
X1.0644 Y1.6328
X1.0645 Y1.6268
X1.0649 Y1.6209
X1.0656 Y1.6149
X1.0667 Y1.609
X1.0683 Y1.6032
X1.0687 Y1.602
X1.0733 Y1.5922
X1.0798 Y1.5835
X1.0878 Y1.5762
X1.0971 Y1.5707
X1.1074 Y1.5671
X1.1165 Y1.5649
G3 X1.1307 Y1.5731 I0.0024 J0.0123
G1 X1.135 Y1.5853
X1.1984 Y1.7683
X1.2019 Y1.7785
G3 X1.1937 Y1.7946 I-0.0118 J0.0041
G1 X1.1879 Y1.796
X1.1821 Y1.7974
X1.1762 Y1.7984
X1.1702 Y1.7983
X1.1643 Y1.7974
X1.1585 Y1.7958
X1.1528 Y1.7938
X1.1474 Y1.7913
X1.1421 Y1.7885
X1.1369 Y1.7854
X1.1319 Y1.7821
X1.1271 Y1.7786
X1.1224 Y1.7748
X1.1179 Y1.7708
X1.1135 Y1.7667
X1.1093 Y1.7625
X1.1052 Y1.7581
X1.1013 Y1.7535
X1.0974 Y1.7488
X1.0936 Y1.7438
X1.0899 Y1.7386
X1.0863 Y1.7332
X1.0829 Y1.7276
X1.0796 Y1.722
X1.0765 Y1.7162
X1.0736 Y1.7104
X1.0709 Y1.7045
X1.0684 Y1.6985
X1.0662 Y1.6926
X1.0641 Y1.6867
X1.0623 Y1.6808
X1.0606 Y1.675
X1.0592 Y1.6692
X1.058 Y1.6633
X1.057 Y1.6574
X1.0561 Y1.6514
X1.0556 Y1.6455
X1.0552 Y1.6395
X1.0551 Y1.6335
X1.0553 Y1.6275
X1.0558 Y1.6215
X1.0567 Y1.6156
X1.0579 Y1.6097
X1.0596 Y1.6039
X1.0601 Y1.6025
X1.0651 Y1.5927
X1.072 Y1.584
X1.0805 Y1.577
X1.0902 Y1.5717
X1.1008 Y1.5686
X1.1074 Y1.5671
G3 X1.1218 Y1.5754 I0.0025 J0.0123
G1 X1.1258 Y1.5875
X1.1874 Y1.7713
X1.1907 Y1.7813
G3 X1.1821 Y1.7973 I-0.0118 J0.004
G1 X1.1706 Y1.7999
X1.1646 Y1.8009
X1.1586 Y1.8007
X1.1527 Y1.7997
X1.147 Y1.7981
X1.1413 Y1.796
X1.1359 Y1.7934
X1.1306 Y1.7906
X1.1255 Y1.7874
X1.1206 Y1.784
X1.1158 Y1.7804
X1.1112 Y1.7766
X1.1067 Y1.7726
X1.1024 Y1.7684
X1.0982 Y1.7641
X1.0942 Y1.7596
X1.0904 Y1.755
X1.0865 Y1.7502
X1.0828 Y1.7451
X1.0792 Y1.7399
X1.0757 Y1.7344
X1.0723 Y1.7289
X1.0691 Y1.7232
X1.0661 Y1.7174
X1.0633 Y1.7115
X1.0607 Y1.7055
X1.0582 Y1.6995
X1.056 Y1.6935
X1.0541 Y1.6875
X1.0523 Y1.6817
X1.0508 Y1.6759
X1.0494 Y1.67
X1.0483 Y1.6642
X1.0474 Y1.6582
X1.0466 Y1.6523
X1.0461 Y1.6463
X1.0459 Y1.6403
Y1.6343
X1.0461 Y1.6283
X1.0467 Y1.6223
X1.0477 Y1.6164
X1.0491 Y1.6106
X1.0508 Y1.6048
X1.0514 Y1.6034
X1.0564 Y1.5938
X1.0633 Y1.5854
X1.0717 Y1.5785
X1.0813 Y1.5734
X1.0917 Y1.5703
X1.1008 Y1.5686
G3 X1.1146 Y1.5772 I0.0019 J0.0123
G1 X1.1185 Y1.5898
X1.1763 Y1.7739
X1.1794 Y1.784
G3 X1.1706 Y1.7999 I-0.0119 J0.0038
G1 X1.1648 Y1.8011
X1.1573 Y1.8026
X1.1513 Y1.8035
X1.1453 Y1.8029
X1.1395 Y1.8016
X1.1338 Y1.7997
X1.1283 Y1.7974
X1.1229 Y1.7946
X1.1177 Y1.7916
X1.1127 Y1.7883
X1.1079 Y1.7848
X1.1032 Y1.781
X1.0987 Y1.7771
X1.0943 Y1.773
X1.0901 Y1.7687
X1.086 Y1.7643
X1.0821 Y1.7597
X1.0784 Y1.755
X1.0746 Y1.7501
X1.071 Y1.7449
X1.0675 Y1.7396
X1.0641 Y1.734
X1.0608 Y1.7283
X1.0578 Y1.7225
X1.0549 Y1.7166
X1.0522 Y1.7107
X1.0497 Y1.7047
X1.0474 Y1.6986
X1.0454 Y1.6926
X1.0435 Y1.6867
X1.042 Y1.6808
X1.0406 Y1.675
X1.0394 Y1.6691
X1.0383 Y1.6632
X1.0375 Y1.6572
X1.037 Y1.6513
X1.0366 Y1.6453
X1.0365 Y1.6393
X1.0367 Y1.6333
X1.0372 Y1.6273
X1.0379 Y1.6214
X1.0391 Y1.6155
X1.0407 Y1.6097
X1.0413 Y1.6078
X1.0463 Y1.5972
X1.0534 Y1.5879
X1.0623 Y1.5804
X1.0726 Y1.5749
X1.0838 Y1.5717
X1.0908 Y1.5705
X1.0917 Y1.5703
G3 X1.1056 Y1.5791 I0.0019 J0.0124
G1 X1.1092 Y1.5916
X1.1634 Y1.7768
X1.1664 Y1.7869
G3 X1.1572 Y1.8026 I-0.012 J0.0035
G1 X1.1474 Y1.8046
X1.1457 Y1.8048
X1.1397 Y1.8055
X1.1338 Y1.8049
X1.1279 Y1.8036
X1.1222 Y1.8016
X1.1167 Y1.7992
X1.1114 Y1.7964
X1.1063 Y1.7933
X1.1013 Y1.79
X1.0965 Y1.7864
X1.0919 Y1.7826
X1.0874 Y1.7785
X1.0831 Y1.7744
X1.079 Y1.77
X1.075 Y1.7656
X1.0711 Y1.761
X1.0674 Y1.7562
X1.0637 Y1.7512
X1.0602 Y1.7459
X1.0567 Y1.7405
X1.0534 Y1.735
X1.0502 Y1.7292
X1.0472 Y1.7234
X1.0444 Y1.7175
X1.0418 Y1.7115
X1.0394 Y1.7054
X1.0372 Y1.6994
X1.0353 Y1.6933
X1.0335 Y1.6873
X1.032 Y1.6815
X1.0307 Y1.6756
X1.0296 Y1.6697
X1.0287 Y1.6638
X1.028 Y1.6578
X1.0275 Y1.6518
X1.0272 Y1.6458
Y1.6398
X1.0274 Y1.6339
X1.028 Y1.6279
X1.0289 Y1.6219
X1.0302 Y1.6161
X1.0318 Y1.6103
X1.034 Y1.6047
X1.0346 Y1.6034
X1.0405 Y1.5935
X1.0484 Y1.5851
X1.0578 Y1.5786
X1.0684 Y1.5741
X1.0797 Y1.572
G3 X1.0923 Y1.5809 I0.0006 J0.0125
G1 X1.0964 Y1.5947
X1.1523 Y1.7793
X1.1552 Y1.789
G3 X1.1457 Y1.8049 I-0.012 J0.0036
G1 X1.1334 Y1.8068
X1.1275 Y1.8074
X1.1215 Y1.8067
X1.1157 Y1.8052
X1.1101 Y1.8031
X1.1046 Y1.8006
X1.0994 Y1.7977
X1.0943 Y1.7945
X1.0894 Y1.7911
X1.0846 Y1.7874
X1.0801 Y1.7835
X1.0757 Y1.7794
X1.0714 Y1.7751
X1.0674 Y1.7707
X1.0635 Y1.7662
X1.0597 Y1.7615
X1.056 Y1.7567
X1.0525 Y1.7516
X1.049 Y1.7463
X1.0456 Y1.7408
X1.0424 Y1.7352
X1.0393 Y1.7294
X1.0364 Y1.7235
X1.0337 Y1.7175
X1.0312 Y1.7115
X1.0289 Y1.7054
X1.0269 Y1.6994
X1.025 Y1.6933
X1.0234 Y1.6873
X1.022 Y1.6815
X1.0208 Y1.6756
X1.0197 Y1.6697
X1.0189 Y1.6637
X1.0183 Y1.6578
X1.0179 Y1.6518
